P3
400 225
255
163 200 255
163 200 255
163 200 255
163 200 255
163 200 255
163 200 255
163 200 255
163 200 255
163 200 255
163 200 255
163 200 255
162 200 255
162 200 255
162 200 255
162 199 255
162 199 255
162 199 255
162 199 255
162 199 255
162 199 255
162 199 255
161 199 255
161 199 255
161 199 255
161 199 255
161 199 255
161 199 255
161 199 255
161 199 255
161 199 255
161 199 255
161 199 255
160 198 255
160 198 255
160 198 255
160 198 255
160 198 255
160 198 255
160 198 255
160 198 255
160 198 255
160 198 255
159 198 255
159 198 255
159 198 255
159 198 255
159 198 255
159 198 255
159 197 255
159 197 255
159 197 255
159 197 255
158 197 255
158 197 255
158 197 255
158 197 255
158 197 255
158 197 255
158 197 255
158 197 255
158 197 255
157 197 255
157 197 255
157 197 255
157 196 255
157 196 255
157 196 255
157 196 255
157 196 255
157 196 255
157 196 255
156 196 255
156 196 255
156 196 255
156 196 255
156 196 255
156 196 255
156 196 255
156 196 255
156 196 255
155 195 255
155 195 255
155 195 255
155 195 255
155 195 255
155 195 255
155 195 255
155 195 255
155 195 255
154 195 255
154 195 255
154 195 255
154 195 255
154 195 255
154 195 255
154 194 255
154 194 255
154 194 255
153 194 255
153 194 255
153 194 255
153 194 255
153 194 255
153 194 255
153 194 255
153 194 255
153 194 255
152 194 255
152 194 255
152 194 255
152 193 255
152 193 255
152 193 255
152 193 255
152 193 255
152 193 255
152 193 255
151 193 255
151 193 255
151 193 255
151 193 255
151 193 255
151 193 255
151 193 255
151 193 255
151 193 255
151 193 255
150 192 255
150 192 255
150 192 255
150 192 255
150 192 255
150 192 255
150 192 255
150 192 255
150 192 255
150 192 255
149 192 255
149 192 255
149 192 255
149 192 255
149 192 255
149 192 255
149 192 255
149 192 255
149 191 255
149 191 255
149 191 255
149 191 255
148 191 255
148 191 255
148 191 255
148 191 255
148 191 255
148 191 255
148 191 255
148 191 255
148 191 255
148 191 255
148 191 255
148 191 255
148 191 255
148 191 255
148 191 255
147 191 255
147 191 255
147 191 255
147 191 255
147 191 255
147 190 255
147 190 255
147 190 255
147 190 255
147 190 255
147 190 255
147 190 255
147 190 255
147 190 255
147 190 255
147 190 255
147 190 255
147 190 255
147 190 255
147 190 255
147 190 255
147 190 255
147 190 255
146 190 255
146 190 255
146 190 255
146 190 255
146 190 255
146 190 255
146 190 255
146 190 255
146 190 255
146 190 255
146 190 255
146 190 255
146 190 255
146 190 255
146 190 255
146 190 255
146 190 255
146 190 255
146 190 255
146 190 255
146 190 255
146 190 255
146 190 255
146 190 255
146 190 255
146 190 255
147 190 255
147 190 255
147 190 255
147 190 255
147 190 255
147 190 255
147 190 255
147 190 255
147 190 255
147 190 255
147 190 255
147 190 255
147 190 255
147 190 255
147 190 255
147 190 255
147 190 255
147 190 255
147 191 255
147 191 255
147 191 255
147 191 255
147 191 255
147 191 255
148 191 255
148 191 255
148 191 255
148 191 255
148 191 255
148 191 255
148 191 255
148 191 255
148 191 255
148 191 255
148 191 255
148 191 255
148 191 255
148 191 255
149 191 255
149 191 255
149 191 255
149 191 255
149 192 255
149 192 255
149 192 255
149 192 255
149 192 255
149 192 255
149 192 255
149 192 255
150 192 255
150 192 255
150 192 255
150 192 255
150 192 255
150 192 255
150 192 255
150 192 255
150 192 255
150 192 255
151 193 255
151 193 255
151 193 255
151 193 255
151 193 255
151 193 255
151 193 255
151 193 255
151 193 255
151 193 255
152 193 255
152 193 255
152 193 255
152 193 255
152 193 255
152 193 255
152 194 255
152 194 255
152 194 255
152 194 255
153 194 255
153 194 255
153 194 255
153 194 255
153 194 255
153 194 255
153 194 255
153 194 255
153 194 255
154 194 255
154 194 255
154 194 255
154 195 255
154 195 255
154 195 255
154 195 255
154 195 255
154 195 255
155 195 255
155 195 255
155 195 255
155 195 255
155 195 255
155 195 255
155 195 255
155 195 255
155 195 255
156 196 255
156 196 255
156 196 255
156 196 255
156 196 255
156 196 255
156 196 255
156 196 255
156 196 255
157 196 255
157 196 255
157 196 255
157 196 255
157 196 255
157 196 255
157 196 255
157 197 255
157 197 255
157 197 255
158 197 255
158 197 255
158 197 255
158 197 255
158 197 255
158 197 255
158 197 255
158 197 255
158 197 255
159 197 255
159 197 255
159 197 255
159 198 255
159 198 255
159 198 255
159 198 255
159 198 255
159 198 255
159 198 255
160 198 255
160 198 255
160 198 255
160 198 255
160 198 255
160 198 255
160 198 255
160 198 255
160 198 255
160 198 255
161 199 255
161 199 255
161 199 255
161 199 255
161 199 255
161 199 255
161 199 255
161 199 255
161 199 255
161 199 255
162 199 255
162 199 255
162 199 255
162 199 255
162 199 255
162 199 255
162 199 255
162 199 255
162 200 255
162 200 255
162 200 255
163 200 255
163 200 255
163 200 255
163 200 255
163 200 255
163 200 255
163 200 255
163 200 255
163 200 255
163 200 255
163 200 255
164 200 255
164 200 255
163 200 255
163 200 255
163 200 255
163 200 255
163 200 255
163 200 255
163 200 255
163 200 255
163 200 255
163 200 255
163 200 255
162 200 255
162 200 255
162 200 255
162 200 255
162 199 255
162 199 255
162 199 255
162 199 255
162 199 255
162 199 255
162 199 255
161 199 255
161 199 255
161 199 255
161 199 255
161 199 255
161 199 255
161 199 255
161 199 255
161 199 255
161 199 255
160 198 255
160 198 255
160 198 255
160 198 255
160 198 255
160 198 255
160 198 255
160 198 255
160 198 255
160 198 255
159 198 255
159 198 255
159 198 255
159 198 255
159 198 255
159 198 255
159 198 255
159 197 255
159 197 255
159 197 255
158 197 255
158 197 255
158 197 255
158 197 255
158 197 255
158 197 255
158 197 255
158 197 255
158 197 255
158 197 255
157 197 255
157 197 255
157 196 255
157 196 255
157 196 255
157 196 255
157 196 255
157 196 255
157 196 255
156 196 255
156 196 255
156 196 255
156 196 255
156 196 255
156 196 255
156 196 255
156 196 255
156 196 255
155 195 255
155 195 255
155 195 255
155 195 255
155 195 255
155 195 255
155 195 255
155 195 255
155 195 255
154 195 255
154 195 255
154 195 255
154 195 255
154 195 255
154 195 255
154 194 255
154 194 255
154 194 255
153 194 255
153 194 255
153 194 255
153 194 255
153 194 255
153 194 255
153 194 255
153 194 255
153 194 255
153 194 255
152 194 255
152 194 255
152 194 255
152 193 255
152 193 255
152 193 255
152 193 255
152 193 255
152 193 255
151 193 255
151 193 255
151 193 255
151 193 255
151 193 255
151 193 255
151 193 255
151 193 255
151 193 255
151 193 255
150 192 255
150 192 255
150 192 255
150 192 255
150 192 255
150 192 255
150 192 255
150 192 255
150 192 255
150 192 255
150 192 255
149 192 255
149 192 255
149 192 255
149 192 255
149 192 255
149 192 255
149 192 255
149 192 255
149 191 255
149 191 255
149 191 255
149 191 255
148 191 255
148 191 255
148 191 255
148 191 255
148 191 255
148 191 255
148 191 255
148 191 255
148 191 255
148 191 255
148 191 255
148 191 255
148 191 255
148 191 255
148 191 255
147 191 255
147 191 255
147 191 255
147 191 255
147 191 255
147 191 255
147 190 255
147 190 255
147 190 255
147 190 255
147 190 255
147 190 255
147 190 255
147 190 255
147 190 255
147 190 255
147 190 255
147 190 255
147 190 255
147 190 255
147 190 255
147 190 255
147 190 255
147 190 255
147 190 255
147 190 255
147 190 255
147 190 255
147 190 255
147 190 255
147 190 255
147 190 255
147 190 255
147 190 255
147 190 255
147 190 255
147 190 255
147 190 255
147 190 255
147 190 255
147 190 255
147 190 255
147 190 255
147 190 255
147 190 255
147 190 255
147 190 255
147 190 255
147 190 255
147 190 255
147 190 255
147 190 255
147 190 255
147 190 255
147 190 255
147 190 255
147 190 255
147 190 255
147 190 255
147 191 255
147 191 255
147 191 255
147 191 255
147 191 255
147 191 255
147 191 255
148 191 255
148 191 255
148 191 255
148 191 255
148 191 255
148 191 255
148 191 255
148 191 255
148 191 255
148 191 255
148 191 255
148 191 255
148 191 255
148 191 255
148 191 255
149 191 255
149 191 255
149 191 255
149 191 255
149 191 255
149 192 255
149 192 255
149 192 255
149 192 255
149 192 255
149 192 255
149 192 255
150 192 255
150 192 255
150 192 255
150 192 255
150 192 255
150 192 255
150 192 255
150 192 255
150 192 255
150 192 255
150 192 255
151 193 255
151 193 255
151 193 255
151 193 255
151 193 255
151 193 255
151 193 255
151 193 255
151 193 255
151 193 255
152 193 255
152 193 255
152 193 255
152 193 255
152 193 255
152 193 255
152 194 255
152 194 255
152 194 255
152 194 255
153 194 255
153 194 255
153 194 255
153 194 255
153 194 255
153 194 255
153 194 255
153 194 255
153 194 255
154 194 255
154 194 255
154 194 255
154 195 255
154 195 255
154 195 255
154 195 255
154 195 255
154 195 255
155 195 255
155 195 255
155 195 255
155 195 255
155 195 255
155 195 255
155 195 255
155 195 255
155 195 255
156 196 255
156 196 255
156 196 255
156 196 255
156 196 255
156 196 255
156 196 255
156 196 255
156 196 255
157 196 255
157 196 255
157 196 255
157 196 255
157 196 255
157 196 255
157 196 255
157 197 255
157 197 255
157 197 255
158 197 255
158 197 255
158 197 255
158 197 255
158 197 255
158 197 255
158 197 255
158 197 255
158 197 255
159 197 255
159 197 255
159 197 255
159 198 255
159 198 255
159 198 255
159 198 255
159 198 255
159 198 255
159 198 255
160 198 255
160 198 255
160 198 255
160 198 255
160 198 255
160 198 255
160 198 255
160 198 255
160 198 255
160 198 255
161 199 255
161 199 255
161 199 255
161 199 255
161 199 255
161 199 255
161 199 255
161 199 255
161 199 255
161 199 255
162 199 255
162 199 255
162 199 255
162 199 255
162 199 255
162 199 255
162 199 255
162 199 255
162 200 255
162 200 255
162 200 255
163 200 255
163 200 255
163 200 255
163 200 255
163 200 255
163 200 255
163 200 255
163 200 255
163 200 255
163 200 255
163 200 255
164 200 255
164 200 255
164 200 255
164 200 255
164 200 255
164 200 255
163 200 255
163 200 255
163 200 255
163 200 255
163 200 255
163 200 255
163 200 255
163 200 255
163 200 255
163 200 255
163 200 255
162 200 255
162 200 255
162 200 255
162 200 255
162 199 255
162 199 255
162 199 255
162 199 255
162 199 255
162 199 255
162 199 255
161 199 255
161 199 255
161 199 255
161 199 255
161 199 255
161 199 255
161 199 255
161 199 255
161 199 255
161 199 255
160 198 255
160 198 255
160 198 255
160 198 255
160 198 255
160 198 255
160 198 255
160 198 255
160 198 255
160 198 255
159 198 255
159 198 255
159 198 255
159 198 255
159 198 255
159 198 255
159 198 255
159 197 255
159 197 255
159 197 255
158 197 255
158 197 255
158 197 255
158 197 255
158 197 255
158 197 255
158 197 255
158 197 255
158 197 255
158 197 255
157 197 255
157 197 255
157 196 255
157 196 255
157 196 255
157 196 255
157 196 255
157 196 255
157 196 255
156 196 255
156 196 255
156 196 255
156 196 255
156 196 255
156 196 255
156 196 255
156 196 255
156 196 255
155 195 255
155 195 255
155 195 255
155 195 255
155 195 255
155 195 255
155 195 255
155 195 255
155 195 255
154 195 255
154 195 255
154 195 255
154 195 255
154 195 255
154 195 255
154 194 255
154 194 255
154 194 255
153 194 255
153 194 255
153 194 255
153 194 255
153 194 255
153 194 255
153 194 255
153 194 255
153 194 255
153 194 255
152 194 255
152 194 255
152 194 255
152 193 255
152 193 255
152 193 255
152 193 255
152 193 255
152 193 255
151 193 255
151 193 255
151 193 255
151 193 255
151 193 255
151 193 255
151 193 255
151 193 255
151 193 255
151 193 255
150 192 255
150 192 255
150 192 255
150 192 255
150 192 255
150 192 255
150 192 255
150 192 255
150 192 255
150 192 255
150 192 255
149 192 255
149 192 255
149 192 255
149 192 255
149 192 255
149 192 255
149 192 255
149 192 255
149 191 255
149 191 255
149 191 255
149 191 255
149 191 255
148 191 255
148 191 255
148 191 255
148 191 255
148 191 255
148 191 255
148 191 255
148 191 255
148 191 255
148 191 255
148 191 255
148 191 255
148 191 255
148 191 255
148 191 255
148 191 255
147 191 255
147 191 255
147 191 255
147 191 255
147 191 255
147 191 255
147 191 255
147 191 255
147 190 255
147 190 255
147 190 255
147 190 255
147 190 255
147 190 255
147 190 255
147 190 255
147 190 255
147 190 255
147 190 255
147 190 255
147 190 255
147 190 255
147 190 255
147 190 255
147 190 255
147 190 255
147 190 255
147 190 255
147 190 255
147 190 255
147 190 255
147 190 255
147 190 255
147 190 255
147 190 255
147 190 255
147 190 255
147 190 255
147 190 255
147 190 255
147 190 255
147 190 255
147 190 255
147 190 255
147 190 255
147 190 255
147 190 255
147 190 255
147 190 255
147 190 255
147 190 255
147 191 255
147 191 255
147 191 255
147 191 255
147 191 255
147 191 255
147 191 255
148 191 255
148 191 255
148 191 255
148 191 255
148 191 255
148 191 255
148 191 255
148 191 255
148 191 255
148 191 255
148 191 255
148 191 255
148 191 255
148 191 255
148 191 255
148 191 255
149 191 255
149 191 255
149 191 255
149 191 255
149 191 255
149 192 255
149 192 255
149 192 255
149 192 255
149 192 255
149 192 255
149 192 255
149 192 255
150 192 255
150 192 255
150 192 255
150 192 255
150 192 255
150 192 255
150 192 255
150 192 255
150 192 255
150 192 255
150 192 255
151 193 255
151 193 255
151 193 255
151 193 255
151 193 255
151 193 255
151 193 255
151 193 255
151 193 255
151 193 255
152 193 255
152 193 255
152 193 255
152 193 255
152 193 255
152 193 255
152 194 255
152 194 255
152 194 255
153 194 255
153 194 255
153 194 255
153 194 255
153 194 255
153 194 255
153 194 255
153 194 255
153 194 255
153 194 255
154 194 255
154 194 255
154 194 255
154 195 255
154 195 255
154 195 255
154 195 255
154 195 255
154 195 255
155 195 255
155 195 255
155 195 255
155 195 255
155 195 255
155 195 255
155 195 255
155 195 255
155 195 255
156 196 255
156 196 255
156 196 255
156 196 255
156 196 255
156 196 255
156 196 255
156 196 255
156 196 255
157 196 255
157 196 255
157 196 255
157 196 255
157 196 255
157 196 255
157 197 255
157 197 255
157 197 255
157 197 255
158 197 255
158 197 255
158 197 255
158 197 255
158 197 255
158 197 255
158 197 255
158 197 255
158 197 255
159 197 255
159 197 255
159 197 255
159 198 255
159 198 255
159 198 255
159 198 255
159 198 255
159 198 255
159 198 255
160 198 255
160 198 255
160 198 255
160 198 255
160 198 255
160 198 255
160 198 255
160 198 255
160 198 255
160 198 255
161 199 255
161 199 255
161 199 255
161 199 255
161 199 255
161 199 255
161 199 255
161 199 255
161 199 255
161 199 255
162 199 255
162 199 255
162 199 255
162 199 255
162 199 255
162 199 255
162 199 255
162 200 255
162 200 255
162 200 255
162 200 255
163 200 255
163 200 255
163 200 255
163 200 255
163 200 255
163 200 255
163 200 255
163 200 255
163 200 255
163 200 255
163 200 255
164 200 255
164 200 255
164 200 255
164 200 255
164 201 255
164 201 255
164 200 255
164 200 255
164 200 255
164 200 255
163 200 255
163 200 255
163 200 255
163 200 255
163 200 255
163 200 255
163 200 255
163 200 255
163 200 255
163 200 255
163 200 255
162 200 255
162 200 255
162 200 255
162 200 255
162 199 255
162 199 255
162 199 255
162 199 255
162 199 255
162 199 255
162 199 255
161 199 255
161 199 255
161 199 255
161 199 255
161 199 255
161 199 255
161 199 255
161 199 255
161 199 255
161 199 255
160 198 255
160 198 255
160 198 255
160 198 255
160 198 255
160 198 255
160 198 255
160 198 255
160 198 255
160 198 255
159 198 255
159 198 255
159 198 255
159 198 255
159 198 255
159 198 255
159 198 255
159 197 255
159 197 255
159 197 255
158 197 255
158 197 255
158 197 255
158 197 255
158 197 255
158 197 255
158 197 255
158 197 255
158 197 255
158 197 255
157 197 255
157 197 255
157 196 255
157 196 255
157 196 255
157 196 255
157 196 255
157 196 255
157 196 255
156 196 255
156 196 255
156 196 255
156 196 255
156 196 255
156 196 255
156 196 255
156 196 255
156 196 255
155 195 255
155 195 255
155 195 255
155 195 255
155 195 255
155 195 255
155 195 255
155 195 255
155 195 255
154 195 255
154 195 255
154 195 255
154 195 255
154 195 255
154 195 255
154 194 255
154 194 255
154 194 255
153 194 255
153 194 255
153 194 255
153 194 255
153 194 255
153 194 255
153 194 255
153 194 255
153 194 255
153 194 255
152 194 255
152 194 255
152 194 255
152 193 255
152 193 255
152 193 255
152 193 255
152 193 255
152 193 255
151 193 255
151 193 255
151 193 255
151 193 255
151 193 255
151 193 255
151 193 255
151 193 255
151 193 255
151 193 255
150 192 255
150 192 255
150 192 255
150 192 255
150 192 255
150 192 255
150 192 255
150 192 255
150 192 255
150 192 255
150 192 255
150 192 255
149 192 255
149 192 255
149 192 255
149 192 255
149 192 255
149 192 255
149 192 255
149 192 255
149 191 255
149 191 255
149 191 255
149 191 255
149 191 255
148 191 255
148 191 255
148 191 255
148 191 255
148 191 255
148 191 255
148 191 255
148 191 255
148 191 255
148 191 255
148 191 255
148 191 255
148 191 255
148 191 255
148 191 255
148 191 255
148 191 255
147 191 255
147 191 255
147 191 255
147 191 255
147 191 255
147 191 255
147 191 255
147 191 255
147 191 255
147 191 255
147 190 255
147 190 255
147 190 255
147 190 255
147 190 255
147 190 255
147 190 255
147 190 255
147 190 255
147 190 255
147 190 255
147 190 255
147 190 255
147 190 255
147 190 255
147 190 255
147 190 255
147 190 255
147 190 255
147 190 255
147 190 255
147 190 255
147 190 255
147 190 255
147 190 255
147 190 255
147 190 255
147 190 255
147 190 255
147 190 255
147 191 255
147 191 255
147 191 255
147 191 255
147 191 255
147 191 255
147 191 255
147 191 255
147 191 255
148 191 255
148 191 255
148 191 255
148 191 255
148 191 255
148 191 255
148 191 255
148 191 255
148 191 255
148 191 255
148 191 255
148 191 255
148 191 255
148 191 255
148 191 255
148 191 255
148 191 255
148 191 255
149 191 255
149 191 255
149 191 255
149 191 255
149 191 255
149 192 255
149 192 255
149 192 255
149 192 255
149 192 255
149 192 255
149 192 255
149 192 255
150 192 255
150 192 255
150 192 255
150 192 255
150 192 255
150 192 255
150 192 255
150 192 255
150 192 255
150 192 255
150 192 255
151 193 255
151 193 255
151 193 255
151 193 255
151 193 255
151 193 255
151 193 255
151 193 255
151 193 255
151 193 255
151 193 255
152 193 255
152 193 255
152 193 255
152 193 255
152 193 255
152 193 255
152 194 255
152 194 255
152 194 255
153 194 255
153 194 255
153 194 255
153 194 255
153 194 255
153 194 255
153 194 255
153 194 255
153 194 255
153 194 255
154 194 255
154 194 255
154 194 255
154 195 255
154 195 255
154 195 255
154 195 255
154 195 255
154 195 255
155 195 255
155 195 255
155 195 255
155 195 255
155 195 255
155 195 255
155 195 255
155 195 255
155 195 255
156 196 255
156 196 255
156 196 255
156 196 255
156 196 255
156 196 255
156 196 255
156 196 255
156 196 255
157 196 255
157 196 255
157 196 255
157 196 255
157 196 255
157 196 255
157 197 255
157 197 255
157 197 255
158 197 255
158 197 255
158 197 255
158 197 255
158 197 255
158 197 255
158 197 255
158 197 255
158 197 255
158 197 255
159 197 255
159 197 255
159 197 255
159 198 255
159 198 255
159 198 255
159 198 255
159 198 255
159 198 255
159 198 255
160 198 255
160 198 255
160 198 255
160 198 255
160 198 255
160 198 255
160 198 255
160 198 255
160 198 255
160 198 255
161 199 255
161 199 255
161 199 255
161 199 255
161 199 255
161 199 255
161 199 255
161 199 255
161 199 255
161 199 255
162 199 255
162 199 255
162 199 255
162 199 255
162 199 255
162 199 255
162 199 255
162 200 255
162 200 255
162 200 255
163 200 255
163 200 255
163 200 255
163 200 255
163 200 255
163 200 255
163 200 255
163 200 255
163 200 255
163 200 255
163 200 255
163 200 255
164 200 255
164 200 255
164 200 255
164 200 255
164 201 255
164 201 255
164 201 255
164 201 255
164 201 255
164 201 255
164 201 255
164 200 255
164 200 255
164 200 255
164 200 255
163 200 255
163 200 255
163 200 255
163 200 255
163 200 255
163 200 255
163 200 255
163 200 255
163 200 255
163 200 255
163 200 255
162 200 255
162 200 255
162 200 255
162 199 255
162 199 255
162 199 255
162 199 255
162 199 255
162 199 255
162 199 255
161 199 255
161 199 255
161 199 255
161 199 255
161 199 255
161 199 255
161 199 255
161 199 255
161 199 255
161 199 255
161 199 255
160 198 255
160 198 255
160 198 255
160 198 255
160 198 255
160 198 255
160 198 255
160 198 255
160 198 255
160 198 255
159 198 255
159 198 255
159 198 255
159 198 255
159 198 255
159 198 255
159 197 255
159 197 255
159 197 255
158 197 255
158 197 255
158 197 255
158 197 255
158 197 255
158 197 255
158 197 255
158 197 255
158 197 255
158 197 255
157 197 255
157 197 255
157 197 255
157 196 255
157 196 255
157 196 255
157 196 255
157 196 255
157 196 255
156 196 255
156 196 255
156 196 255
156 196 255
156 196 255
156 196 255
156 196 255
156 196 255
156 196 255
155 195 255
155 195 255
155 195 255
155 195 255
155 195 255
155 195 255
155 195 255
155 195 255
155 195 255
154 195 255
154 195 255
154 195 255
154 195 255
154 195 255
154 195 255
154 194 255
154 194 255
154 194 255
153 194 255
153 194 255
153 194 255
153 194 255
153 194 255
153 194 255
153 194 255
153 194 255
153 194 255
153 194 255
152 194 255
152 194 255
152 194 255
152 193 255
152 193 255
152 193 255
152 193 255
152 193 255
152 193 255
152 193 255
151 193 255
151 193 255
151 193 255
151 193 255
151 193 255
151 193 255
151 193 255
151 193 255
151 193 255
151 193 255
150 192 255
150 192 255
150 192 255
150 192 255
150 192 255
150 192 255
150 192 255
150 192 255
150 192 255
150 192 255
150 192 255
149 192 255
149 192 255
149 192 255
149 192 255
149 192 255
149 192 255
149 192 255
149 192 255
149 192 255
149 191 255
149 191 255
149 191 255
149 191 255
149 191 255
148 191 255
148 191 255
148 191 255
148 191 255
148 191 255
148 191 255
148 191 255
148 191 255
148 191 255
148 191 255
148 191 255
148 191 255
148 191 255
148 191 255
148 191 255
148 191 255
148 191 255
148 191 255
148 191 255
148 191 255
147 191 255
147 191 255
147 191 255
147 191 255
147 191 255
147 191 255
147 191 255
147 191 255
147 191 255
147 191 255
147 191 255
147 191 255
147 191 255
147 191 255
147 191 255
147 191 255
147 191 255
147 191 255
147 191 255
147 191 255
147 191 255
147 191 255
147 191 255
147 191 255
147 191 255
147 191 255
147 191 255
147 191 255
147 191 255
147 191 255
147 191 255
147 191 255
147 191 255
147 191 255
147 191 255
147 191 255
147 191 255
147 191 255
148 191 255
148 191 255
148 191 255
148 191 255
148 191 255
148 191 255
148 191 255
148 191 255
148 191 255
148 191 255
148 191 255
148 191 255
148 191 255
148 191 255
148 191 255
148 191 255
148 191 255
148 191 255
148 191 255
148 191 255
149 191 255
149 191 255
149 191 255
149 191 255
149 191 255
149 192 255
149 192 255
149 192 255
149 192 255
149 192 255
149 192 255
149 192 255
149 192 255
149 192 255
150 192 255
150 192 255
150 192 255
150 192 255
150 192 255
150 192 255
150 192 255
150 192 255
150 192 255
150 192 255
150 192 255
151 193 255
151 193 255
151 193 255
151 193 255
151 193 255
151 193 255
151 193 255
151 193 255
151 193 255
151 193 255
152 193 255
152 193 255
152 193 255
152 193 255
152 193 255
152 193 255
152 193 255
152 194 255
152 194 255
152 194 255
153 194 255
153 194 255
153 194 255
153 194 255
153 194 255
153 194 255
153 194 255
153 194 255
153 194 255
153 194 255
154 194 255
154 194 255
154 194 255
154 195 255
154 195 255
154 195 255
154 195 255
154 195 255
154 195 255
155 195 255
155 195 255
155 195 255
155 195 255
155 195 255
155 195 255
155 195 255
155 195 255
155 195 255
156 196 255
156 196 255
156 196 255
156 196 255
156 196 255
156 196 255
156 196 255
156 196 255
156 196 255
157 196 255
157 196 255
157 196 255
157 196 255
157 196 255
157 196 255
157 197 255
157 197 255
157 197 255
158 197 255
158 197 255
158 197 255
158 197 255
158 197 255
158 197 255
158 197 255
158 197 255
158 197 255
158 197 255
159 197 255
159 197 255
159 197 255
159 198 255
159 198 255
159 198 255
159 198 255
159 198 255
159 198 255
160 198 255
160 198 255
160 198 255
160 198 255
160 198 255
160 198 255
160 198 255
160 198 255
160 198 255
160 198 255
161 199 255
161 199 255
161 199 255
161 199 255
161 199 255
161 199 255
161 199 255
161 199 255
161 199 255
161 199 255
161 199 255
162 199 255
162 199 255
162 199 255
162 199 255
162 199 255
162 199 255
162 199 255
162 200 255
162 200 255
162 200 255
163 200 255
163 200 255
163 200 255
163 200 255
163 200 255
163 200 255
163 200 255
163 200 255
163 200 255
163 200 255
163 200 255
164 200 255
164 200 255
164 200 255
164 200 255
164 201 255
164 201 255
164 201 255
164 201 255
164 201 255
164 201 255
164 201 255
164 201 255
164 201 255
164 201 255
164 201 255
164 201 255
164 200 255
164 200 255
164 200 255
164 200 255
163 200 255
163 200 255
163 200 255
163 200 255
163 200 255
163 200 255
163 200 255
163 200 255
163 200 255
163 200 255
163 200 255
162 200 255
162 200 255
162 200 255
162 200 255
162 199 255
162 199 255
162 199 255
162 199 255
162 199 255
162 199 255
162 199 255
161 199 255
161 199 255
161 199 255
161 199 255
161 199 255
161 199 255
161 199 255
161 199 255
161 199 255
161 199 255
160 198 255
160 198 255
160 198 255
160 198 255
160 198 255
160 198 255
160 198 255
160 198 255
160 198 255
160 198 255
159 198 255
159 198 255
159 198 255
159 198 255
159 198 255
159 198 255
159 197 255
159 197 255
159 197 255
158 197 255
158 197 255
158 197 255
158 197 255
158 197 255
158 197 255
158 197 255
158 197 255
158 197 255
158 197 255
157 197 255
157 197 255
157 197 255
157 196 255
157 196 255
157 196 255
157 196 255
157 196 255
157 196 255
156 196 255
156 196 255
156 196 255
156 196 255
156 196 255
156 196 255
156 196 255
156 196 255
156 196 255
155 195 255
155 195 255
155 195 255
155 195 255
155 195 255
155 195 255
155 195 255
155 195 255
155 195 255
154 195 255
154 195 255
154 195 255
154 195 255
154 195 255
154 195 255
154 194 255
154 194 255
154 194 255
154 194 255
153 194 255
153 194 255
153 194 255
153 194 255
153 194 255
153 194 255
153 194 255
153 194 255
153 194 255
152 194 255
152 194 255
152 194 255
152 193 255
152 193 255
152 193 255
152 193 255
152 193 255
152 193 255
152 193 255
151 193 255
151 193 255
151 193 255
151 193 255
151 193 255
151 193 255
151 193 255
151 193 255
151 193 255
151 193 255
151 193 255
150 192 255
150 192 255
150 192 255
150 192 255
150 192 255
150 192 255
150 192 255
150 192 255
150 192 255
150 192 255
150 192 255
149 192 255
149 192 255
149 192 255
149 192 255
149 192 255
149 192 255
149 192 255
149 192 255
149 192 255
149 191 255
149 191 255
149 191 255
149 191 255
149 191 255
149 191 255
148 191 255
148 191 255
148 191 255
148 191 255
148 191 255
148 191 255
148 191 255
148 191 255
148 191 255
148 191 255
148 191 255
148 191 255
148 191 255
148 191 255
148 191 255
148 191 255
148 191 255
148 191 255
148 191 255
148 191 255
148 191 255
148 191 255
148 191 255
148 191 255
147 191 255
147 191 255
147 191 255
147 191 255
147 191 255
147 191 255
147 191 255
147 191 255
147 191 255
147 191 255
147 191 255
147 191 255
147 191 255
147 191 255
147 191 255
147 191 255
147 191 255
147 191 255
147 191 255
147 191 255
147 191 255
147 191 255
148 191 255
148 191 255
148 191 255
148 191 255
148 191 255
148 191 255
148 191 255
148 191 255
148 191 255
148 191 255
148 191 255
148 191 255
148 191 255
148 191 255
148 191 255
148 191 255
148 191 255
148 191 255
148 191 255
148 191 255
148 191 255
148 191 255
148 191 255
148 191 255
148 191 255
149 191 255
149 191 255
149 191 255
149 191 255
149 191 255
149 192 255
149 192 255
149 192 255
149 192 255
149 192 255
149 192 255
149 192 255
149 192 255
149 192 255
150 192 255
150 192 255
150 192 255
150 192 255
150 192 255
150 192 255
150 192 255
150 192 255
150 192 255
150 192 255
150 192 255
150 192 255
151 193 255
151 193 255
151 193 255
151 193 255
151 193 255
151 193 255
151 193 255
151 193 255
151 193 255
151 193 255
152 193 255
152 193 255
152 193 255
152 193 255
152 193 255
152 193 255
152 193 255
152 194 255
152 194 255
152 194 255
153 194 255
153 194 255
153 194 255
153 194 255
153 194 255
153 194 255
153 194 255
153 194 255
153 194 255
153 194 255
154 194 255
154 194 255
154 194 255
154 195 255
154 195 255
154 195 255
154 195 255
154 195 255
154 195 255
155 195 255
155 195 255
155 195 255
155 195 255
155 195 255
155 195 255
155 195 255
155 195 255
155 195 255
156 196 255
156 196 255
156 196 255
156 196 255
156 196 255
156 196 255
156 196 255
156 196 255
156 196 255
157 196 255
157 196 255
157 196 255
157 196 255
157 196 255
157 196 255
157 197 255
157 197 255
157 197 255
158 197 255
158 197 255
158 197 255
158 197 255
158 197 255
158 197 255
158 197 255
158 197 255
158 197 255
158 197 255
159 197 255
159 197 255
159 197 255
159 198 255
159 198 255
159 198 255
159 198 255
159 198 255
159 198 255
160 198 255
160 198 255
160 198 255
160 198 255
160 198 255
160 198 255
160 198 255
160 198 255
160 198 255
160 198 255
161 199 255
161 199 255
161 199 255
161 199 255
161 199 255
161 199 255
161 199 255
161 199 255
161 199 255
161 199 255
162 199 255
162 199 255
162 199 255
162 199 255
162 199 255
162 199 255
162 199 255
162 200 255
162 200 255
162 200 255
162 200 255
163 200 255
163 200 255
163 200 255
163 200 255
163 200 255
163 200 255
163 200 255
163 200 255
163 200 255
163 200 255
163 200 255
164 200 255
164 200 255
164 200 255
164 200 255
164 201 255
164 201 255
164 201 255
164 201 255
164 201 255
164 201 255
164 201 255
165 201 255
165 201 255
164 201 255
164 201 255
164 201 255
164 201 255
164 201 255
164 201 255
164 201 255
164 201 255
164 200 255
164 200 255
164 200 255
163 200 255
163 200 255
163 200 255
163 200 255
163 200 255
163 200 255
163 200 255
163 200 255
163 200 255
163 200 255
163 200 255
162 200 255
162 200 255
162 200 255
162 200 255
162 199 255
162 199 255
162 199 255
162 199 255
162 199 255
162 199 255
162 199 255
161 199 255
161 199 255
161 199 255
161 199 255
161 199 255
161 199 255
161 199 255
161 199 255
161 199 255
161 199 255
160 198 255
160 198 255
160 198 255
160 198 255
160 198 255
160 198 255
160 198 255
160 198 255
160 198 255
160 198 255
159 198 255
159 198 255
159 198 255
159 198 255
159 198 255
159 198 255
159 197 255
159 197 255
159 197 255
158 197 255
158 197 255
158 197 255
158 197 255
158 197 255
158 197 255
158 197 255
158 197 255
158 197 255
158 197 255
157 197 255
157 197 255
157 197 255
157 196 255
157 196 255
157 196 255
157 196 255
157 196 255
157 196 255
156 196 255
156 196 255
156 196 255
156 196 255
156 196 255
156 196 255
156 196 255
156 196 255
156 196 255
155 195 255
155 195 255
155 195 255
155 195 255
155 195 255
155 195 255
155 195 255
155 195 255
155 195 255
154 195 255
154 195 255
154 195 255
154 195 255
154 195 255
154 195 255
154 195 255
154 194 255
154 194 255
154 194 255
153 194 255
153 194 255
153 194 255
153 194 255
153 194 255
153 194 255
153 194 255
153 194 255
153 194 255
152 194 255
152 194 255
152 194 255
152 193 255
152 193 255
152 193 255
152 193 255
152 193 255
152 193 255
152 193 255
151 193 255
151 193 255
151 193 255
151 193 255
151 193 255
151 193 255
151 193 255
151 193 255
151 193 255
151 193 255
151 193 255
150 192 255
150 192 255
150 192 255
150 192 255
150 192 255
150 192 255
150 192 255
150 192 255
150 192 255
150 192 255
150 192 255
150 192 255
149 192 255
149 192 255
149 192 255
149 192 255
149 192 255
149 192 255
149 192 255
149 192 255
149 192 255
149 192 255
149 191 255
149 191 255
149 191 255
149 191 255
149 191 255
148 191 255
148 191 255
148 191 255
148 191 255
148 191 255
148 191 255
148 191 255
148 191 255
148 191 255
148 191 255
148 191 255
148 191 255
148 191 255
148 191 255
148 191 255
148 191 255
148 191 255
148 191 255
148 191 255
148 191 255
148 191 255
148 191 255
148 191 255
148 191 255
148 191 255
148 191 255
148 191 255
148 191 255
148 191 255
148 191 255
148 191 255
148 191 255
148 191 255
148 191 255
148 191 255
148 191 255
148 191 255
148 191 255
148 191 255
148 191 255
148 191 255
148 191 255
148 191 255
148 191 255
148 191 255
148 191 255
148 191 255
148 191 255
148 191 255
148 191 255
148 191 255
148 191 255
148 191 255
148 191 255
148 191 255
148 191 255
148 191 255
148 191 255
148 191 255
148 191 255
148 191 255
148 191 255
148 191 255
148 191 255
149 191 255
149 191 255
149 191 255
149 191 255
149 191 255
149 192 255
149 192 255
149 192 255
149 192 255
149 192 255
149 192 255
149 192 255
149 192 255
149 192 255
149 192 255
150 192 255
150 192 255
150 192 255
150 192 255
150 192 255
150 192 255
150 192 255
150 192 255
150 192 255
150 192 255
150 192 255
150 192 255
151 193 255
151 193 255
151 193 255
151 193 255
151 193 255
151 193 255
151 193 255
151 193 255
151 193 255
151 193 255
151 193 255
152 193 255
152 193 255
152 193 255
152 193 255
152 193 255
152 193 255
152 193 255
152 194 255
152 194 255
152 194 255
153 194 255
153 194 255
153 194 255
153 194 255
153 194 255
153 194 255
153 194 255
153 194 255
153 194 255
154 194 255
154 194 255
154 194 255
154 195 255
154 195 255
154 195 255
154 195 255
154 195 255
154 195 255
154 195 255
155 195 255
155 195 255
155 195 255
155 195 255
155 195 255
155 195 255
155 195 255
155 195 255
155 195 255
156 196 255
156 196 255
156 196 255
156 196 255
156 196 255
156 196 255
156 196 255
156 196 255
156 196 255
157 196 255
157 196 255
157 196 255
157 196 255
157 196 255
157 196 255
157 197 255
157 197 255
157 197 255
158 197 255
158 197 255
158 197 255
158 197 255
158 197 255
158 197 255
158 197 255
158 197 255
158 197 255
158 197 255
159 197 255
159 197 255
159 197 255
159 198 255
159 198 255
159 198 255
159 198 255
159 198 255
159 198 255
160 198 255
160 198 255
160 198 255
160 198 255
160 198 255
160 198 255
160 198 255
160 198 255
160 198 255
160 198 255
161 199 255
161 199 255
161 199 255
161 199 255
161 199 255
161 199 255
161 199 255
161 199 255
161 199 255
161 199 255
162 199 255
162 199 255
162 199 255
162 199 255
162 199 255
162 199 255
162 199 255
162 200 255
162 200 255
162 200 255
162 200 255
163 200 255
163 200 255
163 200 255
163 200 255
163 200 255
163 200 255
163 200 255
163 200 255
163 200 255
163 200 255
163 200 255
164 200 255
164 200 255
164 200 255
164 201 255
164 201 255
164 201 255
164 201 255
164 201 255
164 201 255
164 201 255
164 201 255
165 201 255
165 201 255
165 201 255
165 201 255
165 201 255
165 201 255
164 201 255
164 201 255
164 201 255
164 201 255
164 201 255
164 201 255
164 201 255
164 201 255
164 200 255
164 200 255
164 200 255
164 200 255
163 200 255
163 200 255
163 200 255
163 200 255
163 200 255
163 200 255
163 200 255
163 200 255
163 200 255
163 200 255
163 200 255
162 200 255
162 200 255
162 200 255
162 199 255
162 199 255
162 199 255
162 199 255
162 199 255
162 199 255
162 199 255
161 199 255
161 199 255
161 199 255
161 199 255
161 199 255
161 199 255
161 199 255
161 199 255
161 199 255
161 199 255
160 198 255
160 198 255
160 198 255
160 198 255
160 198 255
160 198 255
160 198 255
160 198 255
160 198 255
160 198 255
159 198 255
159 198 255
159 198 255
159 198 255
159 198 255
159 198 255
159 197 255
159 197 255
159 197 255
159 197 255
158 197 255
158 197 255
158 197 255
158 197 255
158 197 255
158 197 255
158 197 255
158 197 255
158 197 255
157 197 255
157 197 255
157 197 255
157 196 255
157 196 255
157 196 255
157 196 255
157 196 255
157 196 255
156 196 255
156 196 255
156 196 255
156 196 255
156 196 255
156 196 255
156 196 255
156 196 255
156 196 255
155 195 255
155 195 255
155 195 255
155 195 255
155 195 255
155 195 255
155 195 255
155 195 255
155 195 255
155 195 255
154 195 255
154 195 255
154 195 255
154 195 255
154 195 255
154 195 255
154 194 255
154 194 255
154 194 255
153 194 255
153 194 255
153 194 255
153 194 255
153 194 255
153 194 255
153 194 255
153 194 255
153 194 255
152 194 255
152 194 255
152 194 255
152 194 255
152 193 255
152 193 255
152 193 255
152 193 255
152 193 255
152 193 255
152 193 255
151 193 255
151 193 255
151 193 255
151 193 255
151 193 255
151 193 255
151 193 255
151 193 255
151 193 255
151 193 255
151 193 255
150 192 255
150 192 255
150 192 255
150 192 255
150 192 255
150 192 255
150 192 255
150 192 255
150 192 255
150 192 255
150 192 255
150 192 255
149 192 255
149 192 255
149 192 255
149 192 255
149 192 255
149 192 255
149 192 255
149 192 255
149 192 255
149 192 255
149 191 255
149 191 255
149 191 255
149 191 255
149 191 255
149 191 255
149 191 255
148 191 255
148 191 255
148 191 255
148 191 255
148 191 255
148 191 255
148 191 255
148 191 255
148 191 255
148 191 255
148 191 255
148 191 255
148 191 255
148 191 255
148 191 255
148 191 255
148 191 255
148 191 255
148 191 255
148 191 255
148 191 255
148 191 255
148 191 255
148 191 255
148 191 255
148 191 255
148 191 255
148 191 255
148 191 255
148 191 255
148 191 255
148 191 255
148 191 255
148 191 255
148 191 255
148 191 255
148 191 255
148 191 255
148 191 255
148 191 255
148 191 255
148 191 255
148 191 255
148 191 255
148 191 255
148 191 255
148 191 255
148 191 255
148 191 255
148 191 255
148 191 255
148 191 255
148 191 255
148 191 255
149 191 255
149 191 255
149 191 255
149 191 255
149 191 255
149 191 255
149 191 255
149 192 255
149 192 255
149 192 255
149 192 255
149 192 255
149 192 255
149 192 255
149 192 255
149 192 255
149 192 255
150 192 255
150 192 255
150 192 255
150 192 255
150 192 255
150 192 255
150 192 255
150 192 255
150 192 255
150 192 255
150 192 255
150 192 255
151 193 255
151 193 255
151 193 255
151 193 255
151 193 255
151 193 255
151 193 255
151 193 255
151 193 255
151 193 255
151 193 255
151 193 255
152 193 255
152 193 255
152 193 255
152 193 255
152 193 255
152 193 255
152 194 255
152 194 255
152 194 255
152 194 255
153 194 255
153 194 255
153 194 255
153 194 255
153 194 255
153 194 255
153 194 255
153 194 255
153 194 255
154 194 255
154 194 255
154 194 255
154 195 255
154 195 255
154 195 255
154 195 255
154 195 255
154 195 255
155 195 255
155 195 255
155 195 255
155 195 255
155 195 255
155 195 255
155 195 255
155 195 255
155 195 255
155 195 255
156 196 255
156 196 255
156 196 255
156 196 255
156 196 255
156 196 255
156 196 255
156 196 255
156 196 255
157 196 255
157 196 255
157 196 255
157 196 255
157 196 255
157 196 255
157 197 255
157 197 255
157 197 255
158 197 255
158 197 255
158 197 255
158 197 255
158 197 255
158 197 255
158 197 255
158 197 255
158 197 255
159 197 255
159 197 255
159 197 255
159 198 255
159 198 255
159 198 255
159 198 255
159 198 255
159 198 255
159 198 255
160 198 255
160 198 255
160 198 255
160 198 255
160 198 255
160 198 255
160 198 255
160 198 255
160 198 255
160 198 255
161 199 255
161 199 255
161 199 255
161 199 255
161 199 255
161 199 255
161 199 255
161 199 255
161 199 255
161 199 255
162 199 255
162 199 255
162 199 255
162 199 255
162 199 255
162 199 255
162 199 255
162 200 255
162 200 255
162 200 255
163 200 255
163 200 255
163 200 255
163 200 255
163 200 255
163 200 255
163 200 255
163 200 255
163 200 255
163 200 255
163 200 255
164 200 255
164 200 255
164 200 255
164 200 255
164 201 255
164 201 255
164 201 255
164 201 255
164 201 255
164 201 255
164 201 255
164 201 255
165 201 255
165 201 255
165 201 255
165 201 255
165 201 255
165 201 255
165 201 255
165 201 255
165 201 255
165 201 255
165 201 255
164 201 255
164 201 255
164 201 255
164 201 255
164 201 255
164 201 255
164 201 255
164 200 255
164 200 255
164 200 255
164 200 255
163 200 255
163 200 255
163 200 255
163 200 255
163 200 255
163 200 255
163 200 255
163 200 255
163 200 255
163 200 255
163 200 255
162 200 255
162 200 255
162 200 255
162 200 255
162 199 255
162 199 255
162 199 255
162 199 255
162 199 255
162 199 255
162 199 255
161 199 255
161 199 255
161 199 255
161 199 255
161 199 255
161 199 255
161 199 255
161 199 255
161 199 255
161 199 255
160 198 255
160 198 255
160 198 255
160 198 255
160 198 255
160 198 255
160 198 255
160 198 255
160 198 255
159 198 255
159 198 255
159 198 255
159 198 255
159 198 255
159 198 255
159 198 255
159 197 255
159 197 255
159 197 255
158 197 255
158 197 255
158 197 255
158 197 255
158 197 255
158 197 255
158 197 255
158 197 255
158 197 255
157 197 255
157 197 255
157 197 255
157 196 255
157 196 255
157 196 255
157 196 255
157 196 255
157 196 255
156 196 255
156 196 255
156 196 255
156 196 255
156 196 255
156 196 255
156 196 255
156 196 255
156 196 255
156 196 255
155 195 255
155 195 255
155 195 255
155 195 255
155 195 255
155 195 255
155 195 255
155 195 255
155 195 255
154 195 255
154 195 255
154 195 255
154 195 255
154 195 255
154 195 255
154 194 255
154 194 255
154 194 255
153 194 255
153 194 255
153 194 255
153 194 255
153 194 255
153 194 255
153 194 255
153 194 255
153 194 255
153 194 255
152 194 255
152 194 255
152 194 255
152 193 255
152 193 255
152 193 255
152 193 255
152 193 255
152 193 255
152 193 255
151 193 255
151 193 255
151 193 255
151 193 255
151 193 255
151 193 255
151 193 255
151 193 255
151 193 255
151 193 255
151 193 255
150 192 255
150 192 255
150 192 255
150 192 255
150 192 255
150 192 255
150 192 255
150 192 255
150 192 255
150 192 255
150 192 255
150 192 255
150 192 255
149 192 255
149 192 255
149 192 255
149 192 255
149 192 255
149 192 255
149 192 255
149 192 255
149 192 255
149 192 255
149 192 255
149 192 255
149 191 255
149 191 255
149 191 255
149 191 255
149 191 255
149 191 255
149 191 255
148 191 255
148 191 255
148 191 255
148 191 255
148 191 255
148 191 255
148 191 255
148 191 255
148 191 255
148 191 255
148 191 255
148 191 255
148 191 255
148 191 255
148 191 255
148 191 255
148 191 255
148 191 255
148 191 255
148 191 255
148 191 255
148 191 255
148 191 255
148 191 255
148 191 255
148 191 255
148 191 255
148 191 255
148 191 255
148 191 255
148 191 255
148 191 255
148 191 255
148 191 255
148 191 255
148 191 255
148 191 255
148 191 255
148 191 255
148 191 255
148 191 255
148 191 255
148 191 255
148 191 255
149 191 255
149 191 255
149 191 255
149 191 255
149 191 255
149 191 255
149 191 255
149 191 255
149 192 255
149 192 255
149 192 255
149 192 255
149 192 255
149 192 255
149 192 255
149 192 255
149 192 255
149 192 255
149 192 255
150 192 255
150 192 255
150 192 255
150 192 255
150 192 255
150 192 255
150 192 255
150 192 255
150 192 255
150 192 255
150 192 255
150 192 255
150 192 255
151 193 255
151 193 255
151 193 255
151 193 255
151 193 255
151 193 255
151 193 255
151 193 255
151 193 255
151 193 255
151 193 255
152 193 255
152 193 255
152 193 255
152 193 255
152 193 255
152 193 255
152 193 255
152 194 255
152 194 255
152 194 255
153 194 255
153 194 255
153 194 255
153 194 255
153 194 255
153 194 255
153 194 255
153 194 255
153 194 255
153 194 255
154 194 255
154 194 255
154 194 255
154 195 255
154 195 255
154 195 255
154 195 255
154 195 255
154 195 255
155 195 255
155 195 255
155 195 255
155 195 255
155 195 255
155 195 255
155 195 255
155 195 255
155 195 255
156 196 255
156 196 255
156 196 255
156 196 255
156 196 255
156 196 255
156 196 255
156 196 255
156 196 255
156 196 255
157 196 255
157 196 255
157 196 255
157 196 255
157 196 255
157 196 255
157 197 255
157 197 255
157 197 255
158 197 255
158 197 255
158 197 255
158 197 255
158 197 255
158 197 255
158 197 255
158 197 255
158 197 255
159 197 255
159 197 255
159 197 255
159 198 255
159 198 255
159 198 255
159 198 255
159 198 255
159 198 255
159 198 255
160 198 255
160 198 255
160 198 255
160 198 255
160 198 255
160 198 255
160 198 255
160 198 255
160 198 255
161 199 255
161 199 255
161 199 255
161 199 255
161 199 255
161 199 255
161 199 255
161 199 255
161 199 255
161 199 255
162 199 255
162 199 255
162 199 255
162 199 255
162 199 255
162 199 255
162 199 255
162 200 255
162 200 255
162 200 255
162 200 255
163 200 255
163 200 255
163 200 255
163 200 255
163 200 255
163 200 255
163 200 255
163 200 255
163 200 255
163 200 255
163 200 255
164 200 255
164 200 255
164 200 255
164 200 255
164 201 255
164 201 255
164 201 255
164 201 255
164 201 255
164 201 255
164 201 255
165 201 255
165 201 255
165 201 255
165 201 255
165 201 255
165 201 255
165 201 255
165 201 255
165 201 255
165 201 255
165 201 255
165 201 255
165 201 255
165 201 255
165 201 255
165 201 255
164 201 255
164 201 255
164 201 255
164 201 255
164 201 255
164 201 255
164 201 255
164 201 255
164 200 255
164 200 255
164 200 255
164 200 255
163 200 255
163 200 255
163 200 255
163 200 255
163 200 255
163 200 255
163 200 255
163 200 255
163 200 255
163 200 255
162 200 255
162 200 255
162 200 255
162 200 255
162 199 255
162 199 255
162 199 255
162 199 255
162 199 255
162 199 255
162 199 255
161 199 255
161 199 255
161 199 255
161 199 255
161 199 255
161 199 255
161 199 255
161 199 255
161 199 255
161 199 255
160 198 255
160 198 255
160 198 255
160 198 255
160 198 255
160 198 255
160 198 255
160 198 255
160 198 255
159 198 255
159 198 255
159 198 255
159 198 255
159 198 255
159 198 255
159 198 255
159 197 255
159 197 255
159 197 255
158 197 255
158 197 255
158 197 255
158 197 255
158 197 255
158 197 255
158 197 255
158 197 255
158 197 255
157 197 255
157 197 255
157 197 255
157 197 255
157 196 255
157 196 255
157 196 255
157 196 255
157 196 255
157 196 255
156 196 255
156 196 255
156 196 255
156 196 255
156 196 255
156 196 255
156 196 255
156 196 255
156 196 255
155 195 255
155 195 255
155 195 255
155 195 255
155 195 255
155 195 255
155 195 255
155 195 255
155 195 255
154 195 255
154 195 255
154 195 255
154 195 255
154 195 255
154 195 255
154 194 255
154 194 255
154 194 255
153 194 255
153 194 255
153 194 255
153 194 255
153 194 255
153 194 255
153 194 255
153 194 255
153 194 255
153 194 255
152 194 255
152 194 255
152 194 255
152 194 255
152 193 255
152 193 255
152 193 255
152 193 255
152 193 255
152 193 255
152 193 255
151 193 255
151 193 255
151 193 255
151 193 255
151 193 255
151 193 255
151 193 255
151 193 255
151 193 255
151 193 255
151 193 255
150 192 255
150 192 255
150 192 255
150 192 255
150 192 255
150 192 255
150 192 255
150 192 255
150 192 255
150 192 255
150 192 255
150 192 255
150 192 255
150 192 255
149 192 255
149 192 255
149 192 255
149 192 255
149 192 255
149 192 255
149 192 255
149 192 255
149 192 255
149 192 255
149 192 255
149 192 255
149 191 255
149 191 255
149 191 255
149 191 255
149 191 255
149 191 255
149 191 255
149 191 255
149 191 255
149 191 255
148 191 255
148 191 255
148 191 255
148 191 255
148 191 255
148 191 255
148 191 255
148 191 255
148 191 255
148 191 255
148 191 255
148 191 255
148 191 255
148 191 255
148 191 255
148 191 255
148 191 255
148 191 255
148 191 255
148 191 255
148 191 255
148 191 255
148 191 255
148 191 255
148 191 255
148 191 255
148 191 255
148 191 255
148 191 255
148 191 255
148 191 255
149 191 255
149 191 255
149 191 255
149 191 255
149 191 255
149 191 255
149 191 255
149 191 255
149 192 255
149 192 255
149 192 255
149 192 255
149 192 255
149 192 255
149 192 255
149 192 255
149 192 255
149 192 255
149 192 255
149 192 255
149 192 255
150 192 255
150 192 255
150 192 255
150 192 255
150 192 255
150 192 255
150 192 255
150 192 255
150 192 255
150 192 255
150 192 255
150 192 255
150 192 255
150 192 255
151 193 255
151 193 255
151 193 255
151 193 255
151 193 255
151 193 255
151 193 255
151 193 255
151 193 255
151 193 255
151 193 255
151 193 255
152 193 255
152 193 255
152 193 255
152 193 255
152 193 255
152 193 255
152 194 255
152 194 255
152 194 255
152 194 255
153 194 255
153 194 255
153 194 255
153 194 255
153 194 255
153 194 255
153 194 255
153 194 255
153 194 255
153 194 255
154 194 255
154 194 255
154 194 255
154 195 255
154 195 255
154 195 255
154 195 255
154 195 255
154 195 255
155 195 255
155 195 255
155 195 255
155 195 255
155 195 255
155 195 255
155 195 255
155 195 255
155 195 255
156 196 255
156 196 255
156 196 255
156 196 255
156 196 255
156 196 255
156 196 255
156 196 255
156 196 255
156 196 255
157 196 255
157 196 255
157 196 255
157 196 255
157 196 255
157 196 255
157 197 255
157 197 255
157 197 255
158 197 255
158 197 255
158 197 255
158 197 255
158 197 255
158 197 255
158 197 255
158 197 255
158 197 255
159 197 255
159 197 255
159 197 255
159 198 255
159 198 255
159 198 255
159 198 255
159 198 255
159 198 255
160 198 255
160 198 255
160 198 255
160 198 255
160 198 255
160 198 255
160 198 255
160 198 255
160 198 255
160 198 255
161 199 255
161 199 255
161 199 255
161 199 255
161 199 255
161 199 255
161 199 255
161 199 255
161 199 255
161 199 255
162 199 255
162 199 255
162 199 255
162 199 255
162 199 255
162 199 255
162 199 255
162 200 255
162 200 255
162 200 255
163 200 255
163 200 255
163 200 255
163 200 255
163 200 255
163 200 255
163 200 255
163 200 255
163 200 255
163 200 255
163 200 255
164 200 255
164 200 255
164 200 255
164 200 255
164 201 255
164 201 255
164 201 255
164 201 255
164 201 255
164 201 255
164 201 255
164 201 255
165 201 255
165 201 255
165 201 255
165 201 255
165 201 255
165 201 255
165 201 255
165 201 255
165 201 255
165 201 255
165 201 255
165 201 255
165 201 255
165 201 255
165 201 255
165 201 255
165 201 255
165 201 255
165 201 255
165 201 255
165 201 255
164 201 255
164 201 255
164 201 255
164 201 255
164 201 255
164 201 255
164 201 255
164 200 255
164 200 255
164 200 255
164 200 255
163 200 255
163 200 255
163 200 255
163 200 255
163 200 255
163 200 255
163 200 255
163 200 255
163 200 255
163 200 255
163 200 255
162 200 255
162 200 255
162 200 255
162 199 255
162 199 255
162 199 255
162 199 255
162 199 255
162 199 255
162 199 255
161 199 255
161 199 255
161 199 255
161 199 255
161 199 255
161 199 255
161 199 255
161 199 255
161 199 255
161 199 255
160 198 255
160 198 255
160 198 255
160 198 255
160 198 255
160 198 255
160 198 255
160 198 255
160 198 255
160 198 255
159 198 255
159 198 255
159 198 255
159 198 255
159 198 255
159 198 255
159 197 255
159 197 255
159 197 255
158 197 255
158 197 255
158 197 255
158 197 255
158 197 255
158 197 255
158 197 255
158 197 255
158 197 255
158 197 255
157 197 255
157 197 255
157 197 255
157 196 255
157 196 255
157 196 255
157 196 255
157 196 255
157 196 255
156 196 255
156 196 255
156 196 255
156 196 255
156 196 255
156 196 255
156 196 255
156 196 255
156 196 255
155 195 255
155 195 255
155 195 255
155 195 255
155 195 255
155 195 255
155 195 255
155 195 255
155 195 255
154 195 255
154 195 255
154 195 255
154 195 255
154 195 255
154 195 255
154 195 255
154 194 255
154 194 255
154 194 255
153 194 255
153 194 255
153 194 255
153 194 255
153 194 255
153 194 255
153 194 255
153 194 255
153 194 255
153 194 255
152 194 255
152 194 255
152 194 255
152 193 255
152 193 255
152 193 255
152 193 255
152 193 255
152 193 255
152 193 255
151 193 255
151 193 255
151 193 255
151 193 255
151 193 255
151 193 255
151 193 255
151 193 255
151 193 255
151 193 255
151 193 255
151 193 255
150 192 255
150 192 255
150 192 255
150 192 255
150 192 255
150 192 255
150 192 255
150 192 255
150 192 255
150 192 255
150 192 255
150 192 255
150 192 255
150 192 255
150 192 255
149 192 255
149 192 255
149 192 255
149 192 255
149 192 255
149 192 255
149 192 255
149 192 255
149 192 255
149 192 255
149 192 255
149 192 255
149 192 255
149 192 255
149 191 255
149 191 255
149 191 255
149 191 255
149 191 255
149 191 255
149 191 255
149 191 255
149 191 255
149 191 255
149 191 255
149 191 255
149 191 255
149 191 255
149 191 255
149 191 255
149 191 255
149 191 255
149 191 255
149 191 255
149 191 255
149 191 255
149 191 255
149 191 255
149 191 255
149 191 255
149 191 255
149 191 255
149 191 255
149 191 255
149 191 255
149 191 255
149 191 255
149 191 255
149 191 255
149 191 255
149 191 255
149 191 255
149 192 255
149 192 255
149 192 255
149 192 255
149 192 255
149 192 255
149 192 255
149 192 255
149 192 255
149 192 255
149 192 255
149 192 255
149 192 255
149 192 255
150 192 255
150 192 255
150 192 255
150 192 255
150 192 255
150 192 255
150 192 255
150 192 255
150 192 255
150 192 255
150 192 255
150 192 255
150 192 255
150 192 255
150 192 255
151 193 255
151 193 255
151 193 255
151 193 255
151 193 255
151 193 255
151 193 255
151 193 255
151 193 255
151 193 255
151 193 255
151 193 255
152 193 255
152 193 255
152 193 255
152 193 255
152 193 255
152 193 255
152 193 255
152 194 255
152 194 255
152 194 255
153 194 255
153 194 255
153 194 255
153 194 255
153 194 255
153 194 255
153 194 255
153 194 255
153 194 255
153 194 255
154 194 255
154 194 255
154 194 255
154 195 255
154 195 255
154 195 255
154 195 255
154 195 255
154 195 255
154 195 255
155 195 255
155 195 255
155 195 255
155 195 255
155 195 255
155 195 255
155 195 255
155 195 255
155 195 255
156 196 255
156 196 255
156 196 255
156 196 255
156 196 255
156 196 255
156 196 255
156 196 255
156 196 255
157 196 255
157 196 255
157 196 255
157 196 255
157 196 255
157 196 255
157 197 255
157 197 255
157 197 255
158 197 255
158 197 255
158 197 255
158 197 255
158 197 255
158 197 255
158 197 255
158 197 255
158 197 255
158 197 255
159 197 255
159 197 255
159 197 255
159 198 255
159 198 255
159 198 255
159 198 255
159 198 255
159 198 255
160 198 255
160 198 255
160 198 255
160 198 255
160 198 255
160 198 255
160 198 255
160 198 255
160 198 255
160 198 255
161 199 255
161 199 255
161 199 255
161 199 255
161 199 255
161 199 255
161 199 255
161 199 255
161 199 255
161 199 255
162 199 255
162 199 255
162 199 255
162 199 255
162 199 255
162 199 255
162 199 255
162 200 255
162 200 255
162 200 255
163 200 255
163 200 255
163 200 255
163 200 255
163 200 255
163 200 255
163 200 255
163 200 255
163 200 255
163 200 255
163 200 255
164 200 255
164 200 255
164 200 255
164 200 255
164 201 255
164 201 255
164 201 255
164 201 255
164 201 255
164 201 255
164 201 255
165 201 255
165 201 255
165 201 255
165 201 255
165 201 255
165 201 255
165 201 255
165 201 255
165 201 255
165 201 255
165 201 255
165 201 255
166 202 255
166 202 255
166 202 255
165 201 255
165 201 255
165 201 255
165 201 255
165 201 255
165 201 255
165 201 255
165 201 255
165 201 255
165 201 255
165 201 255
164 201 255
164 201 255
164 201 255
164 201 255
164 201 255
164 201 255
164 201 255
164 201 255
164 200 255
164 200 255
164 200 255
164 200 255
163 200 255
163 200 255
163 200 255
163 200 255
163 200 255
163 200 255
163 200 255
163 200 255
163 200 255
163 200 255
162 200 255
162 200 255
162 200 255
162 200 255
162 199 255
162 199 255
162 199 255
162 199 255
162 199 255
162 199 255
161 199 255
161 199 255
161 199 255
161 199 255
161 199 255
161 199 255
161 199 255
161 199 255
161 199 255
161 199 255
160 198 255
160 198 255
160 198 255
160 198 255
160 198 255
160 198 255
160 198 255
160 198 255
160 198 255
160 198 255
159 198 255
159 198 255
159 198 255
159 198 255
159 198 255
159 198 255
159 197 255
159 197 255
159 197 255
158 197 255
158 197 255
158 197 255
158 197 255
158 197 255
158 197 255
158 197 255
158 197 255
158 197 255
158 197 255
157 197 255
157 197 255
157 197 255
157 196 255
157 196 255
157 196 255
157 196 255
157 196 255
157 196 255
156 196 255
156 196 255
156 196 255
156 196 255
156 196 255
156 196 255
156 196 255
156 196 255
156 196 255
155 195 255
155 195 255
155 195 255
155 195 255
155 195 255
155 195 255
155 195 255
155 195 255
155 195 255
154 195 255
154 195 255
154 195 255
154 195 255
154 195 255
154 195 255
154 195 255
154 194 255
154 194 255
154 194 255
153 194 255
153 194 255
153 194 255
153 194 255
153 194 255
153 194 255
153 194 255
153 194 255
153 194 255
153 194 255
152 194 255
152 194 255
152 194 255
152 194 255
152 193 255
152 193 255
152 193 255
152 193 255
152 193 255
152 193 255
152 193 255
151 193 255
151 193 255
151 193 255
151 193 255
151 193 255
151 193 255
151 193 255
151 193 255
151 193 255
151 193 255
151 193 255
151 193 255
150 192 255
150 192 255
150 192 255
150 192 255
150 192 255
150 192 255
150 192 255
150 192 255
150 192 255
150 192 255
150 192 255
150 192 255
150 192 255
150 192 255
150 192 255
150 192 255
149 192 255
149 192 255
149 192 255
149 192 255
149 192 255
149 192 255
149 192 255
149 192 255
149 192 255
149 192 255
149 192 255
149 192 255
149 192 255
149 192 255
149 192 255
149 192 255
149 192 255
149 192 255
149 192 255
149 192 255
149 191 255
149 191 255
149 191 255
149 191 255
149 191 255
149 191 255
149 191 255
149 191 255
149 191 255
149 191 255
149 191 255
149 191 255
149 191 255
149 191 255
149 191 255
149 191 255
149 191 255
149 191 255
149 191 255
149 192 255
149 192 255
149 192 255
149 192 255
149 192 255
149 192 255
149 192 255
149 192 255
149 192 255
149 192 255
149 192 255
149 192 255
149 192 255
149 192 255
149 192 255
149 192 255
149 192 255
149 192 255
149 192 255
150 192 255
150 192 255
150 192 255
150 192 255
150 192 255
150 192 255
150 192 255
150 192 255
150 192 255
150 192 255
150 192 255
150 192 255
150 192 255
150 192 255
150 192 255
150 192 255
151 193 255
151 193 255
151 193 255
151 193 255
151 193 255
151 193 255
151 193 255
151 193 255
151 193 255
151 193 255
151 193 255
151 193 255
152 193 255
152 193 255
152 193 255
152 193 255
152 193 255
152 193 255
152 193 255
152 194 255
152 194 255
152 194 255
152 194 255
153 194 255
153 194 255
153 194 255
153 194 255
153 194 255
153 194 255
153 194 255
153 194 255
153 194 255
153 194 255
154 194 255
154 194 255
154 194 255
154 195 255
154 195 255
154 195 255
154 195 255
154 195 255
154 195 255
154 195 255
155 195 255
155 195 255
155 195 255
155 195 255
155 195 255
155 195 255
155 195 255
155 195 255
155 195 255
156 196 255
156 196 255
156 196 255
156 196 255
156 196 255
156 196 255
156 196 255
156 196 255
156 196 255
157 196 255
157 196 255
157 196 255
157 196 255
157 196 255
157 196 255
157 197 255
157 197 255
157 197 255
158 197 255
158 197 255
158 197 255
158 197 255
158 197 255
158 197 255
158 197 255
158 197 255
158 197 255
158 197 255
159 197 255
159 197 255
159 198 255
159 198 255
159 198 255
159 198 255
159 198 255
159 198 255
159 198 255
160 198 255
160 198 255
160 198 255
160 198 255
160 198 255
160 198 255
160 198 255
160 198 255
160 198 255
161 199 255
161 199 255
161 199 255
161 199 255
161 199 255
161 199 255
161 199 255
161 199 255
161 199 255
161 199 255
161 199 255
162 199 255
162 199 255
162 199 255
162 199 255
162 199 255
162 199 255
162 200 255
162 200 255
162 200 255
162 200 255
163 200 255
163 200 255
163 200 255
163 200 255
163 200 255
163 200 255
163 200 255
163 200 255
163 200 255
163 200 255
164 200 255
164 200 255
164 200 255
164 200 255
164 201 255
164 201 255
164 201 255
164 201 255
164 201 255
164 201 255
164 201 255
164 201 255
165 201 255
165 201 255
165 201 255
165 201 255
165 201 255
165 201 255
165 201 255
165 201 255
165 201 255
165 201 255
165 201 255
166 202 255
166 202 255
166 202 255
166 202 255
166 202 255
166 202 255
166 202 255
166 202 255
165 201 255
165 201 255
165 201 255
165 201 255
165 201 255
165 201 255
165 201 255
165 201 255
165 201 255
165 201 255
165 201 255
165 201 255
164 201 255
164 201 255
164 201 255
164 201 255
164 201 255
164 201 255
164 201 255
164 200 255
164 200 255
164 200 255
164 200 255
163 200 255
163 200 255
163 200 255
163 200 255
163 200 255
163 200 255
163 200 255
163 200 255
163 200 255
163 200 255
163 200 255
162 200 255
162 200 255
162 200 255
162 199 255
162 199 255
162 199 255
162 199 255
162 199 255
162 199 255
162 199 255
161 199 255
161 199 255
161 199 255
161 199 255
161 199 255
161 199 255
161 199 255
161 199 255
161 199 255
161 199 255
160 198 255
160 198 255
160 198 255
160 198 255
160 198 255
160 198 255
160 198 255
160 198 255
160 198 255
159 198 255
159 198 255
159 198 255
159 198 255
159 198 255
159 198 255
159 197 255
159 197 255
159 197 255
159 197 255
158 197 255
158 197 255
158 197 255
158 197 255
158 197 255
158 197 255
158 197 255
158 197 255
158 197 255
157 197 255
157 197 255
157 197 255
157 196 255
157 196 255
157 196 255
157 196 255
157 196 255
157 196 255
156 196 255
156 196 255
156 196 255
156 196 255
156 196 255
156 196 255
156 196 255
156 196 255
156 196 255
155 195 255
155 195 255
155 195 255
155 195 255
155 195 255
155 195 255
155 195 255
155 195 255
155 195 255
155 195 255
154 195 255
154 195 255
154 195 255
154 195 255
154 195 255
154 195 255
154 194 255
154 194 255
154 194 255
153 194 255
153 194 255
153 194 255
153 194 255
153 194 255
153 194 255
153 194 255
153 194 255
153 194 255
153 194 255
153 194 255
152 194 255
152 194 255
152 194 255
152 193 255
152 193 255
152 193 255
152 193 255
152 193 255
152 193 255
152 193 255
152 193 255
151 193 255
151 193 255
151 193 255
151 193 255
151 193 255
151 193 255
151 193 255
151 193 255
151 193 255
151 193 255
151 193 255
151 193 255
151 193 255
150 192 255
150 192 255
150 192 255
150 192 255
150 192 255
150 192 255
150 192 255
150 192 255
150 192 255
150 192 255
150 192 255
150 192 255
150 192 255
150 192 255
150 192 255
150 192 255
150 192 255
149 192 255
149 192 255
149 192 255
149 192 255
149 192 255
149 192 255
149 192 255
149 192 255
149 192 255
149 192 255
149 192 255
149 192 255
149 192 255
149 192 255
149 192 255
149 192 255
149 192 255
149 192 255
149 192 255
149 192 255
149 192 255
149 192 255
149 192 255
149 192 255
149 192 255
149 192 255
149 192 255
149 192 255
149 192 255
149 192 255
149 192 255
149 192 255
149 192 255
149 192 255
149 192 255
149 192 255
149 192 255
149 192 255
149 192 255
149 192 255
149 192 255
149 192 255
149 192 255
149 192 255
149 192 255
149 192 255
149 192 255
149 192 255
150 192 255
150 192 255
150 192 255
150 192 255
150 192 255
150 192 255
150 192 255
150 192 255
150 192 255
150 192 255
150 192 255
150 192 255
150 192 255
150 192 255
150 192 255
150 192 255
150 192 255
151 193 255
151 193 255
151 193 255
151 193 255
151 193 255
151 193 255
151 193 255
151 193 255
151 193 255
151 193 255
151 193 255
151 193 255
151 193 255
152 193 255
152 193 255
152 193 255
152 193 255
152 193 255
152 193 255
152 193 255
152 193 255
152 194 255
152 194 255
152 194 255
153 194 255
153 194 255
153 194 255
153 194 255
153 194 255
153 194 255
153 194 255
153 194 255
153 194 255
153 194 255
153 194 255
154 194 255
154 194 255
154 194 255
154 195 255
154 195 255
154 195 255
154 195 255
154 195 255
154 195 255
155 195 255
155 195 255
155 195 255
155 195 255
155 195 255
155 195 255
155 195 255
155 195 255
155 195 255
155 195 255
156 196 255
156 196 255
156 196 255
156 196 255
156 196 255
156 196 255
156 196 255
156 196 255
156 196 255
157 196 255
157 196 255
157 196 255
157 196 255
157 196 255
157 196 255
157 197 255
157 197 255
157 197 255
158 197 255
158 197 255
158 197 255
158 197 255
158 197 255
158 197 255
158 197 255
158 197 255
158 197 255
159 197 255
159 197 255
159 197 255
159 198 255
159 198 255
159 198 255
159 198 255
159 198 255
159 198 255
159 198 255
160 198 255
160 198 255
160 198 255
160 198 255
160 198 255
160 198 255
160 198 255
160 198 255
160 198 255
160 198 255
161 199 255
161 199 255
161 199 255
161 199 255
161 199 255
161 199 255
161 199 255
161 199 255
161 199 255
162 199 255
162 199 255
162 199 255
162 199 255
162 199 255
162 199 255
162 199 255
162 200 255
162 200 255
162 200 255
163 200 255
163 200 255
163 200 255
163 200 255
163 200 255
163 200 255
163 200 255
163 200 255
163 200 255
163 200 255
163 200 255
164 200 255
164 200 255
164 200 255
164 200 255
164 201 255
164 201 255
164 201 255
164 201 255
164 201 255
164 201 255
164 201 255
165 201 255
165 201 255
165 201 255
165 201 255
165 201 255
165 201 255
165 201 255
165 201 255
165 201 255
165 201 255
165 201 255
165 201 255
166 202 255
166 202 255
166 202 255
166 202 255
166 202 255
166 202 255
166 202 255
166 202 255
166 202 255
166 202 255
166 202 255
166 202 255
166 202 255
165 201 255
165 201 255
165 201 255
165 201 255
165 201 255
165 201 255
165 201 255
165 201 255
165 201 255
165 201 255
165 201 255
164 201 255
164 201 255
164 201 255
164 201 255
164 201 255
164 201 255
164 201 255
164 201 255
164 200 255
164 200 255
164 200 255
163 200 255
163 200 255
163 200 255
163 200 255
163 200 255
163 200 255
163 200 255
163 200 255
163 200 255
163 200 255
163 200 255
162 200 255
162 200 255
162 200 255
162 199 255
162 199 255
162 199 255
162 199 255
162 199 255
162 199 255
162 199 255
161 199 255
161 199 255
161 199 255
161 199 255
161 199 255
161 199 255
161 199 255
161 199 255
161 199 255
161 199 255
160 198 255
160 198 255
160 198 255
160 198 255
160 198 255
160 198 255
160 198 255
160 198 255
160 198 255
160 198 255
159 198 255
159 198 255
159 198 255
159 198 255
159 198 255
159 198 255
159 197 255
159 197 255
159 197 255
158 197 255
158 197 255
158 197 255
158 197 255
158 197 255
158 197 255
158 197 255
158 197 255
158 197 255
157 197 255
157 197 255
157 197 255
157 196 255
157 196 255
157 196 255
157 196 255
157 196 255
157 196 255
156 196 255
156 196 255
156 196 255
156 196 255
156 196 255
156 196 255
156 196 255
156 196 255
156 196 255
156 196 255
155 195 255
155 195 255
155 195 255
155 195 255
155 195 255
155 195 255
155 195 255
155 195 255
155 195 255
154 195 255
154 195 255
154 195 255
154 195 255
154 195 255
154 195 255
154 194 255
154 194 255
154 194 255
154 194 255
153 194 255
153 194 255
153 194 255
153 194 255
153 194 255
153 194 255
153 194 255
153 194 255
153 194 255
153 194 255
152 194 255
152 194 255
152 194 255
152 194 255
152 193 255
152 193 255
152 193 255
152 193 255
152 193 255
152 193 255
152 193 255
152 193 255
151 193 255
151 193 255
151 193 255
151 193 255
151 193 255
151 193 255
151 193 255
151 193 255
151 193 255
151 193 255
151 193 255
151 193 255
151 193 255
150 192 255
150 192 255
150 192 255
150 192 255
150 192 255
150 192 255
150 192 255
150 192 255
150 192 255
150 192 255
150 192 255
150 192 255
150 192 255
150 192 255
150 192 255
150 192 255
150 192 255
150 192 255
150 192 255
150 192 255
150 192 255
149 192 255
149 192 255
149 192 255
149 192 255
149 192 255
149 192 255
149 192 255
149 192 255
149 192 255
149 192 255
149 192 255
149 192 255
149 192 255
149 192 255
149 192 255
149 192 255
149 192 255
149 192 255
149 192 255
149 192 255
149 192 255
149 192 255
149 192 255
149 192 255
149 192 255
149 192 255
149 192 255
149 192 255
149 192 255
149 192 255
149 192 255
149 192 255
149 192 255
149 192 255
150 192 255
150 192 255
150 192 255
150 192 255
150 192 255
150 192 255
150 192 255
150 192 255
150 192 255
150 192 255
150 192 255
150 192 255
150 192 255
150 192 255
150 192 255
150 192 255
150 192 255
150 192 255
150 192 255
150 192 255
150 192 255
151 193 255
151 193 255
151 193 255
151 193 255
151 193 255
151 193 255
151 193 255
151 193 255
151 193 255
151 193 255
151 193 255
151 193 255
151 193 255
152 193 255
152 193 255
152 193 255
152 193 255
152 193 255
152 193 255
152 193 255
152 193 255
152 194 255
152 194 255
152 194 255
152 194 255
153 194 255
153 194 255
153 194 255
153 194 255
153 194 255
153 194 255
153 194 255
153 194 255
153 194 255
153 194 255
154 194 255
154 194 255
154 194 255
154 195 255
154 195 255
154 195 255
154 195 255
154 195 255
154 195 255
154 195 255
155 195 255
155 195 255
155 195 255
155 195 255
155 195 255
155 195 255
155 195 255
155 195 255
155 195 255
156 196 255
156 196 255
156 196 255
156 196 255
156 196 255
156 196 255
156 196 255
156 196 255
156 196 255
156 196 255
157 196 255
157 196 255
157 196 255
157 196 255
157 196 255
157 196 255
157 197 255
157 197 255
157 197 255
158 197 255
158 197 255
158 197 255
158 197 255
158 197 255
158 197 255
158 197 255
158 197 255
158 197 255
159 197 255
159 197 255
159 197 255
159 198 255
159 198 255
159 198 255
159 198 255
159 198 255
159 198 255
160 198 255
160 198 255
160 198 255
160 198 255
160 198 255
160 198 255
160 198 255
160 198 255
160 198 255
160 198 255
161 199 255
161 199 255
161 199 255
161 199 255
161 199 255
161 199 255
161 199 255
161 199 255
161 199 255
161 199 255
162 199 255
162 199 255
162 199 255
162 199 255
162 199 255
162 199 255
162 199 255
162 200 255
162 200 255
162 200 255
163 200 255
163 200 255
163 200 255
163 200 255
163 200 255
163 200 255
163 200 255
163 200 255
163 200 255
163 200 255
163 200 255
164 200 255
164 200 255
164 200 255
164 201 255
164 201 255
164 201 255
164 201 255
164 201 255
164 201 255
164 201 255
165 201 255
165 201 255
165 201 255
165 201 255
165 201 255
165 201 255
165 201 255
165 201 255
165 201 255
165 201 255
165 201 255
165 201 255
166 202 255
166 202 255
166 202 255
166 202 255
166 202 255
166 202 255
166 202 255
166 202 255
166 202 255
166 202 255
166 202 255
166 202 255
166 202 255
166 202 255
166 202 255
166 202 255
166 202 255
166 202 255
165 201 255
165 201 255
165 201 255
165 201 255
165 201 255
165 201 255
165 201 255
165 201 255
165 201 255
165 201 255
165 201 255
165 201 255
164 201 255
164 201 255
164 201 255
164 201 255
164 201 255
164 201 255
164 201 255
164 200 255
164 200 255
164 200 255
164 200 255
163 200 255
163 200 255
163 200 255
163 200 255
163 200 255
163 200 255
163 200 255
163 200 255
163 200 255
163 200 255
162 200 255
162 200 255
162 200 255
162 200 255
162 199 255
162 199 255
162 199 255
162 199 255
162 199 255
162 199 255
162 199 255
161 199 255
161 199 255
161 199 255
161 199 255
161 199 255
161 199 255
161 199 255
161 199 255
161 199 255
160 198 255
160 198 255
160 198 255
160 198 255
160 198 255
160 198 255
160 198 255
160 198 255
160 198 255
160 198 255
159 198 255
159 198 255
159 198 255
159 198 255
159 198 255
159 198 255
159 197 255
159 197 255
159 197 255
158 197 255
158 197 255
158 197 255
158 197 255
158 197 255
158 197 255
158 197 255
158 197 255
158 197 255
157 197 255
157 197 255
157 197 255
157 197 255
157 196 255
157 196 255
157 196 255
157 196 255
157 196 255
157 196 255
156 196 255
156 196 255
156 196 255
156 196 255
156 196 255
156 196 255
156 196 255
156 196 255
156 196 255
155 195 255
155 195 255
155 195 255
155 195 255
155 195 255
155 195 255
155 195 255
155 195 255
155 195 255
155 195 255
154 195 255
154 195 255
154 195 255
154 195 255
154 195 255
154 195 255
154 194 255
154 194 255
154 194 255
153 194 255
153 194 255
153 194 255
153 194 255
153 194 255
153 194 255
153 194 255
153 194 255
153 194 255
153 194 255
153 194 255
152 194 255
152 194 255
152 194 255
152 194 255
152 193 255
152 193 255
152 193 255
152 193 255
152 193 255
152 193 255
152 193 255
152 193 255
151 193 255
151 193 255
151 193 255
151 193 255
151 193 255
151 193 255
151 193 255
151 193 255
151 193 255
151 193 255
151 193 255
151 193 255
151 193 255
151 193 255
150 192 255
150 192 255
150 192 255
150 192 255
150 192 255
150 192 255
150 192 255
150 192 255
150 192 255
150 192 255
150 192 255
150 192 255
150 192 255
150 192 255
150 192 255
150 192 255
150 192 255
150 192 255
150 192 255
150 192 255
150 192 255
150 192 255
150 192 255
150 192 255
150 192 255
150 192 255
150 192 255
150 192 255
149 192 255
149 192 255
149 192 255
149 192 255
149 192 255
149 192 255
149 192 255
149 192 255
149 192 255
149 192 255
149 192 255
149 192 255
150 192 255
150 192 255
150 192 255
150 192 255
150 192 255
150 192 255
150 192 255
150 192 255
150 192 255
150 192 255
150 192 255
150 192 255
150 192 255
150 192 255
150 192 255
150 192 255
150 192 255
150 192 255
150 192 255
150 192 255
150 192 255
150 192 255
150 192 255
150 192 255
150 192 255
150 192 255
150 192 255
150 192 255
151 193 255
151 193 255
151 193 255
151 193 255
151 193 255
151 193 255
151 193 255
151 193 255
151 193 255
151 193 255
151 193 255
151 193 255
151 193 255
151 193 255
152 193 255
152 193 255
152 193 255
152 193 255
152 193 255
152 193 255
152 193 255
152 193 255
152 194 255
152 194 255
152 194 255
152 194 255
153 194 255
153 194 255
153 194 255
153 194 255
153 194 255
153 194 255
153 194 255
153 194 255
153 194 255
153 194 255
153 194 255
154 194 255
154 194 255
154 194 255
154 195 255
154 195 255
154 195 255
154 195 255
154 195 255
154 195 255
155 195 255
155 195 255
155 195 255
155 195 255
155 195 255
155 195 255
155 195 255
155 195 255
155 195 255
155 195 255
156 196 255
156 196 255
156 196 255
156 196 255
156 196 255
156 196 255
156 196 255
156 196 255
156 196 255
157 196 255
157 196 255
157 196 255
157 196 255
157 196 255
157 196 255
157 196 255
157 197 255
157 197 255
158 197 255
158 197 255
158 197 255
158 197 255
158 197 255
158 197 255
158 197 255
158 197 255
158 197 255
158 197 255
159 197 255
159 197 255
159 197 255
159 198 255
159 198 255
159 198 255
159 198 255
159 198 255
159 198 255
160 198 255
160 198 255
160 198 255
160 198 255
160 198 255
160 198 255
160 198 255
160 198 255
160 198 255
160 198 255
161 199 255
161 199 255
161 199 255
161 199 255
161 199 255
161 199 255
161 199 255
161 199 255
161 199 255
161 199 255
162 199 255
162 199 255
162 199 255
162 199 255
162 199 255
162 199 255
162 200 255
162 200 255
162 200 255
162 200 255
163 200 255
163 200 255
163 200 255
163 200 255
163 200 255
163 200 255
163 200 255
163 200 255
163 200 255
163 200 255
164 200 255
164 200 255
164 200 255
164 200 255
164 201 255
164 201 255
164 201 255
164 201 255
164 201 255
164 201 255
164 201 255
165 201 255
165 201 255
165 201 255
165 201 255
165 201 255
165 201 255
165 201 255
165 201 255
165 201 255
165 201 255
165 201 255
165 201 255
166 202 255
166 202 255
166 202 255
166 202 255
166 202 255
166 202 255
166 202 255
166 202 255
166 202 255
166 202 255
167 202 255
166 202 255
166 202 255
166 202 255
166 202 255
166 202 255
166 202 255
166 202 255
166 202 255
166 202 255
166 202 255
166 202 255
166 202 255
165 201 255
165 201 255
165 201 255
165 201 255
165 201 255
165 201 255
165 201 255
165 201 255
165 201 255
165 201 255
165 201 255
164 201 255
164 201 255
164 201 255
164 201 255
164 201 255
164 201 255
164 201 255
164 201 255
164 200 255
164 200 255
164 200 255
163 200 255
163 200 255
163 200 255
163 200 255
163 200 255
163 200 255
163 200 255
163 200 255
163 200 255
163 200 255
163 200 255
162 200 255
162 200 255
162 200 255
162 199 255
162 199 255
162 199 255
162 199 255
162 199 255
162 199 255
162 199 255
161 199 255
161 199 255
161 199 255
161 199 255
161 199 255
161 199 255
161 199 255
161 199 255
161 199 255
161 199 255
160 198 255
160 198 255
160 198 255
160 198 255
160 198 255
160 198 255
160 198 255
160 198 255
160 198 255
159 198 255
159 198 255
159 198 255
159 198 255
159 198 255
159 198 255
159 198 255
159 197 255
159 197 255
159 197 255
158 197 255
158 197 255
158 197 255
158 197 255
158 197 255
158 197 255
158 197 255
158 197 255
158 197 255
157 197 255
157 197 255
157 197 255
157 196 255
157 196 255
157 196 255
157 196 255
157 196 255
157 196 255
156 196 255
156 196 255
156 196 255
156 196 255
156 196 255
156 196 255
156 196 255
156 196 255
156 196 255
155 195 255
155 195 255
155 195 255
155 195 255
155 195 255
155 195 255
155 195 255
155 195 255
155 195 255
155 195 255
154 195 255
154 195 255
154 195 255
154 195 255
154 195 255
154 195 255
154 194 255
154 194 255
154 194 255
154 194 255
153 194 255
153 194 255
153 194 255
153 194 255
153 194 255
153 194 255
153 194 255
153 194 255
153 194 255
153 194 255
153 194 255
152 194 255
152 194 255
152 194 255
152 194 255
152 193 255
152 193 255
152 193 255
152 193 255
152 193 255
152 193 255
152 193 255
152 193 255
151 193 255
151 193 255
151 193 255
151 193 255
151 193 255
151 193 255
151 193 255
151 193 255
151 193 255
151 193 255
151 193 255
151 193 255
151 193 255
151 193 255
151 193 255
151 193 255
150 192 255
150 192 255
150 192 255
150 192 255
150 192 255
150 192 255
150 192 255
150 192 255
150 192 255
150 192 255
150 192 255
150 192 255
150 192 255
150 192 255
150 192 255
150 192 255
150 192 255
150 192 255
150 192 255
150 192 255
150 192 255
150 192 255
150 192 255
150 192 255
150 192 255
150 192 255
150 192 255
150 192 255
150 192 255
150 192 255
150 192 255
150 192 255
150 192 255
150 192 255
150 192 255
150 192 255
150 192 255
150 192 255
150 192 255
150 192 255
150 192 255
150 192 255
150 192 255
150 192 255
150 192 255
150 192 255
150 192 255
150 192 255
150 192 255
150 192 255
150 192 255
150 192 255
150 192 255
150 192 255
150 192 255
150 192 255
150 192 255
150 192 255
151 193 255
151 193 255
151 193 255
151 193 255
151 193 255
151 193 255
151 193 255
151 193 255
151 193 255
151 193 255
151 193 255
151 193 255
151 193 255
151 193 255
151 193 255
151 193 255
152 193 255
152 193 255
152 193 255
152 193 255
152 193 255
152 193 255
152 193 255
152 193 255
152 194 255
152 194 255
152 194 255
152 194 255
153 194 255
153 194 255
153 194 255
153 194 255
153 194 255
153 194 255
153 194 255
153 194 255
153 194 255
153 194 255
153 194 255
154 194 255
154 194 255
154 194 255
154 195 255
154 195 255
154 195 255
154 195 255
154 195 255
154 195 255
154 195 255
155 195 255
155 195 255
155 195 255
155 195 255
155 195 255
155 195 255
155 195 255
155 195 255
155 195 255
156 196 255
156 196 255
156 196 255
156 196 255
156 196 255
156 196 255
156 196 255
156 196 255
156 196 255
156 196 255
157 196 255
157 196 255
157 196 255
157 196 255
157 196 255
157 196 255
157 197 255
157 197 255
157 197 255
158 197 255
158 197 255
158 197 255
158 197 255
158 197 255
158 197 255
158 197 255
158 197 255
158 197 255
159 197 255
159 197 255
159 197 255
159 197 255
159 198 255
159 198 255
159 198 255
159 198 255
159 198 255
159 198 255
160 198 255
160 198 255
160 198 255
160 198 255
160 198 255
160 198 255
160 198 255
160 198 255
160 198 255
161 199 255
161 199 255
161 199 255
161 199 255
161 199 255
161 199 255
161 199 255
161 199 255
161 199 255
161 199 255
162 199 255
162 199 255
162 199 255
162 199 255
162 199 255
162 199 255
162 199 255
162 200 255
162 200 255
162 200 255
163 200 255
163 200 255
163 200 255
163 200 255
163 200 255
163 200 255
163 200 255
163 200 255
163 200 255
163 200 255
163 200 255
164 200 255
164 200 255
164 200 255
164 201 255
164 201 255
164 201 255
164 201 255
164 201 255
164 201 255
164 201 255
164 201 255
165 201 255
165 201 255
165 201 255
165 201 255
165 201 255
165 201 255
165 201 255
165 201 255
165 201 255
165 201 255
165 201 255
166 202 255
166 202 255
166 202 255
166 202 255
166 202 255
166 202 255
166 202 255
166 202 255
166 202 255
166 202 255
166 202 255
166 202 255
167 202 255
167 202 255
167 202 255
167 202 255
167 202 255
166 202 255
166 202 255
166 202 255
166 202 255
166 202 255
166 202 255
166 202 255
166 202 255
166 202 255
166 202 255
166 202 255
166 202 255
165 201 255
165 201 255
165 201 255
165 201 255
165 201 255
165 201 255
165 201 255
165 201 255
165 201 255
165 201 255
165 201 255
164 201 255
164 201 255
164 201 255
164 201 255
164 201 255
164 201 255
164 201 255
164 200 255
164 200 255
164 200 255
164 200 255
163 200 255
163 200 255
163 200 255
163 200 255
163 200 255
163 200 255
163 200 255
163 200 255
163 200 255
163 200 255
162 200 255
162 200 255
162 200 255
162 200 255
162 199 255
162 199 255
162 199 255
162 199 255
162 199 255
162 199 255
162 199 255
161 199 255
161 199 255
161 199 255
161 199 255
161 199 255
161 199 255
161 199 255
161 199 255
161 199 255
160 198 255
160 198 255
160 198 255
160 198 255
160 198 255
160 198 255
160 198 255
160 198 255
160 198 255
159 198 255
159 198 255
159 198 255
159 198 255
159 198 255
159 198 255
159 198 255
159 197 255
159 197 255
159 197 255
158 197 255
158 197 255
158 197 255
158 197 255
158 197 255
158 197 255
158 197 255
158 197 255
158 197 255
157 197 255
157 197 255
157 197 255
157 196 255
157 196 255
157 196 255
157 196 255
157 196 255
157 196 255
156 196 255
156 196 255
156 196 255
156 196 255
156 196 255
156 196 255
156 196 255
156 196 255
156 196 255
156 196 255
155 195 255
155 195 255
155 195 255
155 195 255
155 195 255
155 195 255
155 195 255
155 195 255
155 195 255
155 195 255
154 195 255
154 195 255
154 195 255
154 195 255
154 195 255
154 195 255
154 194 255
154 194 255
154 194 255
154 194 255
153 194 255
153 194 255
153 194 255
153 194 255
153 194 255
153 194 255
153 194 255
153 194 255
153 194 255
153 194 255
153 194 255
152 194 255
152 194 255
152 194 255
152 194 255
152 193 255
152 193 255
152 193 255
152 193 255
152 193 255
152 193 255
152 193 255
152 193 255
152 193 255
151 193 255
151 193 255
151 193 255
151 193 255
151 193 255
151 193 255
151 193 255
151 193 255
151 193 255
151 193 255
151 193 255
151 193 255
151 193 255
151 193 255
151 193 255
151 193 255
151 193 255
150 192 255
150 192 255
150 192 255
150 192 255
150 192 255
150 192 255
150 192 255
150 192 255
150 192 255
150 192 255
150 192 255
150 192 255
150 192 255
150 192 255
150 192 255
150 192 255
150 192 255
150 192 255
150 192 255
150 192 255
150 192 255
150 192 255
150 192 255
150 192 255
150 192 255
150 192 255
150 192 255
150 192 255
150 192 255
150 192 255
150 192 255
150 192 255
150 192 255
150 192 255
150 192 255
150 192 255
150 192 255
150 192 255
150 192 255
150 192 255
150 192 255
150 192 255
150 192 255
150 192 255
150 192 255
150 192 255
150 192 255
150 192 255
151 193 255
151 193 255
151 193 255
151 193 255
151 193 255
151 193 255
151 193 255
151 193 255
151 193 255
151 193 255
151 193 255
151 193 255
151 193 255
151 193 255
151 193 255
151 193 255
151 193 255
152 193 255
152 193 255
152 193 255
152 193 255
152 193 255
152 193 255
152 193 255
152 193 255
152 193 255
152 194 255
152 194 255
152 194 255
152 194 255
153 194 255
153 194 255
153 194 255
153 194 255
153 194 255
153 194 255
153 194 255
153 194 255
153 194 255
153 194 255
153 194 255
154 194 255
154 194 255
154 194 255
154 194 255
154 195 255
154 195 255
154 195 255
154 195 255
154 195 255
154 195 255
154 195 255
155 195 255
155 195 255
155 195 255
155 195 255
155 195 255
155 195 255
155 195 255
155 195 255
155 195 255
156 196 255
156 196 255
156 196 255
156 196 255
156 196 255
156 196 255
156 196 255
156 196 255
156 196 255
156 196 255
157 196 255
157 196 255
157 196 255
157 196 255
157 196 255
157 196 255
157 197 255
157 197 255
157 197 255
158 197 255
158 197 255
158 197 255
158 197 255
158 197 255
158 197 255
158 197 255
158 197 255
158 197 255
159 197 255
159 197 255
159 197 255
159 198 255
159 198 255
159 198 255
159 198 255
159 198 255
159 198 255
160 198 255
160 198 255
160 198 255
160 198 255
160 198 255
160 198 255
160 198 255
160 198 255
160 198 255
160 198 255
161 199 255
161 199 255
161 199 255
161 199 255
161 199 255
161 199 255
161 199 255
161 199 255
161 199 255
161 199 255
162 199 255
162 199 255
162 199 255
162 199 255
162 199 255
162 199 255
162 200 255
162 200 255
162 200 255
162 200 255
163 200 255
163 200 255
163 200 255
163 200 255
163 200 255
163 200 255
163 200 255
163 200 255
163 200 255
163 200 255
164 200 255
164 200 255
164 200 255
164 200 255
164 201 255
164 201 255
164 201 255
164 201 255
164 201 255
164 201 255
164 201 255
165 201 255
165 201 255
165 201 255
165 201 255
165 201 255
165 201 255
165 201 255
165 201 255
165 201 255
165 201 255
165 201 255
166 202 255
166 202 255
166 202 255
166 202 255
166 202 255
166 202 255
166 202 255
166 202 255
166 202 255
166 202 255
166 202 255
166 202 255
167 202 255
167 202 255
167 202 255
167 202 255
167 202 255
167 202 255
167 202 255
167 202 255
167 202 255
167 202 255
167 202 255
166 202 255
166 202 255
166 202 255
166 202 255
166 202 255
166 202 255
166 202 255
166 202 255
166 202 255
166 202 255
166 202 255
165 201 255
165 201 255
165 201 255
165 201 255
165 201 255
165 201 255
165 201 255
165 201 255
165 201 255
165 201 255
165 201 255
165 201 255
164 201 255
164 201 255
164 201 255
164 201 255
164 201 255
164 201 255
164 201 255
164 200 255
164 200 255
164 200 255
163 200 255
163 200 255
163 200 255
163 200 255
163 200 255
163 200 255
163 200 255
163 200 255
163 200 255
163 200 255
163 200 255
162 200 255
162 200 255
162 200 255
162 199 255
162 199 255
162 199 255
162 199 255
162 199 255
162 199 255
162 199 255
161 199 255
161 199 255
161 199 255
161 199 255
161 199 255
161 199 255
161 199 255
161 199 255
161 199 255
160 198 255
160 198 255
160 198 255
160 198 255
160 198 255
160 198 255
160 198 255
160 198 255
160 198 255
160 198 255
159 198 255
159 198 255
159 198 255
159 198 255
159 198 255
159 198 255
159 197 255
159 197 255
159 197 255
158 197 255
158 197 255
158 197 255
158 197 255
158 197 255
158 197 255
158 197 255
158 197 255
158 197 255
157 197 255
157 197 255
157 197 255
157 197 255
157 196 255
157 196 255
157 196 255
157 196 255
157 196 255
157 196 255
156 196 255
156 196 255
156 196 255
156 196 255
156 196 255
156 196 255
156 196 255
156 196 255
156 196 255
155 195 255
155 195 255
155 195 255
155 195 255
155 195 255
155 195 255
155 195 255
155 195 255
155 195 255
155 195 255
154 195 255
154 195 255
154 195 255
154 195 255
154 195 255
154 195 255
154 195 255
154 194 255
154 194 255
154 194 255
153 194 255
153 194 255
153 194 255
153 194 255
153 194 255
153 194 255
153 194 255
153 194 255
153 194 255
153 194 255
153 194 255
153 194 255
152 194 255
152 194 255
152 194 255
152 194 255
152 193 255
152 193 255
152 193 255
152 193 255
152 193 255
152 193 255
152 193 255
152 193 255
152 193 255
152 193 255
151 193 255
151 193 255
151 193 255
151 193 255
151 193 255
151 193 255
151 193 255
151 193 255
151 193 255
151 193 255
151 193 255
151 193 255
151 193 255
151 193 255
151 193 255
151 193 255
151 193 255
151 193 255
151 193 255
150 192 255
150 192 255
150 192 255
150 192 255
150 192 255
150 192 255
150 192 255
150 192 255
150 192 255
150 192 255
150 192 255
150 192 255
150 192 255
150 192 255
150 192 255
150 192 255
150 192 255
150 192 255
150 192 255
150 192 255
150 192 255
150 192 255
150 192 255
150 192 255
150 192 255
150 192 255
150 192 255
150 192 255
150 192 255
150 192 255
150 192 255
150 192 255
150 192 255
150 192 255
150 192 255
150 192 255
151 193 255
151 193 255
151 193 255
151 193 255
151 193 255
151 193 255
151 193 255
151 193 255
151 193 255
151 193 255
151 193 255
151 193 255
151 193 255
151 193 255
151 193 255
151 193 255
151 193 255
151 193 255
151 193 255
151 193 255
152 193 255
152 193 255
152 193 255
152 193 255
152 193 255
152 193 255
152 193 255
152 193 255
152 193 255
152 194 255
152 194 255
152 194 255
152 194 255
153 194 255
153 194 255
153 194 255
153 194 255
153 194 255
153 194 255
153 194 255
153 194 255
153 194 255
153 194 255
153 194 255
153 194 255
154 194 255
154 194 255
154 194 255
154 195 255
154 195 255
154 195 255
154 195 255
154 195 255
154 195 255
154 195 255
155 195 255
155 195 255
155 195 255
155 195 255
155 195 255
155 195 255
155 195 255
155 195 255
155 195 255
155 195 255
156 196 255
156 196 255
156 196 255
156 196 255
156 196 255
156 196 255
156 196 255
156 196 255
156 196 255
157 196 255
157 196 255
157 196 255
157 196 255
157 196 255
157 196 255
157 197 255
157 197 255
157 197 255
157 197 255
158 197 255
158 197 255
158 197 255
158 197 255
158 197 255
158 197 255
158 197 255
158 197 255
158 197 255
159 197 255
159 197 255
159 197 255
159 198 255
159 198 255
159 198 255
159 198 255
159 198 255
159 198 255
160 198 255
160 198 255
160 198 255
160 198 255
160 198 255
160 198 255
160 198 255
160 198 255
160 198 255
160 198 255
161 199 255
161 199 255
161 199 255
161 199 255
161 199 255
161 199 255
161 199 255
161 199 255
161 199 255
162 199 255
162 199 255
162 199 255
162 199 255
162 199 255
162 199 255
162 199 255
162 200 255
162 200 255
162 200 255
163 200 255
163 200 255
163 200 255
163 200 255
163 200 255
163 200 255
163 200 255
163 200 255
163 200 255
163 200 255
163 200 255
164 200 255
164 200 255
164 200 255
164 201 255
164 201 255
164 201 255
164 201 255
164 201 255
164 201 255
164 201 255
165 201 255
165 201 255
165 201 255
165 201 255
165 201 255
165 201 255
165 201 255
165 201 255
165 201 255
165 201 255
165 201 255
165 201 255
166 202 255
166 202 255
166 202 255
166 202 255
166 202 255
166 202 255
166 202 255
166 202 255
166 202 255
166 202 255
166 202 255
166 202 255
167 202 255
167 202 255
167 202 255
167 202 255
167 202 255
167 202 255
167 203 255
167 202 255
167 202 255
167 202 255
167 202 255
167 202 255
167 202 255
167 202 255
167 202 255
166 202 255
166 202 255
166 202 255
166 202 255
166 202 255
166 202 255
166 202 255
166 202 255
166 202 255
166 202 255
166 202 255
166 202 255
165 201 255
165 201 255
165 201 255
165 201 255
165 201 255
165 201 255
165 201 255
165 201 255
165 201 255
165 201 255
165 201 255
164 201 255
164 201 255
164 201 255
164 201 255
164 201 255
164 201 255
164 201 255
164 200 255
164 200 255
164 200 255
164 200 255
163 200 255
163 200 255
163 200 255
163 200 255
163 200 255
163 200 255
163 200 255
163 200 255
163 200 255
163 200 255
162 200 255
162 200 255
162 200 255
162 200 255
162 199 255
162 199 255
162 199 255
162 199 255
162 199 255
162 199 255
161 199 255
161 199 255
161 199 255
161 199 255
161 199 255
161 199 255
161 199 255
161 199 255
161 199 255
161 199 255
160 198 255
160 198 255
160 198 255
160 198 255
160 198 255
160 198 255
160 198 255
160 198 255
160 198 255
159 198 255
159 198 255
159 198 255
159 198 255
159 198 255
159 198 255
159 197 255
159 197 255
159 197 255
159 197 255
158 197 255
158 197 255
158 197 255
158 197 255
158 197 255
158 197 255
158 197 255
158 197 255
158 197 255
157 197 255
157 197 255
157 197 255
157 196 255
157 196 255
157 196 255
157 196 255
157 196 255
157 196 255
156 196 255
156 196 255
156 196 255
156 196 255
156 196 255
156 196 255
156 196 255
156 196 255
156 196 255
156 196 255
155 195 255
155 195 255
155 195 255
155 195 255
155 195 255
155 195 255
155 195 255
155 195 255
155 195 255
155 195 255
154 195 255
154 195 255
154 195 255
154 195 255
154 195 255
154 195 255
154 195 255
154 194 255
154 194 255
154 194 255
153 194 255
153 194 255
153 194 255
153 194 255
153 194 255
153 194 255
153 194 255
153 194 255
153 194 255
153 194 255
153 194 255
153 194 255
152 194 255
152 194 255
152 194 255
152 194 255
152 193 255
152 193 255
152 193 255
152 193 255
152 193 255
152 193 255
152 193 255
152 193 255
152 193 255
152 193 255
152 193 255
151 193 255
151 193 255
151 193 255
151 193 255
151 193 255
151 193 255
151 193 255
151 193 255
151 193 255
151 193 255
151 193 255
151 193 255
151 193 255
151 193 255
151 193 255
151 193 255
151 193 255
151 193 255
151 193 255
151 193 255
151 193 255
151 193 255
151 193 255
151 193 255
151 193 255
151 193 255
150 192 255
151 193 255
150 192 255
150 192 255
150 192 255
150 192 255
150 192 255
150 192 255
150 192 255
150 192 255
150 192 255
150 192 255
150 192 255
150 192 255
151 193 255
151 193 255
151 193 255
151 193 255
151 193 255
151 193 255
151 193 255
151 193 255
151 193 255
151 193 255
151 193 255
151 193 255
151 193 255
151 193 255
151 193 255
151 193 255
151 193 255
151 193 255
151 193 255
151 193 255
151 193 255
151 193 255
151 193 255
151 193 255
151 193 255
151 193 255
152 193 255
152 193 255
152 193 255
152 193 255
152 193 255
152 193 255
152 193 255
152 193 255
152 193 255
152 193 255
152 193 255
152 194 255
152 194 255
152 194 255
152 194 255
153 194 255
153 194 255
153 194 255
153 194 255
153 194 255
153 194 255
153 194 255
153 194 255
153 194 255
153 194 255
153 194 255
153 194 255
154 194 255
154 194 255
154 194 255
154 195 255
154 195 255
154 195 255
154 195 255
154 195 255
154 195 255
154 195 255
155 195 255
155 195 255
155 195 255
155 195 255
155 195 255
155 195 255
155 195 255
155 195 255
155 195 255
155 195 255
156 196 255
156 196 255
156 196 255
156 196 255
156 196 255
156 196 255
156 196 255
156 196 255
156 196 255
156 196 255
157 196 255
157 196 255
157 196 255
157 196 255
157 196 255
157 196 255
157 197 255
157 197 255
157 197 255
158 197 255
158 197 255
158 197 255
158 197 255
158 197 255
158 197 255
158 197 255
158 197 255
158 197 255
159 197 255
159 197 255
159 197 255
159 197 255
159 198 255
159 198 255
159 198 255
159 198 255
159 198 255
159 198 255
160 198 255
160 198 255
160 198 255
160 198 255
160 198 255
160 198 255
160 198 255
160 198 255
160 198 255
161 199 255
161 199 255
161 199 255
161 199 255
161 199 255
161 199 255
161 199 255
161 199 255
161 199 255
161 199 255
162 199 255
162 199 255
162 199 255
162 199 255
162 199 255
162 199 255
162 199 255
162 200 255
162 200 255
162 200 255
163 200 255
163 200 255
163 200 255
163 200 255
163 200 255
163 200 255
163 200 255
163 200 255
163 200 255
163 200 255
164 200 255
164 200 255
164 200 255
164 201 255
164 201 255
164 201 255
164 201 255
164 201 255
164 201 255
164 201 255
164 201 255
165 201 255
165 201 255
165 201 255
165 201 255
165 201 255
165 201 255
165 201 255
165 201 255
165 201 255
165 201 255
165 201 255
166 202 255
166 202 255
166 202 255
166 202 255
166 202 255
166 202 255
166 202 255
166 202 255
166 202 255
166 202 255
166 202 255
166 202 255
167 202 255
167 202 255
167 202 255
167 202 255
167 202 255
167 202 255
167 202 255
167 202 255
167 203 255
167 203 255
167 203 255
167 203 255
167 203 255
167 202 255
167 202 255
167 202 255
167 202 255
167 202 255
167 202 255
167 202 255
167 202 255
166 202 255
166 202 255
166 202 255
166 202 255
166 202 255
166 202 255
166 202 255
166 202 255
166 202 255
166 202 255
166 202 255
166 202 255
165 201 255
165 201 255
165 201 255
165 201 255
165 201 255
165 201 255
165 201 255
165 201 255
165 201 255
165 201 255
165 201 255
164 201 255
164 201 255
164 201 255
164 201 255
164 201 255
164 201 255
164 201 255
164 200 255
164 200 255
164 200 255
163 200 255
163 200 255
163 200 255
163 200 255
163 200 255
163 200 255
163 200 255
163 200 255
163 200 255
163 200 255
163 200 255
162 200 255
162 200 255
162 200 255
162 199 255
162 199 255
162 199 255
162 199 255
162 199 255
162 199 255
162 199 255
161 199 255
161 199 255
161 199 255
161 199 255
161 199 255
161 199 255
161 199 255
161 199 255
161 199 255
160 198 255
160 198 255
160 198 255
160 198 255
160 198 255
160 198 255
160 198 255
160 198 255
160 198 255
160 198 255
159 198 255
159 198 255
159 198 255
159 198 255
159 198 255
159 198 255
159 197 255
159 197 255
159 197 255
158 197 255
158 197 255
158 197 255
158 197 255
158 197 255
158 197 255
158 197 255
158 197 255
158 197 255
157 197 255
157 197 255
157 197 255
157 196 255
157 196 255
157 196 255
157 196 255
157 196 255
157 196 255
157 196 255
156 196 255
156 196 255
156 196 255
156 196 255
156 196 255
156 196 255
156 196 255
156 196 255
156 196 255
155 195 255
155 195 255
155 195 255
155 195 255
155 195 255
155 195 255
155 195 255
155 195 255
155 195 255
155 195 255
154 195 255
154 195 255
154 195 255
154 195 255
154 195 255
154 195 255
154 195 255
154 195 255
154 194 255
154 194 255
154 194 255
153 194 255
153 194 255
153 194 255
153 194 255
153 194 255
153 194 255
153 194 255
153 194 255
153 194 255
153 194 255
153 194 255
153 194 255
152 194 255
152 194 255
152 194 255
152 194 255
152 194 255
152 193 255
152 193 255
152 193 255
152 193 255
152 193 255
152 193 255
152 193 255
152 193 255
152 193 255
152 193 255
152 193 255
151 193 255
151 193 255
151 193 255
151 193 255
151 193 255
151 193 255
151 193 255
151 193 255
151 193 255
151 193 255
151 193 255
151 193 255
151 193 255
151 193 255
151 193 255
151 193 255
151 193 255
151 193 255
151 193 255
151 193 255
151 193 255
151 193 255
151 193 255
151 193 255
151 193 255
151 193 255
151 193 255
151 193 255
151 193 255
151 193 255
151 193 255
151 193 255
151 193 255
151 193 255
151 193 255
151 193 255
151 193 255
151 193 255
151 193 255
151 193 255
151 193 255
151 193 255
151 193 255
151 193 255
151 193 255
151 193 255
151 193 255
151 193 255
151 193 255
151 193 255
151 193 255
151 193 255
151 193 255
151 193 255
151 193 255
151 193 255
151 193 255
151 193 255
152 193 255
152 193 255
152 193 255
152 193 255
152 193 255
152 193 255
152 193 255
152 193 255
152 193 255
152 193 255
152 193 255
152 194 255
152 194 255
152 194 255
152 194 255
153 194 255
153 194 255
153 194 255
153 194 255
153 194 255
153 194 255
153 194 255
153 194 255
153 194 255
153 194 255
153 194 255
153 194 255
153 194 255
154 194 255
154 194 255
154 194 255
154 195 255
154 195 255
154 195 255
154 195 255
154 195 255
154 195 255
154 195 255
154 195 255
155 195 255
155 195 255
155 195 255
155 195 255
155 195 255
155 195 255
155 195 255
155 195 255
155 195 255
155 195 255
156 196 255
156 196 255
156 196 255
156 196 255
156 196 255
156 196 255
156 196 255
156 196 255
156 196 255
157 196 255
157 196 255
157 196 255
157 196 255
157 196 255
157 196 255
157 196 255
157 197 255
157 197 255
157 197 255
158 197 255
158 197 255
158 197 255
158 197 255
158 197 255
158 197 255
158 197 255
158 197 255
158 197 255
159 197 255
159 197 255
159 197 255
159 198 255
159 198 255
159 198 255
159 198 255
159 198 255
159 198 255
160 198 255
160 198 255
160 198 255
160 198 255
160 198 255
160 198 255
160 198 255
160 198 255
160 198 255
160 198 255
161 199 255
161 199 255
161 199 255
161 199 255
161 199 255
161 199 255
161 199 255
161 199 255
161 199 255
162 199 255
162 199 255
162 199 255
162 199 255
162 199 255
162 199 255
162 199 255
162 200 255
162 200 255
162 200 255
163 200 255
163 200 255
163 200 255
163 200 255
163 200 255
163 200 255
163 200 255
163 200 255
163 200 255
163 200 255
163 200 255
164 200 255
164 200 255
164 200 255
164 201 255
164 201 255
164 201 255
164 201 255
164 201 255
164 201 255
164 201 255
165 201 255
165 201 255
165 201 255
165 201 255
165 201 255
165 201 255
165 201 255
165 201 255
165 201 255
165 201 255
165 201 255
166 202 255
166 202 255
166 202 255
166 202 255
166 202 255
166 202 255
166 202 255
166 202 255
166 202 255
166 202 255
166 202 255
166 202 255
167 202 255
167 202 255
167 202 255
167 202 255
167 202 255
167 202 255
167 202 255
167 202 255
167 203 255
167 203 255
167 203 255
167 203 255
168 203 255
168 203 255
167 203 255
167 203 255
167 203 255
167 203 255
167 202 255
167 202 255
167 202 255
167 202 255
167 202 255
167 202 255
167 202 255
167 202 255
167 202 255
166 202 255
166 202 255
166 202 255
166 202 255
166 202 255
166 202 255
166 202 255
166 202 255
166 202 255
166 202 255
166 202 255
165 201 255
165 201 255
165 201 255
165 201 255
165 201 255
165 201 255
165 201 255
165 201 255
165 201 255
165 201 255
165 201 255
164 201 255
164 201 255
164 201 255
164 201 255
164 201 255
164 201 255
164 201 255
164 200 255
164 200 255
164 200 255
164 200 255
163 200 255
163 200 255
163 200 255
163 200 255
163 200 255
163 200 255
163 200 255
163 200 255
163 200 255
163 200 255
162 200 255
162 200 255
162 200 255
162 199 255
162 199 255
162 199 255
162 199 255
162 199 255
162 199 255
162 199 255
161 199 255
161 199 255
161 199 255
161 199 255
161 199 255
161 199 255
161 199 255
161 199 255
161 199 255
161 199 255
160 198 255
160 198 255
160 198 255
160 198 255
160 198 255
160 198 255
160 198 255
160 198 255
160 198 255
159 198 255
159 198 255
159 198 255
159 198 255
159 198 255
159 198 255
159 197 255
159 197 255
159 197 255
159 197 255
158 197 255
158 197 255
158 197 255
158 197 255
158 197 255
158 197 255
158 197 255
158 197 255
158 197 255
157 197 255
157 197 255
157 197 255
157 196 255
157 196 255
157 196 255
157 196 255
157 196 255
157 196 255
156 196 255
156 196 255
156 196 255
156 196 255
156 196 255
156 196 255
156 196 255
156 196 255
156 196 255
156 196 255
155 195 255
155 195 255
155 195 255
155 195 255
155 195 255
155 195 255
155 195 255
155 195 255
155 195 255
155 195 255
154 195 255
154 195 255
154 195 255
154 195 255
154 195 255
154 195 255
154 195 255
154 194 255
154 194 255
154 194 255
154 194 255
153 194 255
153 194 255
153 194 255
153 194 255
153 194 255
153 194 255
153 194 255
153 194 255
153 194 255
153 194 255
153 194 255
153 194 255
153 194 255
152 194 255
152 194 255
152 194 255
152 194 255
152 194 255
152 193 255
152 193 255
152 193 255
152 193 255
152 193 255
152 193 255
152 193 255
152 193 255
152 193 255
152 193 255
152 193 255
152 193 255
152 193 255
151 193 255
151 193 255
151 193 255
151 193 255
151 193 255
151 193 255
151 193 255
151 193 255
151 193 255
151 193 255
151 193 255
151 193 255
151 193 255
151 193 255
151 193 255
151 193 255
151 193 255
151 193 255
151 193 255
151 193 255
151 193 255
151 193 255
151 193 255
151 193 255
151 193 255
151 193 255
151 193 255
151 193 255
151 193 255
151 193 255
151 193 255
151 193 255
151 193 255
151 193 255
151 193 255
151 193 255
151 193 255
151 193 255
151 193 255
151 193 255
151 193 255
151 193 255
151 193 255
151 193 255
151 193 255
151 193 255
151 193 255
152 193 255
152 193 255
152 193 255
152 193 255
152 193 255
152 193 255
152 193 255
152 193 255
152 193 255
152 193 255
152 193 255
152 193 255
152 194 255
152 194 255
152 194 255
152 194 255
152 194 255
153 194 255
153 194 255
153 194 255
153 194 255
153 194 255
153 194 255
153 194 255
153 194 255
153 194 255
153 194 255
153 194 255
153 194 255
153 194 255
154 194 255
154 194 255
154 194 255
154 194 255
154 195 255
154 195 255
154 195 255
154 195 255
154 195 255
154 195 255
154 195 255
155 195 255
155 195 255
155 195 255
155 195 255
155 195 255
155 195 255
155 195 255
155 195 255
155 195 255
155 195 255
156 196 255
156 196 255
156 196 255
156 196 255
156 196 255
156 196 255
156 196 255
156 196 255
156 196 255
156 196 255
157 196 255
157 196 255
157 196 255
157 196 255
157 196 255
157 196 255
157 197 255
157 197 255
157 197 255
158 197 255
158 197 255
158 197 255
158 197 255
158 197 255
158 197 255
158 197 255
158 197 255
158 197 255
158 197 255
159 197 255
159 197 255
159 197 255
159 198 255
159 198 255
159 198 255
159 198 255
159 198 255
159 198 255
160 198 255
160 198 255
160 198 255
160 198 255
160 198 255
160 198 255
160 198 255
160 198 255
160 198 255
161 199 255
161 199 255
161 199 255
161 199 255
161 199 255
161 199 255
161 199 255
161 199 255
161 199 255
161 199 255
162 199 255
162 199 255
162 199 255
162 199 255
162 199 255
162 199 255
162 200 255
162 200 255
162 200 255
162 200 255
163 200 255
163 200 255
163 200 255
163 200 255
163 200 255
163 200 255
163 200 255
163 200 255
163 200 255
163 200 255
164 200 255
164 200 255
164 200 255
164 200 255
164 201 255
164 201 255
164 201 255
164 201 255
164 201 255
164 201 255
164 201 255
165 201 255
165 201 255
165 201 255
165 201 255
165 201 255
165 201 255
165 201 255
165 201 255
165 201 255
165 201 255
165 201 255
166 202 255
166 202 255
166 202 255
166 202 255
166 202 255
166 202 255
166 202 255
166 202 255
166 202 255
166 202 255
166 202 255
167 202 255
167 202 255
167 202 255
167 202 255
167 202 255
167 202 255
167 202 255
167 202 255
167 202 255
167 203 255
167 203 255
167 203 255
167 203 255
168 203 255
168 203 255
168 203 255
168 203 255
168 203 255
168 203 255
168 203 255
167 203 255
167 203 255
167 203 255
167 203 255
167 202 255
167 202 255
167 202 255
167 202 255
167 202 255
167 202 255
167 202 255
167 202 255
166 202 255
166 202 255
166 202 255
166 202 255
166 202 255
166 202 255
166 202 255
166 202 255
166 202 255
166 202 255
166 202 255
166 202 255
165 201 255
165 201 255
165 201 255
165 201 255
165 201 255
165 201 255
165 201 255
165 201 255
165 201 255
165 201 255
165 201 255
164 201 255
164 201 255
164 201 255
164 201 255
164 201 255
164 201 255
164 201 255
164 200 255
164 200 255
164 200 255
164 200 255
163 200 255
163 200 255
163 200 255
163 200 255
163 200 255
163 200 255
163 200 255
163 200 255
163 200 255
163 200 255
162 200 255
162 200 255
162 200 255
162 199 255
162 199 255
162 199 255
162 199 255
162 199 255
162 199 255
162 199 255
161 199 255
161 199 255
161 199 255
161 199 255
161 199 255
161 199 255
161 199 255
161 199 255
161 199 255
160 198 255
160 198 255
160 198 255
160 198 255
160 198 255
160 198 255
160 198 255
160 198 255
160 198 255
160 198 255
159 198 255
159 198 255
159 198 255
159 198 255
159 198 255
159 198 255
159 197 255
159 197 255
159 197 255
158 197 255
158 197 255
158 197 255
158 197 255
158 197 255
158 197 255
158 197 255
158 197 255
158 197 255
157 197 255
157 197 255
157 197 255
157 197 255
157 196 255
157 196 255
157 196 255
157 196 255
157 196 255
157 196 255
156 196 255
156 196 255
156 196 255
156 196 255
156 196 255
156 196 255
156 196 255
156 196 255
156 196 255
156 196 255
155 195 255
155 195 255
155 195 255
155 195 255
155 195 255
155 195 255
155 195 255
155 195 255
155 195 255
155 195 255
154 195 255
154 195 255
154 195 255
154 195 255
154 195 255
154 195 255
154 195 255
154 194 255
154 194 255
154 194 255
154 194 255
153 194 255
153 194 255
153 194 255
153 194 255
153 194 255
153 194 255
153 194 255
153 194 255
153 194 255
153 194 255
153 194 255
153 194 255
153 194 255
153 194 255
152 194 255
152 194 255
152 194 255
152 194 255
152 194 255
152 194 255
152 193 255
152 193 255
152 193 255
152 193 255
152 193 255
152 193 255
152 193 255
152 193 255
152 193 255
152 193 255
152 193 255
152 193 255
152 193 255
152 193 255
151 193 255
151 193 255
151 193 255
151 193 255
151 193 255
151 193 255
151 193 255
151 193 255
151 193 255
151 193 255
151 193 255
151 193 255
151 193 255
151 193 255
151 193 255
151 193 255
151 193 255
151 193 255
151 193 255
151 193 255
151 193 255
151 193 255
151 193 255
151 193 255
151 193 255
151 193 255
151 193 255
151 193 255
151 193 255
151 193 255
151 193 255
151 193 255
151 193 255
152 193 255
152 193 255
152 193 255
152 193 255
152 193 255
152 193 255
152 193 255
152 193 255
152 193 255
152 193 255
152 193 255
152 193 255
152 193 255
152 193 255
152 193 255
152 193 255
152 194 255
152 194 255
152 194 255
152 194 255
152 194 255
153 194 255
153 194 255
153 194 255
153 194 255
153 194 255
153 194 255
153 194 255
153 194 255
153 194 255
153 194 255
153 194 255
153 194 255
153 194 255
153 194 255
154 194 255
154 194 255
154 194 255
154 195 255
154 195 255
154 195 255
154 195 255
154 195 255
154 195 255
154 195 255
154 195 255
155 195 255
155 195 255
155 195 255
155 195 255
155 195 255
155 195 255
155 195 255
155 195 255
155 195 255
155 195 255
156 196 255
156 196 255
156 196 255
156 196 255
156 196 255
156 196 255
156 196 255
156 196 255
156 196 255
156 196 255
157 196 255
157 196 255
157 196 255
157 196 255
157 196 255
157 196 255
157 197 255
157 197 255
157 197 255
157 197 255
158 197 255
158 197 255
158 197 255
158 197 255
158 197 255
158 197 255
158 197 255
158 197 255
158 197 255
159 197 255
159 197 255
159 197 255
159 198 255
159 198 255
159 198 255
159 198 255
159 198 255
159 198 255
160 198 255
160 198 255
160 198 255
160 198 255
160 198 255
160 198 255
160 198 255
160 198 255
160 198 255
160 198 255
161 199 255
161 199 255
161 199 255
161 199 255
161 199 255
161 199 255
161 199 255
161 199 255
161 199 255
162 199 255
162 199 255
162 199 255
162 199 255
162 199 255
162 199 255
162 199 255
162 200 255
162 200 255
162 200 255
163 200 255
163 200 255
163 200 255
163 200 255
163 200 255
163 200 255
163 200 255
163 200 255
163 200 255
163 200 255
164 200 255
164 200 255
164 200 255
164 200 255
164 201 255
164 201 255
164 201 255
164 201 255
164 201 255
164 201 255
164 201 255
165 201 255
165 201 255
165 201 255
165 201 255
165 201 255
165 201 255
165 201 255
165 201 255
165 201 255
165 201 255
165 201 255
166 202 255
166 202 255
166 202 255
166 202 255
166 202 255
166 202 255
166 202 255
166 202 255
166 202 255
166 202 255
166 202 255
167 202 255
167 202 255
167 202 255
167 202 255
167 202 255
167 202 255
167 202 255
167 202 255
167 202 255
167 203 255
167 203 255
167 203 255
167 203 255
168 203 255
168 203 255
168 203 255
168 203 255
168 203 255
168 203 255
168 203 255
168 203 255
168 203 255
168 203 255
168 203 255
168 203 255
168 203 255
167 203 255
167 203 255
167 203 255
167 203 255
167 202 255
167 202 255
167 202 255
167 202 255
167 202 255
167 202 255
167 202 255
167 202 255
166 202 255
166 202 255
166 202 255
166 202 255
166 202 255
166 202 255
166 202 255
166 202 255
166 202 255
166 202 255
166 202 255
166 202 255
165 201 255
165 201 255
165 201 255
165 201 255
165 201 255
165 201 255
165 201 255
165 201 255
165 201 255
165 201 255
165 201 255
164 201 255
164 201 255
164 201 255
164 201 255
164 201 255
164 201 255
164 201 255
164 200 255
164 200 255
164 200 255
163 200 255
163 200 255
163 200 255
163 200 255
163 200 255
163 200 255
163 200 255
163 200 255
163 200 255
163 200 255
162 200 255
162 200 255
162 200 255
162 199 255
162 199 255
162 199 255
162 199 255
162 199 255
162 199 255
162 199 255
161 199 255
161 199 255
161 199 255
161 199 255
161 199 255
161 199 255
161 199 255
161 199 255
161 199 255
161 199 255
160 198 255
160 198 255
160 198 255
160 198 255
160 198 255
160 198 255
160 198 255
160 198 255
160 198 255
159 198 255
159 198 255
159 198 255
159 198 255
159 198 255
159 198 255
159 197 255
159 197 255
159 197 255
158 197 255
158 197 255
158 197 255
158 197 255
158 197 255
158 197 255
158 197 255
158 197 255
158 197 255
158 197 255
157 197 255
157 197 255
157 197 255
157 196 255
157 196 255
157 196 255
157 196 255
157 196 255
157 196 255
156 196 255
156 196 255
156 196 255
156 196 255
156 196 255
156 196 255
156 196 255
156 196 255
156 196 255
156 196 255
155 195 255
155 195 255
155 195 255
155 195 255
155 195 255
155 195 255
155 195 255
155 195 255
155 195 255
155 195 255
155 195 255
154 195 255
154 195 255
154 195 255
154 195 255
154 195 255
154 195 255
154 195 255
154 195 255
154 194 255
154 194 255
154 194 255
154 194 255
153 194 255
153 194 255
153 194 255
153 194 255
153 194 255
153 194 255
153 194 255
153 194 255
153 194 255
153 194 255
153 194 255
153 194 255
153 194 255
153 194 255
153 194 255
152 194 255
152 194 255
152 194 255
152 194 255
152 194 255
152 194 255
152 193 255
152 193 255
152 193 255
152 193 255
152 193 255
152 193 255
152 193 255
152 193 255
152 193 255
152 193 255
152 193 255
152 193 255
152 193 255
152 193 255
152 193 255
152 193 255
152 193 255
152 193 255
152 193 255
152 193 255
152 193 255
152 193 255
152 193 255
152 193 255
152 193 255
152 193 255
152 193 255
152 193 255
152 193 255
152 193 255
152 193 255
152 193 255
152 193 255
152 193 255
152 193 255
152 193 255
152 193 255
152 193 255
152 193 255
152 193 255
152 193 255
152 193 255
152 193 255
152 193 255
152 193 255
152 193 255
152 193 255
152 193 255
152 193 255
152 193 255
152 193 255
152 193 255
152 194 255
152 194 255
152 194 255
152 194 255
152 194 255
152 194 255
152 194 255
153 194 255
153 194 255
153 194 255
153 194 255
153 194 255
153 194 255
153 194 255
153 194 255
153 194 255
153 194 255
153 194 255
153 194 255
153 194 255
153 194 255
154 194 255
154 194 255
154 194 255
154 194 255
154 195 255
154 195 255
154 195 255
154 195 255
154 195 255
154 195 255
154 195 255
154 195 255
155 195 255
155 195 255
155 195 255
155 195 255
155 195 255
155 195 255
155 195 255
155 195 255
155 195 255
155 195 255
155 195 255
156 196 255
156 196 255
156 196 255
156 196 255
156 196 255
156 196 255
156 196 255
156 196 255
156 196 255
156 196 255
157 196 255
157 196 255
157 196 255
157 196 255
157 196 255
157 196 255
157 197 255
157 197 255
157 197 255
158 197 255
158 197 255
158 197 255
158 197 255
158 197 255
158 197 255
158 197 255
158 197 255
158 197 255
158 197 255
159 197 255
159 197 255
159 197 255
159 198 255
159 198 255
159 198 255
159 198 255
159 198 255
159 198 255
160 198 255
160 198 255
160 198 255
160 198 255
160 198 255
160 198 255
160 198 255
160 198 255
160 198 255
161 199 255
161 199 255
161 199 255
161 199 255
161 199 255
161 199 255
161 199 255
161 199 255
161 199 255
161 199 255
162 199 255
162 199 255
162 199 255
162 199 255
162 199 255
162 199 255
162 199 255
162 200 255
162 200 255
162 200 255
163 200 255
163 200 255
163 200 255
163 200 255
163 200 255
163 200 255
163 200 255
163 200 255
163 200 255
163 200 255
164 200 255
164 200 255
164 200 255
164 201 255
164 201 255
164 201 255
164 201 255
164 201 255
164 201 255
164 201 255
165 201 255
165 201 255
165 201 255
165 201 255
165 201 255
165 201 255
165 201 255
165 201 255
165 201 255
165 201 255
165 201 255
166 202 255
166 202 255
166 202 255
166 202 255
166 202 255
166 202 255
166 202 255
166 202 255
166 202 255
166 202 255
166 202 255
166 202 255
167 202 255
167 202 255
167 202 255
167 202 255
167 202 255
167 202 255
167 202 255
167 202 255
167 203 255
167 203 255
167 203 255
167 203 255
168 203 255
168 203 255
168 203 255
168 203 255
168 203 255
168 203 255
168 203 255
168 203 255
168 203 255
168 203 255
168 203 255
168 203 255
168 203 255
168 203 255
168 203 255
168 203 255
168 203 255
168 203 255
168 203 255
167 203 255
167 203 255
167 203 255
167 203 255
167 202 255
167 202 255
167 202 255
167 202 255
167 202 255
167 202 255
167 202 255
167 202 255
166 202 255
166 202 255
166 202 255
166 202 255
166 202 255
166 202 255
166 202 255
166 202 255
166 202 255
166 202 255
166 202 255
166 202 255
165 201 255
165 201 255
165 201 255
165 201 255
165 201 255
165 201 255
165 201 255
165 201 255
165 201 255
165 201 255
164 201 255
164 201 255
164 201 255
164 201 255
164 201 255
164 201 255
164 201 255
164 200 255
164 200 255
164 200 255
164 200 255
163 200 255
163 200 255
163 200 255
163 200 255
163 200 255
163 200 255
163 200 255
163 200 255
163 200 255
163 200 255
162 200 255
162 200 255
162 200 255
162 199 255
162 199 255
162 199 255
162 199 255
162 199 255
162 199 255
162 199 255
161 199 255
161 199 255
161 199 255
161 199 255
161 199 255
161 199 255
161 199 255
161 199 255
161 199 255
160 198 255
160 198 255
160 198 255
160 198 255
160 198 255
160 198 255
160 198 255
160 198 255
160 198 255
160 198 255
159 198 255
159 198 255
159 198 255
159 198 255
159 198 255
159 198 255
159 197 255
159 197 255
159 197 255
158 197 255
158 197 255
158 197 255
158 197 255
158 197 255
158 197 255
158 197 255
158 197 255
158 197 255
158 197 255
157 197 255
157 197 255
157 197 255
157 196 255
157 196 255
157 196 255
157 196 255
157 196 255
157 196 255
156 196 255
156 196 255
156 196 255
156 196 255
156 196 255
156 196 255
156 196 255
156 196 255
156 196 255
156 196 255
155 195 255
155 195 255
155 195 255
155 195 255
155 195 255
155 195 255
155 195 255
155 195 255
155 195 255
155 195 255
155 195 255
154 195 255
154 195 255
154 195 255
154 195 255
154 195 255
154 195 255
154 195 255
154 195 255
154 194 255
154 194 255
154 194 255
154 194 255
153 194 255
153 194 255
153 194 255
153 194 255
153 194 255
153 194 255
153 194 255
153 194 255
153 194 255
153 194 255
153 194 255
153 194 255
153 194 255
153 194 255
153 194 255
153 194 255
153 194 255
152 194 255
152 194 255
152 194 255
152 194 255
152 194 255
152 194 255
152 194 255
152 193 255
152 193 255
152 193 255
152 193 255
152 193 255
152 193 255
152 193 255
152 193 255
152 193 255
152 193 255
152 193 255
152 193 255
152 193 255
152 193 255
152 193 255
152 193 255
152 193 255
152 193 255
152 193 255
152 193 255
152 193 255
152 193 255
152 193 255
152 193 255
152 193 255
152 193 255
152 193 255
152 193 255
152 193 255
152 193 255
152 193 255
152 193 255
152 193 255
152 193 255
152 193 255
152 193 255
152 193 255
152 193 255
152 193 255
152 193 255
152 194 255
152 194 255
152 194 255
152 194 255
152 194 255
152 194 255
152 194 255
153 194 255
153 194 255
153 194 255
153 194 255
153 194 255
153 194 255
153 194 255
153 194 255
153 194 255
153 194 255
153 194 255
153 194 255
153 194 255
153 194 255
153 194 255
153 194 255
153 194 255
154 194 255
154 194 255
154 194 255
154 194 255
154 195 255
154 195 255
154 195 255
154 195 255
154 195 255
154 195 255
154 195 255
154 195 255
155 195 255
155 195 255
155 195 255
155 195 255
155 195 255
155 195 255
155 195 255
155 195 255
155 195 255
155 195 255
155 195 255
156 196 255
156 196 255
156 196 255
156 196 255
156 196 255
156 196 255
156 196 255
156 196 255
156 196 255
156 196 255
157 196 255
157 196 255
157 196 255
157 196 255
157 196 255
157 196 255
157 197 255
157 197 255
157 197 255
157 197 255
158 197 255
158 197 255
158 197 255
158 197 255
158 197 255
158 197 255
158 197 255
158 197 255
158 197 255
159 197 255
159 197 255
159 197 255
159 198 255
159 198 255
159 198 255
159 198 255
159 198 255
159 198 255
160 198 255
160 198 255
160 198 255
160 198 255
160 198 255
160 198 255
160 198 255
160 198 255
160 198 255
160 198 255
161 199 255
161 199 255
161 199 255
161 199 255
161 199 255
161 199 255
161 199 255
161 199 255
161 199 255
162 199 255
162 199 255
162 199 255
162 199 255
162 199 255
162 199 255
162 199 255
162 200 255
162 200 255
162 200 255
163 200 255
163 200 255
163 200 255
163 200 255
163 200 255
163 200 255
163 200 255
163 200 255
163 200 255
163 200 255
164 200 255
164 200 255
164 200 255
164 200 255
164 201 255
164 201 255
164 201 255
164 201 255
164 201 255
164 201 255
164 201 255
165 201 255
165 201 255
165 201 255
165 201 255
165 201 255
165 201 255
165 201 255
165 201 255
165 201 255
165 201 255
165 201 255
166 202 255
166 202 255
166 202 255
166 202 255
166 202 255
166 202 255
166 202 255
166 202 255
166 202 255
166 202 255
166 202 255
167 202 255
167 202 255
167 202 255
167 202 255
167 202 255
167 202 255
167 202 255
167 202 255
167 203 255
167 203 255
167 203 255
167 203 255
168 203 255
168 203 255
168 203 255
168 203 255
168 203 255
168 203 255
168 203 255
168 203 255
168 203 255
168 203 255
168 203 255
169 203 255
168 203 255
168 203 255
168 203 255
168 203 255
168 203 255
168 203 255
168 203 255
168 203 255
168 203 255
168 203 255
168 203 255
168 203 255
168 203 255
167 203 255
167 203 255
167 203 255
167 203 255
167 202 255
167 202 255
167 202 255
167 202 255
167 202 255
167 202 255
167 202 255
167 202 255
166 202 255
166 202 255
166 202 255
166 202 255
166 202 255
166 202 255
166 202 255
166 202 255
166 202 255
166 202 255
166 202 255
165 201 255
165 201 255
165 201 255
165 201 255
165 201 255
165 201 255
165 201 255
165 201 255
165 201 255
165 201 255
165 201 255
164 201 255
164 201 255
164 201 255
164 201 255
164 201 255
164 201 255
164 201 255
164 200 255
164 200 255
164 200 255
163 200 255
163 200 255
163 200 255
163 200 255
163 200 255
163 200 255
163 200 255
163 200 255
163 200 255
163 200 255
162 200 255
162 200 255
162 200 255
162 200 255
162 199 255
162 199 255
162 199 255
162 199 255
162 199 255
162 199 255
161 199 255
161 199 255
161 199 255
161 199 255
161 199 255
161 199 255
161 199 255
161 199 255
161 199 255
161 199 255
160 198 255
160 198 255
160 198 255
160 198 255
160 198 255
160 198 255
160 198 255
160 198 255
160 198 255
159 198 255
159 198 255
159 198 255
159 198 255
159 198 255
159 198 255
159 197 255
159 197 255
159 197 255
159 197 255
158 197 255
158 197 255
158 197 255
158 197 255
158 197 255
158 197 255
158 197 255
158 197 255
158 197 255
157 197 255
157 197 255
157 197 255
157 196 255
157 196 255
157 196 255
157 196 255
157 196 255
157 196 255
157 196 255
156 196 255
156 196 255
156 196 255
156 196 255
156 196 255
156 196 255
156 196 255
156 196 255
156 196 255
156 196 255
155 195 255
155 195 255
155 195 255
155 195 255
155 195 255
155 195 255
155 195 255
155 195 255
155 195 255
155 195 255
155 195 255
154 195 255
154 195 255
154 195 255
154 195 255
154 195 255
154 195 255
154 195 255
154 195 255
154 195 255
154 194 255
154 194 255
154 194 255
154 194 255
153 194 255
153 194 255
153 194 255
153 194 255
153 194 255
153 194 255
153 194 255
153 194 255
153 194 255
153 194 255
153 194 255
153 194 255
153 194 255
153 194 255
153 194 255
153 194 255
153 194 255
153 194 255
153 194 255
152 194 255
152 194 255
152 194 255
152 194 255
152 194 255
152 194 255
152 194 255
152 194 255
152 194 255
152 194 255
152 194 255
152 193 255
152 193 255
152 193 255
152 193 255
152 193 255
152 193 255
152 193 255
152 193 255
152 193 255
152 193 255
152 193 255
152 193 255
152 193 255
152 193 255
152 193 255
152 193 255
152 193 255
152 193 255
152 193 255
152 193 255
152 194 255
152 194 255
152 194 255
152 194 255
152 194 255
152 194 255
152 194 255
152 194 255
152 194 255
152 194 255
152 194 255
153 194 255
153 194 255
153 194 255
153 194 255
153 194 255
153 194 255
153 194 255
153 194 255
153 194 255
153 194 255
153 194 255
153 194 255
153 194 255
153 194 255
153 194 255
153 194 255
153 194 255
153 194 255
153 194 255
154 194 255
154 194 255
154 194 255
154 194 255
154 195 255
154 195 255
154 195 255
154 195 255
154 195 255
154 195 255
154 195 255
154 195 255
154 195 255
155 195 255
155 195 255
155 195 255
155 195 255
155 195 255
155 195 255
155 195 255
155 195 255
155 195 255
155 195 255
155 195 255
156 196 255
156 196 255
156 196 255
156 196 255
156 196 255
156 196 255
156 196 255
156 196 255
156 196 255
156 196 255
157 196 255
157 196 255
157 196 255
157 196 255
157 196 255
157 196 255
157 196 255
157 197 255
157 197 255
157 197 255
158 197 255
158 197 255
158 197 255
158 197 255
158 197 255
158 197 255
158 197 255
158 197 255
158 197 255
158 197 255
159 197 255
159 197 255
159 197 255
159 198 255
159 198 255
159 198 255
159 198 255
159 198 255
159 198 255
160 198 255
160 198 255
160 198 255
160 198 255
160 198 255
160 198 255
160 198 255
160 198 255
160 198 255
161 199 255
161 199 255
161 199 255
161 199 255
161 199 255
161 199 255
161 199 255
161 199 255
161 199 255
161 199 255
162 199 255
162 199 255
162 199 255
162 199 255
162 199 255
162 199 255
162 200 255
162 200 255
162 200 255
162 200 255
163 200 255
163 200 255
163 200 255
163 200 255
163 200 255
163 200 255
163 200 255
163 200 255
163 200 255
163 200 255
164 200 255
164 200 255
164 200 255
164 201 255
164 201 255
164 201 255
164 201 255
164 201 255
164 201 255
164 201 255
165 201 255
165 201 255
165 201 255
165 201 255
165 201 255
165 201 255
165 201 255
165 201 255
165 201 255
165 201 255
165 201 255
166 202 255
166 202 255
166 202 255
166 202 255
166 202 255
166 202 255
166 202 255
166 202 255
166 202 255
166 202 255
166 202 255
167 202 255
167 202 255
167 202 255
167 202 255
167 202 255
167 202 255
167 202 255
167 202 255
167 203 255
167 203 255
167 203 255
167 203 255
168 203 255
168 203 255
168 203 255
168 203 255
168 203 255
168 203 255
168 203 255
168 203 255
168 203 255
168 203 255
168 203 255
168 203 255
168 203 255
169 203 255
169 203 255
169 203 255
169 203 255
169 203 255
168 203 255
168 203 255
168 203 255
168 203 255
168 203 255
168 203 255
168 203 255
168 203 255
168 203 255
168 203 255
168 203 255
168 203 255
168 203 255
167 203 255
167 203 255
167 203 255
167 203 255
167 202 255
167 202 255
167 202 255
167 202 255
167 202 255
167 202 255
167 202 255
166 202 255
166 202 255
166 202 255
166 202 255
166 202 255
166 202 255
166 202 255
166 202 255
166 202 255
166 202 255
166 202 255
166 202 255
165 201 255
165 201 255
165 201 255
165 201 255
165 201 255
165 201 255
165 201 255
165 201 255
165 201 255
165 201 255
165 201 255
164 201 255
164 201 255
164 201 255
164 201 255
164 201 255
164 201 255
164 201 255
164 200 255
164 200 255
164 200 255
163 200 255
163 200 255
163 200 255
163 200 255
163 200 255
163 200 255
163 200 255
163 200 255
163 200 255
163 200 255
162 200 255
162 200 255
162 200 255
162 199 255
162 199 255
162 199 255
162 199 255
162 199 255
162 199 255
162 199 255
161 199 255
161 199 255
161 199 255
161 199 255
161 199 255
161 199 255
161 199 255
161 199 255
161 199 255
160 198 255
160 198 255
160 198 255
160 198 255
160 198 255
160 198 255
160 198 255
160 198 255
160 198 255
160 198 255
159 198 255
159 198 255
159 198 255
159 198 255
159 198 255
159 198 255
159 197 255
159 197 255
159 197 255
158 197 255
158 197 255
158 197 255
158 197 255
158 197 255
158 197 255
158 197 255
158 197 255
158 197 255
158 197 255
157 197 255
157 197 255
157 197 255
157 196 255
157 196 255
157 196 255
157 196 255
157 196 255
157 196 255
157 196 255
156 196 255
156 196 255
156 196 255
156 196 255
156 196 255
156 196 255
156 196 255
156 196 255
156 196 255
156 196 255
155 195 255
155 195 255
155 195 255
155 195 255
155 195 255
155 195 255
155 195 255
155 195 255
155 195 255
155 195 255
155 195 255
155 195 255
154 195 255
154 195 255
154 195 255
154 195 255
154 195 255
154 195 255
154 195 255
154 195 255
154 195 255
154 194 255
154 194 255
154 194 255
154 194 255
154 194 255
153 194 255
153 194 255
153 194 255
153 194 255
153 194 255
153 194 255
153 194 255
153 194 255
153 194 255
153 194 255
153 194 255
153 194 255
153 194 255
153 194 255
153 194 255
153 194 255
153 194 255
153 194 255
153 194 255
153 194 255
153 194 255
153 194 255
152 194 255
152 194 255
152 194 255
152 194 255
152 194 255
152 194 255
152 194 255
152 194 255
152 194 255
152 194 255
152 194 255
152 194 255
152 194 255
152 194 255
152 194 255
152 194 255
152 194 255
152 194 255
152 194 255
152 194 255
152 194 255
152 194 255
152 194 255
152 194 255
152 194 255
152 194 255
153 194 255
153 194 255
153 194 255
153 194 255
153 194 255
153 194 255
153 194 255
153 194 255
153 194 255
153 194 255
153 194 255
153 194 255
153 194 255
153 194 255
153 194 255
153 194 255
153 194 255
153 194 255
153 194 255
153 194 255
153 194 255
153 194 255
154 194 255
154 194 255
154 194 255
154 194 255
154 194 255
154 195 255
154 195 255
154 195 255
154 195 255
154 195 255
154 195 255
154 195 255
154 195 255
154 195 255
155 195 255
155 195 255
155 195 255
155 195 255
155 195 255
155 195 255
155 195 255
155 195 255
155 195 255
155 195 255
155 195 255
155 195 255
156 196 255
156 196 255
156 196 255
156 196 255
156 196 255
156 196 255
156 196 255
156 196 255
156 196 255
156 196 255
157 196 255
157 196 255
157 196 255
157 196 255
157 196 255
157 196 255
157 196 255
157 197 255
157 197 255
157 197 255
158 197 255
158 197 255
158 197 255
158 197 255
158 197 255
158 197 255
158 197 255
158 197 255
158 197 255
158 197 255
159 197 255
159 197 255
159 197 255
159 198 255
159 198 255
159 198 255
159 198 255
159 198 255
159 198 255
160 198 255
160 198 255
160 198 255
160 198 255
160 198 255
160 198 255
160 198 255
160 198 255
160 198 255
160 198 255
161 199 255
161 199 255
161 199 255
161 199 255
161 199 255
161 199 255
161 199 255
161 199 255
161 199 255
162 199 255
162 199 255
162 199 255
162 199 255
162 199 255
162 199 255
162 199 255
162 200 255
162 200 255
162 200 255
163 200 255
163 200 255
163 200 255
163 200 255
163 200 255
163 200 255
163 200 255
163 200 255
163 200 255
163 200 255
164 200 255
164 200 255
164 200 255
164 201 255
164 201 255
164 201 255
164 201 255
164 201 255
164 201 255
164 201 255
165 201 255
165 201 255
165 201 255
165 201 255
165 201 255
165 201 255
165 201 255
165 201 255
165 201 255
165 201 255
165 201 255
166 202 255
166 202 255
166 202 255
166 202 255
166 202 255
166 202 255
166 202 255
166 202 255
166 202 255
166 202 255
166 202 255
167 202 255
167 202 255
167 202 255
167 202 255
167 202 255
167 202 255
167 202 255
167 202 255
167 203 255
167 203 255
167 203 255
167 203 255
168 203 255
168 203 255
168 203 255
168 203 255
168 203 255
168 203 255
168 203 255
168 203 255
168 203 255
168 203 255
168 203 255
168 203 255
168 203 255
169 203 255
169 203 255
169 203 255
169 203 255
169 204 255
169 204 255
169 204 255
169 203 255
169 203 255
169 203 255
169 203 255
168 203 255
168 203 255
168 203 255
168 203 255
168 203 255
168 203 255
168 203 255
168 203 255
168 203 255
168 203 255
168 203 255
168 203 255
168 203 255
167 203 255
167 203 255
167 203 255
167 203 255
167 202 255
167 202 255
167 202 255
167 202 255
167 202 255
167 202 255
167 202 255
166 202 255
166 202 255
166 202 255
166 202 255
166 202 255
166 202 255
166 202 255
166 202 255
166 202 255
166 202 255
166 202 255
166 202 255
165 201 255
165 201 255
165 201 255
165 201 255
165 201 255
165 201 255
165 201 255
165 201 255
165 201 255
165 201 255
164 201 255
164 201 255
164 201 255
164 201 255
164 201 255
164 201 255
164 201 255
164 200 255
164 200 255
164 200 255
164 200 255
163 200 255
163 200 255
163 200 255
163 200 255
163 200 255
163 200 255
163 200 255
163 200 255
163 200 255
163 200 255
162 200 255
162 200 255
162 200 255
162 199 255
162 199 255
162 199 255
162 199 255
162 199 255
162 199 255
161 199 255
161 199 255
161 199 255
161 199 255
161 199 255
161 199 255
161 199 255
161 199 255
161 199 255
161 199 255
160 198 255
160 198 255
160 198 255
160 198 255
160 198 255
160 198 255
160 198 255
160 198 255
160 198 255
159 198 255
159 198 255
159 198 255
159 198 255
159 198 255
159 198 255
159 198 255
159 197 255
159 197 255
159 197 255
158 197 255
158 197 255
158 197 255
158 197 255
158 197 255
158 197 255
158 197 255
158 197 255
158 197 255
158 197 255
157 197 255
157 197 255
157 197 255
157 196 255
157 196 255
157 196 255
157 196 255
157 196 255
157 196 255
157 196 255
156 196 255
156 196 255
156 196 255
156 196 255
156 196 255
156 196 255
156 196 255
156 196 255
156 196 255
156 196 255
155 195 255
155 195 255
155 195 255
155 195 255
155 195 255
155 195 255
155 195 255
155 195 255
155 195 255
155 195 255
155 195 255
155 195 255
154 195 255
154 195 255
154 195 255
154 195 255
154 195 255
154 195 255
154 195 255
154 195 255
154 195 255
154 195 255
154 194 255
154 194 255
154 194 255
154 194 255
154 194 255
154 194 255
153 194 255
153 194 255
153 194 255
153 194 255
153 194 255
153 194 255
153 194 255
153 194 255
153 194 255
153 194 255
153 194 255
153 194 255
153 194 255
153 194 255
153 194 255
153 194 255
153 194 255
153 194 255
153 194 255
153 194 255
153 194 255
153 194 255
153 194 255
153 194 255
153 194 255
153 194 255
153 194 255
153 194 255
153 194 255
153 194 255
153 194 255
153 194 255
153 194 255
153 194 255
153 194 255
153 194 255
153 194 255
153 194 255
153 194 255
153 194 255
153 194 255
153 194 255
153 194 255
153 194 255
153 194 255
153 194 255
153 194 255
153 194 255
153 194 255
153 194 255
153 194 255
153 194 255
153 194 255
153 194 255
153 194 255
153 194 255
153 194 255
153 194 255
153 194 255
153 194 255
154 194 255
154 194 255
154 194 255
154 194 255
154 194 255
154 194 255
154 195 255
154 195 255
154 195 255
154 195 255
154 195 255
154 195 255
154 195 255
154 195 255
154 195 255
154 195 255
155 195 255
155 195 255
155 195 255
155 195 255
155 195 255
155 195 255
155 195 255
155 195 255
155 195 255
155 195 255
155 195 255
155 195 255
156 196 255
156 196 255
156 196 255
156 196 255
156 196 255
156 196 255
156 196 255
156 196 255
156 196 255
156 196 255
157 196 255
157 196 255
157 196 255
157 196 255
157 196 255
157 196 255
157 196 255
157 197 255
157 197 255
157 197 255
158 197 255
158 197 255
158 197 255
158 197 255
158 197 255
158 197 255
158 197 255
158 197 255
158 197 255
158 197 255
159 197 255
159 197 255
159 197 255
159 198 255
159 198 255
159 198 255
159 198 255
159 198 255
159 198 255
159 198 255
160 198 255
160 198 255
160 198 255
160 198 255
160 198 255
160 198 255
160 198 255
160 198 255
160 198 255
161 199 255
161 199 255
161 199 255
161 199 255
161 199 255
161 199 255
161 199 255
161 199 255
161 199 255
161 199 255
162 199 255
162 199 255
162 199 255
162 199 255
162 199 255
162 199 255
162 200 255
162 200 255
162 200 255
163 200 255
163 200 255
163 200 255
163 200 255
163 200 255
163 200 255
163 200 255
163 200 255
163 200 255
163 200 255
164 200 255
164 200 255
164 200 255
164 200 255
164 201 255
164 201 255
164 201 255
164 201 255
164 201 255
164 201 255
164 201 255
165 201 255
165 201 255
165 201 255
165 201 255
165 201 255
165 201 255
165 201 255
165 201 255
165 201 255
165 201 255
166 202 255
166 202 255
166 202 255
166 202 255
166 202 255
166 202 255
166 202 255
166 202 255
166 202 255
166 202 255
166 202 255
166 202 255
167 202 255
167 202 255
167 202 255
167 202 255
167 202 255
167 202 255
167 202 255
167 202 255
167 203 255
167 203 255
167 203 255
168 203 255
168 203 255
168 203 255
168 203 255
168 203 255
168 203 255
168 203 255
168 203 255
168 203 255
168 203 255
168 203 255
168 203 255
168 203 255
169 203 255
169 203 255
169 203 255
169 203 255
169 204 255
169 204 255
169 204 255
169 204 255
169 204 255
169 204 255
169 204 255
169 204 255
169 204 255
169 203 255
169 203 255
169 203 255
169 203 255
168 203 255
168 203 255
168 203 255
168 203 255
168 203 255
168 203 255
168 203 255
168 203 255
168 203 255
168 203 255
168 203 255
168 203 255
167 203 255
167 203 255
167 203 255
167 203 255
167 203 255
167 202 255
167 202 255
167 202 255
167 202 255
167 202 255
167 202 255
167 202 255
166 202 255
166 202 255
166 202 255
166 202 255
166 202 255
166 202 255
166 202 255
166 202 255
166 202 255
166 202 255
166 202 255
165 201 255
165 201 255
165 201 255
165 201 255
165 201 255
165 201 255
165 201 255
165 201 255
165 201 255
165 201 255
165 201 255
164 201 255
164 201 255
164 201 255
164 201 255
164 201 255
164 201 255
164 201 255
164 200 255
164 200 255
164 200 255
163 200 255
163 200 255
163 200 255
163 200 255
163 200 255
163 200 255
163 200 255
163 200 255
163 200 255
163 200 255
162 200 255
162 200 255
162 200 255
162 200 255
162 199 255
162 199 255
162 199 255
162 199 255
162 199 255
162 199 255
161 199 255
161 199 255
161 199 255
161 199 255
161 199 255
161 199 255
161 199 255
161 199 255
161 199 255
160 198 255
160 198 255
160 198 255
160 198 255
160 198 255
160 198 255
160 198 255
160 198 255
160 198 255
160 198 255
159 198 255
159 198 255
159 198 255
159 198 255
159 198 255
159 198 255
159 198 255
159 197 255
159 197 255
159 197 255
158 197 255
158 197 255
158 197 255
158 197 255
158 197 255
158 197 255
158 197 255
158 197 255
158 197 255
157 197 255
157 197 255
157 197 255
157 197 255
157 196 255
157 196 255
157 196 255
157 196 255
157 196 255
157 196 255
157 196 255
156 196 255
156 196 255
156 196 255
156 196 255
156 196 255
156 196 255
156 196 255
156 196 255
156 196 255
156 196 255
156 196 255
155 195 255
155 195 255
155 195 255
155 195 255
155 195 255
155 195 255
155 195 255
155 195 255
155 195 255
155 195 255
155 195 255
155 195 255
154 195 255
154 195 255
154 195 255
154 195 255
154 195 255
154 195 255
154 195 255
154 195 255
154 195 255
154 195 255
154 195 255
154 194 255
154 194 255
154 194 255
154 194 255
154 194 255
154 194 255
153 194 255
153 194 255
153 194 255
153 194 255
153 194 255
153 194 255
153 194 255
153 194 255
153 194 255
153 194 255
153 194 255
153 194 255
153 194 255
153 194 255
153 194 255
153 194 255
153 194 255
153 194 255
153 194 255
153 194 255
153 194 255
153 194 255
153 194 255
153 194 255
153 194 255
153 194 255
153 194 255
153 194 255
153 194 255
153 194 255
153 194 255
153 194 255
153 194 255
153 194 255
153 194 255
153 194 255
153 194 255
153 194 255
153 194 255
153 194 255
153 194 255
153 194 255
153 194 255
153 194 255
153 194 255
153 194 255
153 194 255
153 194 255
153 194 255
153 194 255
154 194 255
154 194 255
154 194 255
154 194 255
154 194 255
154 194 255
154 195 255
154 195 255
154 195 255
154 195 255
154 195 255
154 195 255
154 195 255
154 195 255
154 195 255
154 195 255
154 195 255
155 195 255
155 195 255
155 195 255
155 195 255
155 195 255
155 195 255
155 195 255
155 195 255
155 195 255
155 195 255
155 195 255
155 195 255
156 196 255
156 196 255
156 196 255
156 196 255
156 196 255
156 196 255
156 196 255
156 196 255
156 196 255
156 196 255
156 196 255
156 196 255
157 196 255
157 196 255
157 196 255
157 196 255
157 196 255
157 196 255
157 197 255
157 197 255
157 197 255
157 197 255
158 197 255
158 197 255
158 197 255
158 197 255
158 197 255
158 197 255
158 197 255
158 197 255
158 197 255
159 197 255
159 197 255
159 197 255
159 198 255
159 198 255
159 198 255
159 198 255
159 198 255
159 198 255
159 198 255
160 198 255
160 198 255
160 198 255
160 198 255
160 198 255
160 198 255
160 198 255
160 198 255
160 198 255
160 198 255
161 199 255
161 199 255
161 199 255
161 199 255
161 199 255
161 199 255
161 199 255
161 199 255
161 199 255
162 199 255
162 199 255
162 199 255
162 199 255
162 199 255
162 199 255
162 200 255
162 200 255
162 200 255
162 200 255
163 200 255
163 200 255
163 200 255
163 200 255
163 200 255
163 200 255
163 200 255
163 200 255
163 200 255
163 200 255
164 200 255
164 200 255
164 200 255
164 201 255
164 201 255
164 201 255
164 201 255
164 201 255
164 201 255
164 201 255
165 201 255
165 201 255
165 201 255
165 201 255
165 201 255
165 201 255
165 201 255
165 201 255
165 201 255
165 201 255
165 201 255
166 202 255
166 202 255
166 202 255
166 202 255
166 202 255
166 202 255
166 202 255
166 202 255
166 202 255
166 202 255
166 202 255
167 202 255
167 202 255
167 202 255
167 202 255
167 202 255
167 202 255
167 202 255
167 202 255
167 203 255
167 203 255
167 203 255
168 203 255
168 203 255
168 203 255
168 203 255
168 203 255
168 203 255
168 203 255
168 203 255
168 203 255
168 203 255
168 203 255
168 203 255
168 203 255
169 203 255
169 203 255
169 203 255
169 203 255
169 204 255
169 204 255
169 204 255
169 204 255
169 204 255
169 204 255
169 204 255
169 204 255
169 204 255
169 204 255
169 204 255
169 204 255
169 204 255
169 204 255
169 204 255
169 203 255
169 203 255
169 203 255
169 203 255
168 203 255
168 203 255
168 203 255
168 203 255
168 203 255
168 203 255
168 203 255
168 203 255
168 203 255
168 203 255
168 203 255
168 203 255
167 203 255
167 203 255
167 203 255
167 203 255
167 202 255
167 202 255
167 202 255
167 202 255
167 202 255
167 202 255
167 202 255
167 202 255
166 202 255
166 202 255
166 202 255
166 202 255
166 202 255
166 202 255
166 202 255
166 202 255
166 202 255
166 202 255
166 202 255
165 201 255
165 201 255
165 201 255
165 201 255
165 201 255
165 201 255
165 201 255
165 201 255
165 201 255
165 201 255
165 201 255
164 201 255
164 201 255
164 201 255
164 201 255
164 201 255
164 201 255
164 201 255
164 200 255
164 200 255
164 200 255
163 200 255
163 200 255
163 200 255
163 200 255
163 200 255
163 200 255
163 200 255
163 200 255
163 200 255
163 200 255
162 200 255
162 200 255
162 200 255
162 199 255
162 199 255
162 199 255
162 199 255
162 199 255
162 199 255
161 199 255
161 199 255
161 199 255
161 199 255
161 199 255
161 199 255
161 199 255
161 199 255
161 199 255
161 199 255
160 198 255
160 198 255
160 198 255
160 198 255
160 198 255
160 198 255
160 198 255
160 198 255
160 198 255
160 198 255
159 198 255
159 198 255
159 198 255
159 198 255
159 198 255
159 198 255
159 197 255
159 197 255
159 197 255
158 197 255
158 197 255
158 197 255
158 197 255
158 197 255
158 197 255
158 197 255
158 197 255
158 197 255
158 197 255
157 197 255
157 197 255
157 197 255
157 197 255
157 196 255
157 196 255
157 196 255
157 196 255
157 196 255
157 196 255
157 196 255
156 196 255
156 196 255
156 196 255
156 196 255
156 196 255
156 196 255
156 196 255
156 196 255
156 196 255
156 196 255
156 196 255
155 195 255
155 195 255
155 195 255
155 195 255
155 195 255
155 195 255
155 195 255
155 195 255
155 195 255
155 195 255
155 195 255
155 195 255
155 195 255
155 195 255
154 195 255
154 195 255
154 195 255
154 195 255
154 195 255
154 195 255
154 195 255
154 195 255
154 195 255
154 195 255
154 195 255
154 195 255
154 194 255
154 194 255
154 194 255
154 194 255
154 194 255
154 194 255
154 194 255
154 194 255
153 194 255
153 194 255
153 194 255
153 194 255
153 194 255
153 194 255
153 194 255
153 194 255
153 194 255
153 194 255
153 194 255
153 194 255
153 194 255
153 194 255
153 194 255
153 194 255
153 194 255
153 194 255
153 194 255
153 194 255
153 194 255
153 194 255
153 194 255
153 194 255
153 194 255
153 194 255
153 194 255
153 194 255
153 194 255
153 194 255
153 194 255
153 194 255
153 194 255
153 194 255
154 194 255
154 194 255
154 194 255
154 194 255
154 194 255
154 194 255
154 194 255
154 194 255
154 195 255
154 195 255
154 195 255
154 195 255
154 195 255
154 195 255
154 195 255
154 195 255
154 195 255
154 195 255
154 195 255
154 195 255
155 195 255
155 195 255
155 195 255
155 195 255
155 195 255
155 195 255
155 195 255
155 195 255
155 195 255
155 195 255
155 195 255
155 195 255
155 195 255
155 195 255
156 196 255
156 196 255
156 196 255
156 196 255
156 196 255
156 196 255
156 196 255
156 196 255
156 196 255
156 196 255
156 196 255
157 196 255
157 196 255
157 196 255
157 196 255
157 196 255
157 196 255
157 196 255
157 197 255
157 197 255
157 197 255
157 197 255
158 197 255
158 197 255
158 197 255
158 197 255
158 197 255
158 197 255
158 197 255
158 197 255
158 197 255
158 197 255
159 197 255
159 197 255
159 197 255
159 198 255
159 198 255
159 198 255
159 198 255
159 198 255
159 198 255
160 198 255
160 198 255
160 198 255
160 198 255
160 198 255
160 198 255
160 198 255
160 198 255
160 198 255
160 198 255
161 199 255
161 199 255
161 199 255
161 199 255
161 199 255
161 199 255
161 199 255
161 199 255
161 199 255
162 199 255
162 199 255
162 199 255
162 199 255
162 199 255
162 199 255
162 199 255
162 200 255
162 200 255
162 200 255
163 200 255
163 200 255
163 200 255
163 200 255
163 200 255
163 200 255
163 200 255
163 200 255
163 200 255
163 200 255
164 200 255
164 200 255
164 200 255
164 201 255
164 201 255
164 201 255
164 201 255
164 201 255
164 201 255
164 201 255
165 201 255
165 201 255
165 201 255
165 201 255
165 201 255
165 201 255
165 201 255
165 201 255
165 201 255
165 201 255
165 201 255
166 202 255
166 202 255
166 202 255
166 202 255
166 202 255
166 202 255
166 202 255
166 202 255
166 202 255
166 202 255
166 202 255
167 202 255
167 202 255
167 202 255
167 202 255
167 202 255
167 202 255
167 202 255
167 202 255
167 203 255
167 203 255
167 203 255
167 203 255
168 203 255
168 203 255
168 203 255
168 203 255
168 203 255
168 203 255
168 203 255
168 203 255
168 203 255
168 203 255
168 203 255
168 203 255
169 203 255
169 203 255
169 203 255
169 203 255
169 204 255
169 204 255
169 204 255
169 204 255
169 204 255
169 204 255
169 204 255
169 204 255
169 204 255
170 204 255
170 204 255
170 204 255
169 204 255
169 204 255
169 204 255
169 204 255
169 204 255
169 204 255
169 204 255
169 204 255
169 204 255
169 203 255
169 203 255
169 203 255
169 203 255
168 203 255
168 203 255
168 203 255
168 203 255
168 203 255
168 203 255
168 203 255
168 203 255
168 203 255
168 203 255
168 203 255
168 203 255
167 203 255
167 203 255
167 203 255
167 203 255
167 202 255
167 202 255
167 202 255
167 202 255
167 202 255
167 202 255
167 202 255
167 202 255
166 202 255
166 202 255
166 202 255
166 202 255
166 202 255
166 202 255
166 202 255
166 202 255
166 202 255
166 202 255
166 202 255
165 201 255
165 201 255
165 201 255
165 201 255
165 201 255
165 201 255
165 201 255
165 201 255
165 201 255
165 201 255
165 201 255
164 201 255
164 201 255
164 201 255
164 201 255
164 201 255
164 201 255
164 200 255
164 200 255
164 200 255
164 200 255
163 200 255
163 200 255
163 200 255
163 200 255
163 200 255
163 200 255
163 200 255
163 200 255
163 200 255
163 200 255
162 200 255
162 200 255
162 200 255
162 199 255
162 199 255
162 199 255
162 199 255
162 199 255
162 199 255
161 199 255
161 199 255
161 199 255
161 199 255
161 199 255
161 199 255
161 199 255
161 199 255
161 199 255
161 199 255
160 198 255
160 198 255
160 198 255
160 198 255
160 198 255
160 198 255
160 198 255
160 198 255
160 198 255
160 198 255
159 198 255
159 198 255
159 198 255
159 198 255
159 198 255
159 198 255
159 197 255
159 197 255
159 197 255
158 197 255
158 197 255
158 197 255
158 197 255
158 197 255
158 197 255
158 197 255
158 197 255
158 197 255
158 197 255
157 197 255
157 197 255
157 197 255
157 197 255
157 196 255
157 196 255
157 196 255
157 196 255
157 196 255
157 196 255
157 196 255
156 196 255
156 196 255
156 196 255
156 196 255
156 196 255
156 196 255
156 196 255
156 196 255
156 196 255
156 196 255
156 196 255
156 196 255
155 195 255
155 195 255
155 195 255
155 195 255
155 195 255
155 195 255
155 195 255
155 195 255
155 195 255
155 195 255
155 195 255
155 195 255
155 195 255
155 195 255
154 195 255
154 195 255
154 195 255
154 195 255
154 195 255
154 195 255
154 195 255
154 195 255
154 195 255
154 195 255
154 195 255
154 195 255
154 195 255
154 195 255
154 194 255
154 194 255
154 194 255
154 194 255
154 194 255
154 194 255
154 194 255
154 194 255
154 194 255
154 194 255
154 194 255
154 194 255
154 194 255
154 194 255
154 194 255
154 194 255
154 194 255
153 194 255
154 194 255
154 194 255
154 194 255
153 194 255
154 194 255
154 194 255
154 194 255
154 194 255
154 194 255
154 194 255
154 194 255
154 194 255
154 194 255
154 194 255
154 194 255
154 194 255
154 194 255
154 194 255
154 194 255
154 194 255
154 195 255
154 195 255
154 195 255
154 195 255
154 195 255
154 195 255
154 195 255
154 195 255
154 195 255
154 195 255
154 195 255
154 195 255
154 195 255
154 195 255
155 195 255
155 195 255
155 195 255
155 195 255
155 195 255
155 195 255
155 195 255
155 195 255
155 195 255
155 195 255
155 195 255
155 195 255
155 195 255
155 195 255
156 196 255
156 196 255
156 196 255
156 196 255
156 196 255
156 196 255
156 196 255
156 196 255
156 196 255
156 196 255
156 196 255
156 196 255
157 196 255
157 196 255
157 196 255
157 196 255
157 196 255
157 196 255
157 196 255
157 197 255
157 197 255
157 197 255
157 197 255
158 197 255
158 197 255
158 197 255
158 197 255
158 197 255
158 197 255
158 197 255
158 197 255
158 197 255
158 197 255
159 197 255
159 197 255
159 197 255
159 198 255
159 198 255
159 198 255
159 198 255
159 198 255
159 198 255
160 198 255
160 198 255
160 198 255
160 198 255
160 198 255
160 198 255
160 198 255
160 198 255
160 198 255
160 198 255
161 199 255
161 199 255
161 199 255
161 199 255
161 199 255
161 199 255
161 199 255
161 199 255
161 199 255
161 199 255
162 199 255
162 199 255
162 199 255
162 199 255
162 199 255
162 199 255
162 200 255
162 200 255
162 200 255
163 200 255
163 200 255
163 200 255
163 200 255
163 200 255
163 200 255
163 200 255
163 200 255
163 200 255
163 200 255
164 200 255
164 200 255
164 200 255
164 200 255
164 201 255
164 201 255
164 201 255
164 201 255
164 201 255
164 201 255
165 201 255
165 201 255
165 201 255
165 201 255
165 201 255
165 201 255
165 201 255
165 201 255
165 201 255
165 201 255
165 201 255
166 202 255
166 202 255
166 202 255
166 202 255
166 202 255
166 202 255
166 202 255
166 202 255
166 202 255
166 202 255
166 202 255
167 202 255
167 202 255
167 202 255
167 202 255
167 202 255
167 202 255
167 202 255
167 202 255
167 203 255
167 203 255
167 203 255
167 203 255
168 203 255
168 203 255
168 203 255
168 203 255
168 203 255
168 203 255
168 203 255
168 203 255
168 203 255
168 203 255
168 203 255
168 203 255
169 203 255
169 203 255
169 203 255
169 203 255
169 204 255
169 204 255
169 204 255
169 204 255
169 204 255
169 204 255
169 204 255
169 204 255
169 204 255
170 204 255
170 204 255
170 204 255
170 204 255
170 204 255
170 204 255
170 204 255
170 204 255
170 204 255
169 204 255
169 204 255
169 204 255
169 204 255
169 204 255
169 204 255
169 204 255
169 204 255
169 204 255
169 203 255
169 203 255
169 203 255
169 203 255
168 203 255
168 203 255
168 203 255
168 203 255
168 203 255
168 203 255
168 203 255
168 203 255
168 203 255
168 203 255
168 203 255
168 203 255
167 203 255
167 203 255
167 203 255
167 203 255
167 202 255
167 202 255
167 202 255
167 202 255
167 202 255
167 202 255
167 202 255
167 202 255
166 202 255
166 202 255
166 202 255
166 202 255
166 202 255
166 202 255
166 202 255
166 202 255
166 202 255
166 202 255
166 202 255
165 201 255
165 201 255
165 201 255
165 201 255
165 201 255
165 201 255
165 201 255
165 201 255
165 201 255
165 201 255
164 201 255
164 201 255
164 201 255
164 201 255
164 201 255
164 201 255
164 201 255
164 200 255
164 200 255
164 200 255
163 200 255
163 200 255
163 200 255
163 200 255
163 200 255
163 200 255
163 200 255
163 200 255
163 200 255
163 200 255
162 200 255
162 200 255
162 200 255
162 200 255
162 199 255
162 199 255
162 199 255
162 199 255
162 199 255
162 199 255
161 199 255
161 199 255
161 199 255
161 199 255
161 199 255
161 199 255
161 199 255
161 199 255
161 199 255
161 199 255
160 198 255
160 198 255
160 198 255
160 198 255
160 198 255
160 198 255
160 198 255
160 198 255
160 198 255
159 198 255
159 198 255
159 198 255
159 198 255
159 198 255
159 198 255
159 198 255
159 197 255
159 197 255
159 197 255
158 197 255
158 197 255
158 197 255
158 197 255
158 197 255
158 197 255
158 197 255
158 197 255
158 197 255
158 197 255
157 197 255
157 197 255
157 197 255
157 197 255
157 196 255
157 196 255
157 196 255
157 196 255
157 196 255
157 196 255
157 196 255
156 196 255
156 196 255
156 196 255
156 196 255
156 196 255
156 196 255
156 196 255
156 196 255
156 196 255
156 196 255
156 196 255
156 196 255
156 196 255
155 195 255
155 195 255
155 195 255
155 195 255
155 195 255
155 195 255
155 195 255
155 195 255
155 195 255
155 195 255
155 195 255
155 195 255
155 195 255
155 195 255
155 195 255
155 195 255
154 195 255
154 195 255
154 195 255
154 195 255
154 195 255
154 195 255
154 195 255
154 195 255
154 195 255
154 195 255
154 195 255
154 195 255
154 195 255
154 195 255
154 195 255
154 195 255
154 195 255
154 195 255
154 195 255
154 195 255
154 194 255
154 194 255
154 195 255
154 194 255
154 194 255
154 194 255
154 194 255
154 194 255
154 194 255
154 194 255
154 194 255
154 194 255
154 195 255
154 195 255
154 195 255
154 195 255
154 195 255
154 195 255
154 195 255
154 195 255
154 195 255
154 195 255
154 195 255
154 195 255
154 195 255
154 195 255
154 195 255
154 195 255
154 195 255
154 195 255
154 195 255
154 195 255
154 195 255
154 195 255
155 195 255
155 195 255
155 195 255
155 195 255
155 195 255
155 195 255
155 195 255
155 195 255
155 195 255
155 195 255
155 195 255
155 195 255
155 195 255
155 195 255
155 195 255
155 195 255
156 196 255
156 196 255
156 196 255
156 196 255
156 196 255
156 196 255
156 196 255
156 196 255
156 196 255
156 196 255
156 196 255
156 196 255
156 196 255
157 196 255
157 196 255
157 196 255
157 196 255
157 196 255
157 196 255
157 196 255
157 197 255
157 197 255
157 197 255
157 197 255
158 197 255
158 197 255
158 197 255
158 197 255
158 197 255
158 197 255
158 197 255
158 197 255
158 197 255
158 197 255
159 197 255
159 197 255
159 197 255
159 198 255
159 198 255
159 198 255
159 198 255
159 198 255
159 198 255
159 198 255
160 198 255
160 198 255
160 198 255
160 198 255
160 198 255
160 198 255
160 198 255
160 198 255
160 198 255
161 199 255
161 199 255
161 199 255
161 199 255
161 199 255
161 199 255
161 199 255
161 199 255
161 199 255
161 199 255
162 199 255
162 199 255
162 199 255
162 199 255
162 199 255
162 199 255
162 199 255
162 200 255
162 200 255
163 200 255
163 200 255
163 200 255
163 200 255
163 200 255
163 200 255
163 200 255
163 200 255
163 200 255
163 200 255
164 200 255
164 200 255
164 200 255
164 200 255
164 201 255
164 201 255
164 201 255
164 201 255
164 201 255
164 201 255
164 201 255
165 201 255
165 201 255
165 201 255
165 201 255
165 201 255
165 201 255
165 201 255
165 201 255
165 201 255
165 201 255
166 202 255
166 202 255
166 202 255
166 202 255
166 202 255
166 202 255
166 202 255
166 202 255
166 202 255
166 202 255
166 202 255
167 202 255
167 202 255
167 202 255
167 202 255
167 202 255
167 202 255
167 202 255
167 202 255
167 203 255
167 203 255
167 203 255
167 203 255
168 203 255
168 203 255
168 203 255
168 203 255
168 203 255
168 203 255
168 203 255
168 203 255
168 203 255
168 203 255
168 203 255
168 203 255
169 203 255
169 203 255
169 203 255
169 203 255
169 204 255
169 204 255
169 204 255
169 204 255
169 204 255
169 204 255
169 204 255
169 204 255
169 204 255
170 204 255
170 204 255
170 204 255
170 204 255
170 204 255
170 204 255
170 204 255
170 204 255
170 204 255
170 204 255
170 204 255
170 204 255
170 204 255
170 204 255
170 204 255
169 204 255
169 204 255
169 204 255
169 204 255
169 204 255
169 204 255
169 204 255
169 204 255
169 204 255
169 203 255
169 203 255
169 203 255
169 203 255
168 203 255
168 203 255
168 203 255
168 203 255
168 203 255
168 203 255
168 203 255
168 203 255
168 203 255
168 203 255
168 203 255
168 203 255
167 203 255
167 203 255
167 203 255
167 203 255
167 202 255
167 202 255
167 202 255
167 202 255
167 202 255
167 202 255
167 202 255
167 202 255
166 202 255
166 202 255
166 202 255
166 202 255
166 202 255
166 202 255
166 202 255
166 202 255
166 202 255
166 202 255
166 202 255
165 201 255
165 201 255
165 201 255
165 201 255
165 201 255
165 201 255
165 201 255
165 201 255
165 201 255
165 201 255
164 201 255
164 201 255
164 201 255
164 201 255
164 201 255
164 201 255
164 201 255
164 200 255
164 200 255
164 200 255
163 200 255
163 200 255
163 200 255
163 200 255
163 200 255
163 200 255
163 200 255
163 200 255
163 200 255
163 200 255
162 200 255
162 200 255
162 200 255
162 199 255
162 199 255
162 199 255
162 199 255
162 199 255
162 199 255
162 199 255
161 199 255
161 199 255
161 199 255
161 199 255
161 199 255
161 199 255
161 199 255
161 199 255
161 199 255
160 198 255
160 198 255
160 198 255
160 198 255
160 198 255
160 198 255
160 198 255
160 198 255
160 198 255
160 198 255
159 198 255
159 198 255
159 198 255
159 198 255
159 198 255
159 198 255
159 198 255
159 197 255
159 197 255
159 197 255
158 197 255
158 197 255
158 197 255
158 197 255
158 197 255
158 197 255
158 197 255
158 197 255
158 197 255
158 197 255
157 197 255
157 197 255
157 197 255
157 197 255
157 196 255
157 196 255
157 196 255
157 196 255
157 196 255
157 196 255
157 196 255
157 196 255
156 196 255
156 196 255
156 196 255
156 196 255
156 196 255
156 196 255
156 196 255
156 196 255
156 196 255
156 196 255
156 196 255
156 196 255
156 196 255
155 195 255
155 195 255
155 195 255
155 195 255
155 195 255
155 195 255
155 195 255
155 195 255
155 195 255
155 195 255
155 195 255
155 195 255
155 195 255
155 195 255
155 195 255
155 195 255
155 195 255
155 195 255
155 195 255
154 195 255
154 195 255
154 195 255
154 195 255
154 195 255
154 195 255
154 195 255
154 195 255
154 195 255
154 195 255
154 195 255
154 195 255
154 195 255
154 195 255
154 195 255
154 195 255
154 195 255
154 195 255
154 195 255
154 195 255
154 195 255
154 195 255
154 195 255
154 195 255
154 195 255
154 195 255
154 195 255
154 195 255
154 195 255
154 195 255
154 195 255
154 195 255
154 195 255
154 195 255
154 195 255
154 195 255
154 195 255
154 195 255
154 195 255
154 195 255
155 195 255
155 195 255
155 195 255
155 195 255
155 195 255
155 195 255
155 195 255
155 195 255
155 195 255
155 195 255
155 195 255
155 195 255
155 195 255
155 195 255
155 195 255
155 195 255
155 195 255
155 195 255
155 195 255
156 196 255
156 196 255
156 196 255
156 196 255
156 196 255
156 196 255
156 196 255
156 196 255
156 196 255
156 196 255
156 196 255
156 196 255
156 196 255
157 196 255
157 196 255
157 196 255
157 196 255
157 196 255
157 196 255
157 196 255
157 196 255
157 197 255
157 197 255
157 197 255
157 197 255
158 197 255
158 197 255
158 197 255
158 197 255
158 197 255
158 197 255
158 197 255
158 197 255
158 197 255
158 197 255
159 197 255
159 197 255
159 197 255
159 198 255
159 198 255
159 198 255
159 198 255
159 198 255
159 198 255
159 198 255
160 198 255
160 198 255
160 198 255
160 198 255
160 198 255
160 198 255
160 198 255
160 198 255
160 198 255
161 199 255
161 199 255
161 199 255
161 199 255
161 199 255
161 199 255
161 199 255
161 199 255
161 199 255
161 199 255
162 199 255
162 199 255
162 199 255
162 199 255
162 199 255
162 199 255
162 199 255
162 200 255
162 200 255
162 200 255
163 200 255
163 200 255
163 200 255
163 200 255
163 200 255
163 200 255
163 200 255
163 200 255
163 200 255
163 200 255
164 200 255
164 200 255
164 200 255
164 201 255
164 201 255
164 201 255
164 201 255
164 201 255
164 201 255
164 201 255
165 201 255
165 201 255
165 201 255
165 201 255
165 201 255
165 201 255
165 201 255
165 201 255
165 201 255
165 201 255
166 202 255
166 202 255
166 202 255
166 202 255
166 202 255
166 202 255
166 202 255
166 202 255
166 202 255
166 202 255
166 202 255
167 202 255
167 202 255
167 202 255
167 202 255
167 202 255
167 202 255
167 202 255
167 202 255
167 203 255
167 203 255
167 203 255
167 203 255
168 203 255
168 203 255
168 203 255
168 203 255
168 203 255
168 203 255
168 203 255
168 203 255
168 203 255
168 203 255
168 203 255
168 203 255
169 203 255
169 203 255
169 203 255
169 203 255
169 204 255
169 204 255
169 204 255
169 204 255
169 204 255
169 204 255
169 204 255
169 204 255
170 204 255
170 204 255
170 204 255
170 204 255
170 204 255
170 204 255
170 204 255
170 204 255
170 204 255
170 204 255
170 204 255
170 204 255
170 204 255
170 204 255
170 204 255
170 204 255
170 204 255
170 204 255
170 204 255
170 204 255
170 204 255
170 204 255
170 204 255
169 204 255
169 204 255
169 204 255
169 204 255
169 204 255
169 204 255
169 204 255
169 204 255
169 203 255
169 203 255
169 203 255
169 203 255
168 203 255
168 203 255
168 203 255
168 203 255
168 203 255
168 203 255
168 203 255
168 203 255
168 203 255
168 203 255
168 203 255
168 203 255
167 203 255
167 203 255
167 203 255
167 203 255
167 202 255
167 202 255
167 202 255
167 202 255
167 202 255
167 202 255
167 202 255
167 202 255
166 202 255
166 202 255
166 202 255
166 202 255
166 202 255
166 202 255
166 202 255
166 202 255
166 202 255
166 202 255
166 202 255
165 201 255
165 201 255
165 201 255
165 201 255
165 201 255
165 201 255
165 201 255
165 201 255
165 201 255
165 201 255
164 201 255
164 201 255
164 201 255
164 201 255
164 201 255
164 201 255
164 201 255
164 200 255
164 200 255
164 200 255
163 200 255
163 200 255
163 200 255
163 200 255
163 200 255
163 200 255
163 200 255
163 200 255
163 200 255
163 200 255
162 200 255
162 200 255
162 200 255
162 199 255
162 199 255
162 199 255
162 199 255
162 199 255
162 199 255
162 199 255
161 199 255
161 199 255
161 199 255
161 199 255
161 199 255
161 199 255
161 199 255
161 199 255
161 199 255
160 198 255
160 198 255
160 198 255
160 198 255
160 198 255
160 198 255
160 198 255
160 198 255
160 198 255
160 198 255
159 198 255
159 198 255
159 198 255
159 198 255
159 198 255
159 198 255
159 198 255
159 197 255
159 197 255
159 197 255
158 197 255
158 197 255
158 197 255
158 197 255
158 197 255
158 197 255
158 197 255
158 197 255
158 197 255
158 197 255
158 197 255
157 197 255
157 197 255
157 197 255
157 196 255
157 196 255
157 196 255
157 196 255
157 196 255
157 196 255
157 196 255
157 196 255
157 196 255
156 196 255
156 196 255
156 196 255
156 196 255
156 196 255
156 196 255
156 196 255
156 196 255
156 196 255
156 196 255
156 196 255
156 196 255
156 196 255
156 196 255
155 195 255
155 195 255
155 195 255
155 195 255
155 195 255
155 195 255
155 195 255
155 195 255
155 195 255
155 195 255
155 195 255
155 195 255
155 195 255
155 195 255
155 195 255
155 195 255
155 195 255
155 195 255
155 195 255
155 195 255
155 195 255
155 195 255
155 195 255
155 195 255
154 195 255
154 195 255
154 195 255
154 195 255
154 195 255
154 195 255
154 195 255
154 195 255
154 195 255
154 195 255
154 195 255
154 195 255
154 195 255
154 195 255
154 195 255
154 195 255
154 195 255
154 195 255
154 195 255
154 195 255
155 195 255
155 195 255
155 195 255
155 195 255
155 195 255
155 195 255
155 195 255
155 195 255
155 195 255
155 195 255
155 195 255
155 195 255
155 195 255
155 195 255
155 195 255
155 195 255
155 195 255
155 195 255
155 195 255
155 195 255
155 195 255
155 195 255
155 195 255
155 195 255
156 196 255
156 196 255
156 196 255
156 196 255
156 196 255
156 196 255
156 196 255
156 196 255
156 196 255
156 196 255
156 196 255
156 196 255
156 196 255
156 196 255
157 196 255
157 196 255
157 196 255
157 196 255
157 196 255
157 196 255
157 196 255
157 196 255
157 197 255
157 197 255
157 197 255
157 197 255
158 197 255
158 197 255
158 197 255
158 197 255
158 197 255
158 197 255
158 197 255
158 197 255
158 197 255
158 197 255
158 197 255
159 197 255
159 197 255
159 197 255
159 198 255
159 198 255
159 198 255
159 198 255
159 198 255
159 198 255
159 198 255
160 198 255
160 198 255
160 198 255
160 198 255
160 198 255
160 198 255
160 198 255
160 198 255
160 198 255
160 198 255
161 199 255
161 199 255
161 199 255
161 199 255
161 199 255
161 199 255
161 199 255
161 199 255
161 199 255
161 199 255
162 199 255
162 199 255
162 199 255
162 199 255
162 199 255
162 199 255
162 200 255
162 200 255
162 200 255
163 200 255
163 200 255
163 200 255
163 200 255
163 200 255
163 200 255
163 200 255
163 200 255
163 200 255
163 200 255
164 200 255
164 200 255
164 200 255
164 201 255
164 201 255
164 201 255
164 201 255
164 201 255
164 201 255
164 201 255
165 201 255
165 201 255
165 201 255
165 201 255
165 201 255
165 201 255
165 201 255
165 201 255
165 201 255
165 201 255
166 202 255
166 202 255
166 202 255
166 202 255
166 202 255
166 202 255
166 202 255
166 202 255
166 202 255
166 202 255
166 202 255
167 202 255
167 202 255
167 202 255
167 202 255
167 202 255
167 202 255
167 202 255
167 202 255
167 203 255
167 203 255
167 203 255
167 203 255
168 203 255
168 203 255
168 203 255
168 203 255
168 203 255
168 203 255
168 203 255
168 203 255
168 203 255
168 203 255
168 203 255
168 203 255
169 203 255
169 203 255
169 203 255
169 203 255
169 204 255
169 204 255
169 204 255
169 204 255
169 204 255
169 204 255
169 204 255
169 204 255
170 204 255
170 204 255
170 204 255
170 204 255
170 204 255
170 204 255
170 204 255
170 204 255
170 204 255
170 204 255
170 204 255
170 204 255
170 204 255
171 205 255
171 205 255
170 204 255
170 204 255
170 204 255
170 204 255
170 204 255
170 204 255
170 204 255
170 204 255
170 204 255
170 204 255
170 204 255
170 204 255
170 204 255
170 204 255
169 204 255
169 204 255
169 204 255
169 204 255
169 204 255
169 204 255
169 204 255
169 204 255
169 203 255
169 203 255
169 203 255
169 203 255
168 203 255
168 203 255
168 203 255
168 203 255
168 203 255
168 203 255
168 203 255
168 203 255
168 203 255
168 203 255
168 203 255
168 203 255
167 203 255
167 203 255
167 203 255
167 203 255
167 202 255
167 202 255
167 202 255
167 202 255
167 202 255
167 202 255
167 202 255
167 202 255
166 202 255
166 202 255
166 202 255
166 202 255
166 202 255
166 202 255
166 202 255
166 202 255
166 202 255
166 202 255
165 201 255
165 201 255
165 201 255
165 201 255
165 201 255
165 201 255
165 201 255
165 201 255
165 201 255
165 201 255
165 201 255
164 201 255
164 201 255
164 201 255
164 201 255
164 201 255
164 201 255
164 201 255
164 200 255
164 200 255
164 200 255
163 200 255
163 200 255
163 200 255
163 200 255
163 200 255
163 200 255
163 200 255
163 200 255
163 200 255
163 200 255
162 200 255
162 200 255
162 200 255
162 199 255
162 199 255
162 199 255
162 199 255
162 199 255
162 199 255
162 199 255
161 199 255
161 199 255
161 199 255
161 199 255
161 199 255
161 199 255
161 199 255
161 199 255
161 199 255
160 198 255
160 198 255
160 198 255
160 198 255
160 198 255
160 198 255
160 198 255
160 198 255
160 198 255
160 198 255
159 198 255
159 198 255
159 198 255
159 198 255
159 198 255
159 198 255
159 198 255
159 197 255
159 197 255
159 197 255
158 197 255
158 197 255
158 197 255
158 197 255
158 197 255
158 197 255
158 197 255
158 197 255
158 197 255
158 197 255
158 197 255
157 197 255
157 197 255
157 197 255
157 197 255
157 196 255
157 196 255
157 196 255
157 196 255
157 196 255
157 196 255
157 196 255
157 196 255
157 196 255
156 196 255
156 196 255
156 196 255
156 196 255
156 196 255
156 196 255
156 196 255
156 196 255
156 196 255
156 196 255
156 196 255
156 196 255
156 196 255
156 196 255
156 196 255
155 195 255
155 195 255
155 195 255
155 195 255
155 195 255
155 195 255
155 195 255
155 195 255
155 195 255
155 195 255
155 195 255
155 195 255
155 195 255
155 195 255
155 195 255
155 195 255
155 195 255
155 195 255
155 195 255
155 195 255
155 195 255
155 195 255
155 195 255
155 195 255
155 195 255
155 195 255
155 195 255
155 195 255
155 195 255
155 195 255
155 195 255
155 195 255
155 195 255
155 195 255
155 195 255
155 195 255
155 195 255
155 195 255
155 195 255
155 195 255
155 195 255
155 195 255
155 195 255
155 195 255
155 195 255
155 195 255
155 195 255
155 195 255
155 195 255
155 195 255
155 195 255
155 195 255
155 195 255
155 195 255
155 195 255
155 195 255
155 195 255
155 195 255
156 196 255
156 196 255
156 196 255
156 196 255
156 196 255
156 196 255
156 196 255
156 196 255
156 196 255
156 196 255
156 196 255
156 196 255
156 196 255
156 196 255
156 196 255
157 196 255
157 196 255
157 196 255
157 196 255
157 196 255
157 196 255
157 196 255
157 196 255
157 196 255
157 197 255
157 197 255
157 197 255
157 197 255
158 197 255
158 197 255
158 197 255
158 197 255
158 197 255
158 197 255
158 197 255
158 197 255
158 197 255
158 197 255
158 197 255
159 197 255
159 197 255
159 197 255
159 198 255
159 198 255
159 198 255
159 198 255
159 198 255
159 198 255
159 198 255
160 198 255
160 198 255
160 198 255
160 198 255
160 198 255
160 198 255
160 198 255
160 198 255
160 198 255
160 198 255
161 199 255
161 199 255
161 199 255
161 199 255
161 199 255
161 199 255
161 199 255
161 199 255
161 199 255
161 199 255
162 199 255
162 199 255
162 199 255
162 199 255
162 199 255
162 199 255
162 200 255
162 200 255
162 200 255
163 200 255
163 200 255
163 200 255
163 200 255
163 200 255
163 200 255
163 200 255
163 200 255
163 200 255
163 200 255
164 200 255
164 200 255
164 200 255
164 201 255
164 201 255
164 201 255
164 201 255
164 201 255
164 201 255
164 201 255
165 201 255
165 201 255
165 201 255
165 201 255
165 201 255
165 201 255
165 201 255
165 201 255
165 201 255
165 201 255
166 202 255
166 202 255
166 202 255
166 202 255
166 202 255
166 202 255
166 202 255
166 202 255
166 202 255
166 202 255
166 202 255
167 202 255
167 202 255
167 202 255
167 202 255
167 202 255
167 202 255
167 202 255
167 202 255
167 203 255
167 203 255
167 203 255
167 203 255
168 203 255
168 203 255
168 203 255
168 203 255
168 203 255
168 203 255
168 203 255
168 203 255
168 203 255
168 203 255
168 203 255
168 203 255
169 203 255
169 203 255
169 203 255
169 203 255
169 204 255
169 204 255
169 204 255
169 204 255
169 204 255
169 204 255
169 204 255
169 204 255
170 204 255
170 204 255
170 204 255
170 204 255
170 204 255
170 204 255
170 204 255
170 204 255
170 204 255
170 204 255
170 204 255
170 204 255
170 204 255
170 204 255
171 205 255
171 205 255
171 205 255
171 205 255
171 205 255
171 205 255
171 205 255
171 205 255
170 204 255
170 204 255
170 204 255
170 204 255
170 204 255
170 204 255
170 204 255
170 204 255
170 204 255
170 204 255
170 204 255
170 204 255
170 204 255
169 204 255
169 204 255
169 204 255
169 204 255
169 204 255
169 204 255
169 204 255
169 204 255
169 204 255
169 203 255
169 203 255
169 203 255
169 203 255
168 203 255
168 203 255
168 203 255
168 203 255
168 203 255
168 203 255
168 203 255
168 203 255
168 203 255
168 203 255
168 203 255
168 203 255
167 203 255
167 203 255
167 203 255
167 202 255
167 202 255
167 202 255
167 202 255
167 202 255
167 202 255
167 202 255
167 202 255
166 202 255
166 202 255
166 202 255
166 202 255
166 202 255
166 202 255
166 202 255
166 202 255
166 202 255
166 202 255
165 201 255
165 201 255
165 201 255
165 201 255
165 201 255
165 201 255
165 201 255
165 201 255
165 201 255
165 201 255
165 201 255
164 201 255
164 201 255
164 201 255
164 201 255
164 201 255
164 201 255
164 200 255
164 200 255
164 200 255
164 200 255
163 200 255
163 200 255
163 200 255
163 200 255
163 200 255
163 200 255
163 200 255
163 200 255
163 200 255
163 200 255
162 200 255
162 200 255
162 200 255
162 199 255
162 199 255
162 199 255
162 199 255
162 199 255
162 199 255
161 199 255
161 199 255
161 199 255
161 199 255
161 199 255
161 199 255
161 199 255
161 199 255
161 199 255
161 199 255
160 198 255
160 198 255
160 198 255
160 198 255
160 198 255
160 198 255
160 198 255
160 198 255
160 198 255
160 198 255
159 198 255
159 198 255
159 198 255
159 198 255
159 198 255
159 198 255
159 198 255
159 197 255
159 197 255
159 197 255
159 197 255
158 197 255
158 197 255
158 197 255
158 197 255
158 197 255
158 197 255
158 197 255
158 197 255
158 197 255
158 197 255
158 197 255
157 197 255
157 197 255
157 197 255
157 197 255
157 196 255
157 196 255
157 196 255
157 196 255
157 196 255
157 196 255
157 196 255
157 196 255
157 196 255
156 196 255
156 196 255
156 196 255
156 196 255
156 196 255
156 196 255
156 196 255
156 196 255
156 196 255
156 196 255
156 196 255
156 196 255
156 196 255
156 196 255
156 196 255
156 196 255
156 196 255
156 196 255
155 195 255
155 195 255
155 195 255
155 195 255
155 195 255
155 195 255
155 195 255
155 195 255
155 195 255
155 195 255
155 195 255
155 195 255
155 195 255
155 195 255
155 195 255
155 195 255
155 195 255
155 195 255
155 195 255
155 195 255
155 195 255
155 195 255
155 195 255
155 195 255
155 195 255
155 195 255
155 195 255
155 195 255
155 195 255
155 195 255
155 195 255
155 195 255
155 195 255
155 195 255
155 195 255
155 195 255
155 195 255
155 195 255
155 195 255
155 195 255
155 195 255
155 195 255
155 195 255
155 195 255
156 196 255
156 196 255
156 196 255
156 196 255
156 196 255
156 196 255
156 196 255
156 196 255
156 196 255
156 196 255
156 196 255
156 196 255
156 196 255
156 196 255
156 196 255
156 196 255
156 196 255
156 196 255
157 196 255
157 196 255
157 196 255
157 196 255
157 196 255
157 196 255
157 196 255
157 196 255
157 196 255
157 197 255
157 197 255
157 197 255
157 197 255
158 197 255
158 197 255
158 197 255
158 197 255
158 197 255
158 197 255
158 197 255
158 197 255
158 197 255
158 197 255
158 197 255
159 197 255
159 197 255
159 197 255
159 197 255
159 198 255
159 198 255
159 198 255
159 198 255
159 198 255
159 198 255
159 198 255
160 198 255
160 198 255
160 198 255
160 198 255
160 198 255
160 198 255
160 198 255
160 198 255
160 198 255
160 198 255
161 199 255
161 199 255
161 199 255
161 199 255
161 199 255
161 199 255
161 199 255
161 199 255
161 199 255
161 199 255
162 199 255
162 199 255
162 199 255
162 199 255
162 199 255
162 199 255
162 200 255
162 200 255
162 200 255
163 200 255
163 200 255
163 200 255
163 200 255
163 200 255
163 200 255
163 200 255
163 200 255
163 200 255
163 200 255
164 200 255
164 200 255
164 200 255
164 201 255
164 201 255
164 201 255
164 201 255
164 201 255
164 201 255
164 201 255
165 201 255
165 201 255
165 201 255
165 201 255
165 201 255
165 201 255
165 201 255
165 201 255
165 201 255
165 201 255
165 201 255
166 202 255
166 202 255
166 202 255
166 202 255
166 202 255
166 202 255
166 202 255
166 202 255
166 202 255
166 202 255
167 202 255
167 202 255
167 202 255
167 202 255
167 202 255
167 202 255
167 202 255
167 202 255
167 203 255
167 203 255
167 203 255
167 203 255
168 203 255
168 203 255
168 203 255
168 203 255
168 203 255
168 203 255
168 203 255
168 203 255
168 203 255
168 203 255
168 203 255
169 203 255
169 203 255
169 203 255
169 203 255
169 203 255
169 204 255
169 204 255
169 204 255
169 204 255
169 204 255
169 204 255
169 204 255
169 204 255
170 204 255
170 204 255
170 204 255
170 204 255
170 204 255
170 204 255
170 204 255
170 204 255
170 204 255
170 204 255
170 204 255
170 204 255
170 204 255
171 205 255
171 205 255
171 205 255
171 205 255
171 205 255
171 205 255
171 205 255
171 205 255
171 205 255
171 205 255
171 205 255
171 205 255
171 205 255
171 205 255
171 205 255
170 204 255
170 204 255
170 204 255
170 204 255
170 204 255
170 204 255
170 204 255
170 204 255
170 204 255
170 204 255
170 204 255
170 204 255
170 204 255
169 204 255
169 204 255
169 204 255
169 204 255
169 204 255
169 204 255
169 204 255
169 204 255
169 203 255
169 203 255
169 203 255
169 203 255
169 203 255
168 203 255
168 203 255
168 203 255
168 203 255
168 203 255
168 203 255
168 203 255
168 203 255
168 203 255
168 203 255
168 203 255
167 203 255
167 203 255
167 203 255
167 203 255
167 202 255
167 202 255
167 202 255
167 202 255
167 202 255
167 202 255
167 202 255
167 202 255
166 202 255
166 202 255
166 202 255
166 202 255
166 202 255
166 202 255
166 202 255
166 202 255
166 202 255
166 202 255
165 201 255
165 201 255
165 201 255
165 201 255
165 201 255
165 201 255
165 201 255
165 201 255
165 201 255
165 201 255
165 201 255
164 201 255
164 201 255
164 201 255
164 201 255
164 201 255
164 201 255
164 201 255
164 200 255
164 200 255
164 200 255
163 200 255
163 200 255
163 200 255
163 200 255
163 200 255
163 200 255
163 200 255
163 200 255
163 200 255
163 200 255
162 200 255
162 200 255
162 200 255
162 199 255
162 199 255
162 199 255
162 199 255
162 199 255
162 199 255
161 199 255
161 199 255
161 199 255
161 199 255
161 199 255
161 199 255
161 199 255
161 199 255
161 199 255
161 199 255
160 198 255
160 198 255
160 198 255
160 198 255
160 198 255
160 198 255
160 198 255
160 198 255
160 198 255
160 198 255
159 198 255
159 198 255
159 198 255
159 198 255
159 198 255
159 198 255
159 198 255
159 197 255
159 197 255
159 197 255
159 197 255
158 197 255
158 197 255
158 197 255
158 197 255
158 197 255
158 197 255
158 197 255
158 197 255
158 197 255
158 197 255
158 197 255
158 197 255
157 197 255
157 197 255
157 197 255
157 197 255
157 196 255
157 196 255
157 196 255
157 196 255
157 196 255
157 196 255
157 196 255
157 196 255
157 196 255
157 196 255
156 196 255
156 196 255
156 196 255
156 196 255
156 196 255
156 196 255
156 196 255
156 196 255
156 196 255
156 196 255
156 196 255
156 196 255
156 196 255
156 196 255
156 196 255
156 196 255
156 196 255
156 196 255
156 196 255
156 196 255
156 196 255
156 196 255
156 196 255
155 195 255
155 195 255
155 195 255
155 195 255
155 195 255
155 195 255
155 195 255
155 195 255
155 195 255
155 195 255
155 195 255
155 195 255
155 195 255
155 195 255
155 195 255
155 195 255
155 195 255
155 195 255
155 195 255
155 195 255
155 195 255
155 195 255
155 195 255
155 195 255
156 196 255
156 196 255
156 196 255
156 196 255
156 196 255
156 196 255
156 196 255
156 196 255
156 196 255
156 196 255
156 196 255
156 196 255
156 196 255
156 196 255
156 196 255
156 196 255
156 196 255
156 196 255
156 196 255
156 196 255
156 196 255
156 196 255
156 196 255
157 196 255
157 196 255
157 196 255
157 196 255
157 196 255
157 196 255
157 196 255
157 196 255
157 196 255
157 196 255
157 197 255
157 197 255
157 197 255
157 197 255
158 197 255
158 197 255
158 197 255
158 197 255
158 197 255
158 197 255
158 197 255
158 197 255
158 197 255
158 197 255
158 197 255
158 197 255
159 197 255
159 197 255
159 197 255
159 197 255
159 198 255
159 198 255
159 198 255
159 198 255
159 198 255
159 198 255
159 198 255
160 198 255
160 198 255
160 198 255
160 198 255
160 198 255
160 198 255
160 198 255
160 198 255
160 198 255
160 198 255
161 199 255
161 199 255
161 199 255
161 199 255
161 199 255
161 199 255
161 199 255
161 199 255
161 199 255
161 199 255
162 199 255
162 199 255
162 199 255
162 199 255
162 199 255
162 199 255
162 200 255
162 200 255
162 200 255
163 200 255
163 200 255
163 200 255
163 200 255
163 200 255
163 200 255
163 200 255
163 200 255
163 200 255
163 200 255
164 200 255
164 200 255
164 200 255
164 200 255
164 201 255
164 201 255
164 201 255
164 201 255
164 201 255
164 201 255
165 201 255
165 201 255
165 201 255
165 201 255
165 201 255
165 201 255
165 201 255
165 201 255
165 201 255
165 201 255
165 201 255
166 202 255
166 202 255
166 202 255
166 202 255
166 202 255
166 202 255
166 202 255
166 202 255
166 202 255
166 202 255
167 202 255
167 202 255
167 202 255
167 202 255
167 202 255
167 202 255
167 202 255
167 202 255
167 203 255
167 203 255
167 203 255
167 203 255
168 203 255
168 203 255
168 203 255
168 203 255
168 203 255
168 203 255
168 203 255
168 203 255
168 203 255
168 203 255
168 203 255
169 203 255
169 203 255
169 203 255
169 203 255
169 204 255
169 204 255
169 204 255
169 204 255
169 204 255
169 204 255
169 204 255
169 204 255
169 204 255
170 204 255
170 204 255
170 204 255
170 204 255
170 204 255
170 204 255
170 204 255
170 204 255
170 204 255
170 204 255
170 204 255
170 204 255
170 204 255
171 205 255
171 205 255
171 205 255
171 205 255
171 205 255
171 205 255
171 205 255
171 205 255
171 205 255
171 205 255
171 205 255
171 205 255
171 205 255
171 205 255
171 205 255
171 205 255
171 205 255
171 205 255
171 205 255
171 205 255
171 205 255
170 204 255
170 204 255
170 204 255
170 204 255
170 204 255
170 204 255
170 204 255
170 204 255
170 204 255
170 204 255
170 204 255
170 204 255
170 204 255
169 204 255
169 204 255
169 204 255
169 204 255
169 204 255
169 204 255
169 204 255
169 204 255
169 204 255
169 203 255
169 203 255
169 203 255
169 203 255
168 203 255
168 203 255
168 203 255
168 203 255
168 203 255
168 203 255
168 203 255
168 203 255
168 203 255
168 203 255
168 203 255
168 203 255
167 203 255
167 203 255
167 203 255
167 202 255
167 202 255
167 202 255
167 202 255
167 202 255
167 202 255
167 202 255
167 202 255
166 202 255
166 202 255
166 202 255
166 202 255
166 202 255
166 202 255
166 202 255
166 202 255
166 202 255
166 202 255
165 201 255
165 201 255
165 201 255
165 201 255
165 201 255
165 201 255
165 201 255
165 201 255
165 201 255
165 201 255
164 201 255
164 201 255
164 201 255
164 201 255
164 201 255
164 201 255
164 201 255
164 200 255
164 200 255
164 200 255
163 200 255
163 200 255
163 200 255
163 200 255
163 200 255
163 200 255
163 200 255
163 200 255
163 200 255
163 200 255
163 200 255
162 200 255
162 200 255
162 200 255
162 199 255
162 199 255
162 199 255
162 199 255
162 199 255
162 199 255
161 199 255
161 199 255
161 199 255
161 199 255
161 199 255
161 199 255
161 199 255
161 199 255
161 199 255
161 199 255
160 198 255
160 198 255
160 198 255
160 198 255
160 198 255
160 198 255
160 198 255
160 198 255
160 198 255
160 198 255
160 198 255
159 198 255
159 198 255
159 198 255
159 198 255
159 198 255
159 198 255
159 198 255
159 197 255
159 197 255
159 197 255
158 197 255
158 197 255
158 197 255
158 197 255
158 197 255
158 197 255
158 197 255
158 197 255
158 197 255
158 197 255
158 197 255
158 197 255
158 197 255
157 197 255
157 197 255
157 197 255
157 197 255
157 197 255
157 196 255
157 196 255
157 196 255
157 196 255
157 196 255
157 196 255
157 196 255
157 196 255
157 196 255
157 196 255
156 196 255
156 196 255
156 196 255
156 196 255
156 196 255
156 196 255
156 196 255
156 196 255
156 196 255
156 196 255
156 196 255
156 196 255
156 196 255
156 196 255
156 196 255
156 196 255
156 196 255
156 196 255
156 196 255
156 196 255
156 196 255
156 196 255
156 196 255
156 196 255
156 196 255
156 196 255
156 196 255
156 196 255
156 196 255
156 196 255
156 196 255
156 196 255
156 196 255
156 196 255
156 196 255
156 196 255
156 196 255
156 196 255
156 196 255
156 196 255
156 196 255
156 196 255
156 196 255
156 196 255
156 196 255
156 196 255
156 196 255
156 196 255
156 196 255
156 196 255
156 196 255
156 196 255
156 196 255
156 196 255
156 196 255
156 196 255
156 196 255
156 196 255
156 196 255
156 196 255
157 196 255
157 196 255
157 196 255
157 196 255
157 196 255
157 196 255
157 196 255
157 196 255
157 196 255
157 196 255
157 196 255
157 197 255
157 197 255
157 197 255
157 197 255
158 197 255
158 197 255
158 197 255
158 197 255
158 197 255
158 197 255
158 197 255
158 197 255
158 197 255
158 197 255
158 197 255
158 197 255
159 197 255
159 197 255
159 197 255
159 197 255
159 198 255
159 198 255
159 198 255
159 198 255
159 198 255
159 198 255
159 198 255
160 198 255
160 198 255
160 198 255
160 198 255
160 198 255
160 198 255
160 198 255
160 198 255
160 198 255
160 198 255
160 198 255
161 199 255
161 199 255
161 199 255
161 199 255
161 199 255
161 199 255
161 199 255
161 199 255
161 199 255
161 199 255
162 199 255
162 199 255
162 199 255
162 199 255
162 199 255
162 199 255
162 200 255
162 200 255
162 200 255
162 200 255
163 200 255
163 200 255
163 200 255
163 200 255
163 200 255
163 200 255
163 200 255
163 200 255
163 200 255
163 200 255
164 200 255
164 200 255
164 200 255
164 201 255
164 201 255
164 201 255
164 201 255
164 201 255
164 201 255
165 201 255
165 201 255
165 201 255
165 201 255
165 201 255
165 201 255
165 201 255
165 201 255
165 201 255
165 201 255
165 201 255
166 202 255
166 202 255
166 202 255
166 202 255
166 202 255
166 202 255
166 202 255
166 202 255
166 202 255
166 202 255
166 202 255
167 202 255
167 202 255
167 202 255
167 202 255
167 202 255
167 202 255
167 202 255
167 203 255
167 203 255
167 203 255
168 203 255
168 203 255
168 203 255
168 203 255
168 203 255
168 203 255
168 203 255
168 203 255
168 203 255
168 203 255
168 203 255
168 203 255
169 203 255
169 203 255
169 203 255
169 203 255
169 204 255
169 204 255
169 204 255
169 204 255
169 204 255
169 204 255
169 204 255
169 204 255
170 204 255
170 204 255
170 204 255
170 204 255
170 204 255
170 204 255
170 204 255
170 204 255
170 204 255
170 204 255
170 204 255
170 204 255
170 204 255
170 204 255
171 205 255
171 205 255
171 205 255
171 205 255
171 205 255
171 205 255
171 205 255
171 205 255
171 205 255
171 205 255
171 205 255
171 205 255
172 205 255
172 205 255
171 205 255
171 205 255
171 205 255
171 205 255
171 205 255
171 205 255
171 205 255
171 205 255
171 205 255
171 205 255
171 205 255
171 205 255
171 205 255
171 205 255
170 204 255
170 204 255
170 204 255
170 204 255
170 204 255
170 204 255
170 204 255
170 204 255
170 204 255
170 204 255
170 204 255
170 204 255
170 204 255
169 204 255
169 204 255
169 204 255
169 204 255
169 204 255
169 204 255
169 204 255
169 204 255
169 203 255
169 203 255
169 203 255
169 203 255
168 203 255
168 203 255
168 203 255
168 203 255
168 203 255
168 203 255
168 203 255
168 203 255
168 203 255
168 203 255
168 203 255
167 203 255
167 203 255
167 203 255
167 203 255
167 202 255
167 202 255
167 202 255
167 202 255
167 202 255
167 202 255
167 202 255
167 202 255
166 202 255
166 202 255
166 202 255
166 202 255
166 202 255
166 202 255
166 202 255
166 202 255
166 202 255
166 202 255
165 201 255
165 201 255
165 201 255
165 201 255
165 201 255
165 201 255
165 201 255
165 201 255
165 201 255
165 201 255
165 201 255
164 201 255
164 201 255
164 201 255
164 201 255
164 201 255
164 201 255
164 200 255
164 200 255
164 200 255
164 200 255
163 200 255
163 200 255
163 200 255
163 200 255
163 200 255
163 200 255
163 200 255
163 200 255
163 200 255
163 200 255
162 200 255
162 200 255
162 200 255
162 199 255
162 199 255
162 199 255
162 199 255
162 199 255
162 199 255
161 199 255
161 199 255
161 199 255
161 199 255
161 199 255
161 199 255
161 199 255
161 199 255
161 199 255
161 199 255
161 199 255
160 198 255
160 198 255
160 198 255
160 198 255
160 198 255
160 198 255
160 198 255
160 198 255
160 198 255
160 198 255
159 198 255
159 198 255
159 198 255
159 198 255
159 198 255
159 198 255
159 198 255
159 197 255
159 197 255
159 197 255
159 197 255
158 197 255
158 197 255
158 197 255
158 197 255
158 197 255
158 197 255
158 197 255
158 197 255
158 197 255
158 197 255
158 197 255
158 197 255
158 197 255
157 197 255
157 197 255
157 197 255
157 197 255
157 197 255
157 196 255
157 196 255
157 196 255
157 196 255
157 196 255
157 196 255
157 196 255
157 196 255
157 196 255
157 196 255
157 196 255
157 196 255
157 196 255
156 196 255
156 196 255
156 196 255
156 196 255
156 196 255
156 196 255
156 196 255
156 196 255
156 196 255
156 196 255
156 196 255
156 196 255
156 196 255
156 196 255
156 196 255
156 196 255
156 196 255
156 196 255
156 196 255
156 196 255
156 196 255
156 196 255
156 196 255
156 196 255
156 196 255
156 196 255
156 196 255
156 196 255
156 196 255
156 196 255
156 196 255
156 196 255
156 196 255
156 196 255
156 196 255
156 196 255
156 196 255
156 196 255
156 196 255
156 196 255
156 196 255
156 196 255
156 196 255
156 196 255
156 196 255
156 196 255
157 196 255
157 196 255
157 196 255
157 196 255
157 196 255
157 196 255
157 196 255
157 196 255
157 196 255
157 196 255
157 196 255
157 196 255
157 197 255
157 197 255
157 197 255
157 197 255
157 197 255
157 197 255
158 197 255
158 197 255
158 197 255
158 197 255
158 197 255
158 197 255
158 197 255
158 197 255
158 197 255
158 197 255
158 197 255
158 197 255
158 197 255
159 197 255
159 197 255
159 197 255
159 197 255
159 198 255
159 198 255
159 198 255
159 198 255
159 198 255
159 198 255
159 198 255
160 198 255
160 198 255
160 198 255
160 198 255
160 198 255
160 198 255
160 198 255
160 198 255
160 198 255
160 198 255
161 199 255
161 199 255
161 199 255
161 199 255
161 199 255
161 199 255
161 199 255
161 199 255
161 199 255
161 199 255
161 199 255
162 199 255
162 199 255
162 199 255
162 199 255
162 199 255
162 199 255
162 200 255
162 200 255
162 200 255
163 200 255
163 200 255
163 200 255
163 200 255
163 200 255
163 200 255
163 200 255
163 200 255
163 200 255
163 200 255
164 200 255
164 200 255
164 200 255
164 200 255
164 201 255
164 201 255
164 201 255
164 201 255
164 201 255
164 201 255
165 201 255
165 201 255
165 201 255
165 201 255
165 201 255
165 201 255
165 201 255
165 201 255
165 201 255
165 201 255
165 201 255
166 202 255
166 202 255
166 202 255
166 202 255
166 202 255
166 202 255
166 202 255
166 202 255
166 202 255
166 202 255
167 202 255
167 202 255
167 202 255
167 202 255
167 202 255
167 202 255
167 202 255
167 202 255
167 203 255
167 203 255
167 203 255
168 203 255
168 203 255
168 203 255
168 203 255
168 203 255
168 203 255
168 203 255
168 203 255
168 203 255
168 203 255
168 203 255
168 203 255
169 203 255
169 203 255
169 203 255
169 203 255
169 204 255
169 204 255
169 204 255
169 204 255
169 204 255
169 204 255
169 204 255
169 204 255
170 204 255
170 204 255
170 204 255
170 204 255
170 204 255
170 204 255
170 204 255
170 204 255
170 204 255
170 204 255
170 204 255
170 204 255
170 204 255
171 205 255
171 205 255
171 205 255
171 205 255
171 205 255
171 205 255
171 205 255
171 205 255
171 205 255
171 205 255
171 205 255
171 205 255
171 205 255
171 205 255
172 205 255
172 205 255
172 205 255
172 205 255
172 205 255
172 205 255
172 205 255
171 205 255
171 205 255
171 205 255
171 205 255
171 205 255
171 205 255
171 205 255
171 205 255
171 205 255
171 205 255
171 205 255
171 205 255
171 205 255
171 205 255
170 204 255
170 204 255
170 204 255
170 204 255
170 204 255
170 204 255
170 204 255
170 204 255
170 204 255
170 204 255
170 204 255
170 204 255
170 204 255
169 204 255
169 204 255
169 204 255
169 204 255
169 204 255
169 204 255
169 204 255
169 204 255
169 203 255
169 203 255
169 203 255
169 203 255
168 203 255
168 203 255
168 203 255
168 203 255
168 203 255
168 203 255
168 203 255
168 203 255
168 203 255
168 203 255
168 203 255
168 203 255
167 203 255
167 203 255
167 203 255
167 202 255
167 202 255
167 202 255
167 202 255
167 202 255
167 202 255
167 202 255
167 202 255
166 202 255
166 202 255
166 202 255
166 202 255
166 202 255
166 202 255
166 202 255
166 202 255
166 202 255
166 202 255
165 201 255
165 201 255
165 201 255
165 201 255
165 201 255
165 201 255
165 201 255
165 201 255
165 201 255
165 201 255
164 201 255
164 201 255
164 201 255
164 201 255
164 201 255
164 201 255
164 201 255
164 200 255
164 200 255
164 200 255
163 200 255
163 200 255
163 200 255
163 200 255
163 200 255
163 200 255
163 200 255
163 200 255
163 200 255
163 200 255
162 200 255
162 200 255
162 200 255
162 200 255
162 199 255
162 199 255
162 199 255
162 199 255
162 199 255
162 199 255
162 199 255
161 199 255
161 199 255
161 199 255
161 199 255
161 199 255
161 199 255
161 199 255
161 199 255
161 199 255
161 199 255
160 198 255
160 198 255
160 198 255
160 198 255
160 198 255
160 198 255
160 198 255
160 198 255
160 198 255
160 198 255
160 198 255
159 198 255
159 198 255
159 198 255
159 198 255
159 198 255
159 198 255
159 198 255
159 197 255
159 197 255
159 197 255
159 197 255
159 197 255
158 197 255
158 197 255
158 197 255
158 197 255
158 197 255
158 197 255
158 197 255
158 197 255
158 197 255
158 197 255
158 197 255
158 197 255
158 197 255
157 197 255
157 197 255
157 197 255
157 197 255
157 197 255
157 197 255
157 196 255
157 196 255
157 196 255
157 196 255
157 196 255
157 196 255
157 196 255
157 196 255
157 196 255
157 196 255
157 196 255
157 196 255
157 196 255
157 196 255
157 196 255
157 196 255
157 196 255
156 196 255
156 196 255
156 196 255
156 196 255
156 196 255
156 196 255
156 196 255
156 196 255
156 196 255
156 196 255
156 196 255
156 196 255
156 196 255
156 196 255
156 196 255
156 196 255
156 196 255
156 196 255
156 196 255
156 196 255
156 196 255
156 196 255
156 196 255
156 196 255
156 196 255
156 196 255
157 196 255
157 196 255
157 196 255
157 196 255
157 196 255
157 196 255
157 196 255
157 196 255
157 196 255
157 196 255
157 196 255
157 196 255
157 196 255
157 196 255
157 196 255
157 196 255
157 196 255
157 197 255
157 197 255
157 197 255
157 197 255
157 197 255
158 197 255
158 197 255
158 197 255
158 197 255
158 197 255
158 197 255
158 197 255
158 197 255
158 197 255
158 197 255
158 197 255
158 197 255
158 197 255
158 197 255
158 197 255
159 197 255
159 197 255
159 197 255
159 197 255
159 198 255
159 198 255
159 198 255
159 198 255
159 198 255
159 198 255
159 198 255
160 198 255
160 198 255
160 198 255
160 198 255
160 198 255
160 198 255
160 198 255
160 198 255
160 198 255
160 198 255
160 198 255
161 199 255
161 199 255
161 199 255
161 199 255
161 199 255
161 199 255
161 199 255
161 199 255
161 199 255
161 199 255
161 199 255
162 199 255
162 199 255
162 199 255
162 199 255
162 199 255
162 199 255
162 200 255
162 200 255
162 200 255
163 200 255
163 200 255
163 200 255
163 200 255
163 200 255
163 200 255
163 200 255
163 200 255
163 200 255
163 200 255
164 200 255
164 200 255
164 200 255
164 200 255
164 201 255
164 201 255
164 201 255
164 201 255
164 201 255
164 201 255
165 201 255
165 201 255
165 201 255
165 201 255
165 201 255
165 201 255
165 201 255
165 201 255
165 201 255
165 201 255
165 201 255
166 202 255
166 202 255
166 202 255
166 202 255
166 202 255
166 202 255
166 202 255
166 202 255
166 202 255
166 202 255
167 202 255
167 202 255
167 202 255
167 202 255
167 202 255
167 202 255
167 202 255
167 203 255
167 203 255
167 203 255
167 203 255
168 203 255
168 203 255
168 203 255
168 203 255
168 203 255
168 203 255
168 203 255
168 203 255
168 203 255
168 203 255
168 203 255
168 203 255
169 203 255
169 203 255
169 203 255
169 203 255
169 204 255
169 204 255
169 204 255
169 204 255
169 204 255
169 204 255
169 204 255
169 204 255
170 204 255
170 204 255
170 204 255
170 204 255
170 204 255
170 204 255
170 204 255
170 204 255
170 204 255
170 204 255
170 204 255
170 204 255
170 204 255
171 205 255
171 205 255
171 205 255
171 205 255
171 205 255
171 205 255
171 205 255
171 205 255
171 205 255
171 205 255
171 205 255
171 205 255
171 205 255
171 205 255
172 205 255
172 205 255
172 205 255
172 205 255
172 205 255
172 205 255
172 205 255
172 205 255
172 205 255
172 205 255
172 205 255
172 205 255
172 205 255
172 205 255
171 205 255
171 205 255
171 205 255
171 205 255
171 205 255
171 205 255
171 205 255
171 205 255
171 205 255
171 205 255
171 205 255
171 205 255
171 205 255
171 204 255
170 204 255
170 204 255
170 204 255
170 204 255
170 204 255
170 204 255
170 204 255
170 204 255
170 204 255
170 204 255
170 204 255
170 204 255
169 204 255
169 204 255
169 204 255
169 204 255
169 204 255
169 204 255
169 204 255
169 204 255
169 203 255
169 203 255
169 203 255
169 203 255
168 203 255
168 203 255
168 203 255
168 203 255
168 203 255
168 203 255
168 203 255
168 203 255
168 203 255
168 203 255
168 203 255
168 203 255
167 203 255
167 203 255
167 203 255
167 203 255
167 202 255
167 202 255
167 202 255
167 202 255
167 202 255
167 202 255
167 202 255
166 202 255
166 202 255
166 202 255
166 202 255
166 202 255
166 202 255
166 202 255
166 202 255
166 202 255
166 202 255
165 201 255
165 201 255
165 201 255
165 201 255
165 201 255
165 201 255
165 201 255
165 201 255
165 201 255
165 201 255
165 201 255
164 201 255
164 201 255
164 201 255
164 201 255
164 201 255
164 201 255
164 200 255
164 200 255
164 200 255
164 200 255
163 200 255
163 200 255
163 200 255
163 200 255
163 200 255
163 200 255
163 200 255
163 200 255
163 200 255
163 200 255
162 200 255
162 200 255
162 200 255
162 199 255
162 199 255
162 199 255
162 199 255
162 199 255
162 199 255
162 199 255
161 199 255
161 199 255
161 199 255
161 199 255
161 199 255
161 199 255
161 199 255
161 199 255
161 199 255
161 199 255
160 198 255
160 198 255
160 198 255
160 198 255
160 198 255
160 198 255
160 198 255
160 198 255
160 198 255
160 198 255
160 198 255
159 198 255
159 198 255
159 198 255
159 198 255
159 198 255
159 198 255
159 198 255
159 198 255
159 197 255
159 197 255
159 197 255
159 197 255
159 197 255
158 197 255
158 197 255
158 197 255
158 197 255
158 197 255
158 197 255
158 197 255
158 197 255
158 197 255
158 197 255
158 197 255
158 197 255
158 197 255
158 197 255
158 197 255
157 197 255
157 197 255
157 197 255
157 197 255
157 197 255
157 197 255
157 197 255
157 196 255
157 196 255
157 196 255
157 196 255
157 196 255
157 196 255
157 196 255
157 196 255
157 196 255
157 196 255
157 196 255
157 196 255
157 196 255
157 196 255
157 196 255
157 196 255
157 196 255
157 196 255
157 196 255
157 196 255
157 196 255
157 196 255
157 196 255
157 196 255
157 196 255
157 196 255
157 196 255
157 196 255
157 196 255
157 196 255
157 196 255
157 196 255
157 196 255
157 196 255
157 196 255
157 196 255
157 196 255
157 196 255
157 196 255
157 196 255
157 196 255
157 196 255
157 196 255
157 196 255
157 196 255
157 196 255
157 197 255
157 197 255
157 197 255
157 197 255
157 197 255
157 197 255
157 197 255
158 197 255
158 197 255
158 197 255
158 197 255
158 197 255
158 197 255
158 197 255
158 197 255
158 197 255
158 197 255
158 197 255
158 197 255
158 197 255
158 197 255
158 197 255
158 197 255
159 197 255
159 197 255
159 197 255
159 197 255
159 198 255
159 198 255
159 198 255
159 198 255
159 198 255
159 198 255
159 198 255
159 198 255
160 198 255
160 198 255
160 198 255
160 198 255
160 198 255
160 198 255
160 198 255
160 198 255
160 198 255
160 198 255
160 198 255
161 199 255
161 199 255
161 199 255
161 199 255
161 199 255
161 199 255
161 199 255
161 199 255
161 199 255
161 199 255
162 199 255
162 199 255
162 199 255
162 199 255
162 199 255
162 199 255
162 199 255
162 200 255
162 200 255
162 200 255
163 200 255
163 200 255
163 200 255
163 200 255
163 200 255
163 200 255
163 200 255
163 200 255
163 200 255
163 200 255
164 200 255
164 200 255
164 200 255
164 200 255
164 201 255
164 201 255
164 201 255
164 201 255
164 201 255
164 201 255
165 201 255
165 201 255
165 201 255
165 201 255
165 201 255
165 201 255
165 201 255
165 201 255
165 201 255
165 201 255
165 201 255
166 202 255
166 202 255
166 202 255
166 202 255
166 202 255
166 202 255
166 202 255
166 202 255
166 202 255
166 202 255
167 202 255
167 202 255
167 202 255
167 202 255
167 202 255
167 202 255
167 202 255
167 202 255
167 203 255
167 203 255
167 203 255
168 203 255
168 203 255
168 203 255
168 203 255
168 203 255
168 203 255
168 203 255
168 203 255
168 203 255
168 203 255
168 203 255
168 203 255
169 203 255
169 203 255
169 203 255
169 203 255
169 204 255
169 204 255
169 204 255
169 204 255
169 204 255
169 204 255
169 204 255
169 204 255
170 204 255
170 204 255
170 204 255
170 204 255
170 204 255
170 204 255
170 204 255
170 204 255
170 204 255
170 204 255
170 204 255
170 204 255
171 205 255
171 205 255
171 205 255
171 205 255
171 205 255
171 205 255
171 205 255
171 205 255
171 205 255
171 205 255
171 205 255
171 205 255
171 205 255
171 205 255
172 205 255
172 205 255
172 205 255
172 205 255
172 205 255
172 205 255
172 205 255
172 205 255
172 205 255
172 206 255
172 206 255
172 206 255
172 205 255
172 205 255
172 205 255
172 205 255
172 205 255
172 205 255
172 205 255
172 205 255
172 205 255
171 205 255
171 205 255
171 205 255
171 205 255
171 205 255
171 205 255
171 205 255
171 205 255
171 205 255
171 205 255
171 205 255
171 205 255
171 205 255
171 205 255
170 204 255
170 204 255
170 204 255
170 204 255
170 204 255
170 204 255
170 204 255
170 204 255
170 204 255
170 204 255
170 204 255
170 204 255
170 204 255
169 204 255
169 204 255
169 204 255
169 204 255
169 204 255
169 204 255
169 204 255
169 204 255
169 203 255
169 203 255
169 203 255
169 203 255
168 203 255
168 203 255
168 203 255
168 203 255
168 203 255
168 203 255
168 203 255
168 203 255
168 203 255
168 203 255
168 203 255
167 203 255
167 203 255
167 203 255
167 203 255
167 202 255
167 202 255
167 202 255
167 202 255
167 202 255
167 202 255
167 202 255
166 202 255
166 202 255
166 202 255
166 202 255
166 202 255
166 202 255
166 202 255
166 202 255
166 202 255
166 202 255
165 201 255
165 201 255
165 201 255
165 201 255
165 201 255
165 201 255
165 201 255
165 201 255
165 201 255
165 201 255
165 201 255
164 201 255
164 201 255
164 201 255
164 201 255
164 201 255
164 201 255
164 200 255
164 200 255
164 200 255
164 200 255
163 200 255
163 200 255
163 200 255
163 200 255
163 200 255
163 200 255
163 200 255
163 200 255
163 200 255
163 200 255
162 200 255
162 200 255
162 200 255
162 199 255
162 199 255
162 199 255
162 199 255
162 199 255
162 199 255
162 199 255
161 199 255
161 199 255
161 199 255
161 199 255
161 199 255
161 199 255
161 199 255
161 199 255
161 199 255
161 199 255
161 199 255
160 198 255
160 198 255
160 198 255
160 198 255
160 198 255
160 198 255
160 198 255
160 198 255
160 198 255
160 198 255
160 198 255
159 198 255
159 198 255
159 198 255
159 198 255
159 198 255
159 198 255
159 198 255
159 198 255
159 198 255
159 197 255
159 197 255
159 197 255
159 197 255
158 197 255
158 197 255
158 197 255
158 197 255
158 197 255
158 197 255
158 197 255
158 197 255
158 197 255
158 197 255
158 197 255
158 197 255
158 197 255
158 197 255
158 197 255
158 197 255
158 197 255
158 197 255
157 197 255
157 197 255
157 197 255
157 197 255
157 197 255
157 197 255
157 197 255
157 197 255
157 197 255
157 196 255
157 196 255
157 196 255
157 196 255
157 196 255
157 196 255
157 196 255
157 196 255
157 196 255
157 196 255
157 196 255
157 196 255
157 196 255
157 196 255
157 196 255
157 196 255
157 196 255
157 196 255
157 196 255
157 196 255
157 196 255
157 196 255
157 196 255
157 196 255
157 196 255
157 196 255
157 196 255
157 197 255
157 197 255
157 197 255
157 197 255
157 197 255
157 197 255
157 197 255
157 197 255
157 197 255
157 197 255
158 197 255
158 197 255
158 197 255
158 197 255
158 197 255
158 197 255
158 197 255
158 197 255
158 197 255
158 197 255
158 197 255
158 197 255
158 197 255
158 197 255
158 197 255
158 197 255
158 197 255
158 197 255
159 197 255
159 197 255
159 197 255
159 197 255
159 198 255
159 198 255
159 198 255
159 198 255
159 198 255
159 198 255
159 198 255
159 198 255
159 198 255
160 198 255
160 198 255
160 198 255
160 198 255
160 198 255
160 198 255
160 198 255
160 198 255
160 198 255
160 198 255
160 198 255
161 199 255
161 199 255
161 199 255
161 199 255
161 199 255
161 199 255
161 199 255
161 199 255
161 199 255
161 199 255
161 199 255
162 199 255
162 199 255
162 199 255
162 199 255
162 199 255
162 199 255
162 199 255
162 200 255
162 200 255
162 200 255
163 200 255
163 200 255
163 200 255
163 200 255
163 200 255
163 200 255
163 200 255
163 200 255
163 200 255
163 200 255
164 200 255
164 200 255
164 200 255
164 200 255
164 201 255
164 201 255
164 201 255
164 201 255
164 201 255
164 201 255
165 201 255
165 201 255
165 201 255
165 201 255
165 201 255
165 201 255
165 201 255
165 201 255
165 201 255
165 201 255
166 202 255
166 202 255
166 202 255
166 202 255
166 202 255
166 202 255
166 202 255
166 202 255
166 202 255
166 202 255
166 202 255
167 202 255
167 202 255
167 202 255
167 202 255
167 202 255
167 202 255
167 202 255
167 203 255
167 203 255
167 203 255
167 203 255
168 203 255
168 203 255
168 203 255
168 203 255
168 203 255
168 203 255
168 203 255
168 203 255
168 203 255
168 203 255
168 203 255
169 203 255
169 203 255
169 203 255
169 203 255
169 204 255
169 204 255
169 204 255
169 204 255
169 204 255
169 204 255
169 204 255
169 204 255
170 204 255
170 204 255
170 204 255
170 204 255
170 204 255
170 204 255
170 204 255
170 204 255
170 204 255
170 204 255
170 204 255
170 204 255
170 204 255
171 205 255
171 205 255
171 205 255
171 205 255
171 205 255
171 205 255
171 205 255
171 205 255
171 205 255
171 205 255
171 205 255
171 205 255
171 205 255
171 205 255
172 205 255
172 205 255
172 205 255
172 205 255
172 205 255
172 205 255
172 205 255
172 205 255
172 205 255
172 206 255
172 206 255
172 206 255
173 206 255
172 206 255
172 206 255
172 206 255
172 206 255
172 206 255
172 205 255
172 205 255
172 205 255
172 205 255
172 205 255
172 205 255
172 205 255
172 205 255
172 205 255
172 205 255
171 205 255
171 205 255
171 205 255
171 205 255
171 205 255
171 205 255
171 205 255
171 205 255
171 205 255
171 205 255
171 205 255
171 205 255
171 205 255
170 204 255
170 204 255
170 204 255
170 204 255
170 204 255
170 204 255
170 204 255
170 204 255
170 204 255
170 204 255
170 204 255
170 204 255
170 204 255
169 204 255
169 204 255
169 204 255
169 204 255
169 204 255
169 204 255
169 204 255
169 204 255
169 203 255
169 203 255
169 203 255
169 203 255
168 203 255
168 203 255
168 203 255
168 203 255
168 203 255
168 203 255
168 203 255
168 203 255
168 203 255
168 203 255
168 203 255
167 203 255
167 203 255
167 203 255
167 203 255
167 202 255
167 202 255
167 202 255
167 202 255
167 202 255
167 202 255
167 202 255
166 202 255
166 202 255
166 202 255
166 202 255
166 202 255
166 202 255
166 202 255
166 202 255
166 202 255
166 202 255
166 202 255
165 201 255
165 201 255
165 201 255
165 201 255
165 201 255
165 201 255
165 201 255
165 201 255
165 201 255
165 201 255
164 201 255
164 201 255
164 201 255
164 201 255
164 201 255
164 201 255
164 201 255
164 200 255
164 200 255
164 200 255
163 200 255
163 200 255
163 200 255
163 200 255
163 200 255
163 200 255
163 200 255
163 200 255
163 200 255
163 200 255
162 200 255
162 200 255
162 200 255
162 200 255
162 199 255
162 199 255
162 199 255
162 199 255
162 199 255
162 199 255
162 199 255
161 199 255
161 199 255
161 199 255
161 199 255
161 199 255
161 199 255
161 199 255
161 199 255
161 199 255
161 199 255
160 198 255
160 198 255
160 198 255
160 198 255
160 198 255
160 198 255
160 198 255
160 198 255
160 198 255
160 198 255
160 198 255
160 198 255
159 198 255
159 198 255
159 198 255
159 198 255
159 198 255
159 198 255
159 198 255
159 198 255
159 198 255
159 197 255
159 197 255
159 197 255
159 197 255
159 197 255
158 197 255
158 197 255
158 197 255
158 197 255
158 197 255
158 197 255
158 197 255
158 197 255
158 197 255
158 197 255
158 197 255
158 197 255
158 197 255
158 197 255
158 197 255
158 197 255
158 197 255
158 197 255
158 197 255
158 197 255
158 197 255
158 197 255
158 197 255
157 197 255
157 197 255
157 197 255
157 197 255
157 197 255
157 197 255
157 197 255
157 197 255
157 197 255
157 197 255
157 197 255
157 197 255
157 197 255
157 197 255
157 197 255
157 197 255
157 197 255
157 197 255
157 197 255
157 197 255
157 197 255
157 197 255
157 197 255
157 197 255
157 197 255
157 197 255
158 197 255
158 197 255
158 197 255
158 197 255
158 197 255
158 197 255
158 197 255
158 197 255
158 197 255
158 197 255
158 197 255
158 197 255
158 197 255
158 197 255
158 197 255
158 197 255
158 197 255
158 197 255
158 197 255
158 197 255
158 197 255
158 197 255
158 197 255
159 197 255
159 197 255
159 197 255
159 197 255
159 197 255
159 198 255
159 198 255
159 198 255
159 198 255
159 198 255
159 198 255
159 198 255
159 198 255
159 198 255
160 198 255
160 198 255
160 198 255
160 198 255
160 198 255
160 198 255
160 198 255
160 198 255
160 198 255
160 198 255
160 198 255
160 198 255
161 199 255
161 199 255
161 199 255
161 199 255
161 199 255
161 199 255
161 199 255
161 199 255
161 199 255
161 199 255
162 199 255
162 199 255
162 199 255
162 199 255
162 199 255
162 199 255
162 199 255
162 200 255
162 200 255
162 200 255
162 200 255
163 200 255
163 200 255
163 200 255
163 200 255
163 200 255
163 200 255
163 200 255
163 200 255
163 200 255
163 200 255
164 200 255
164 200 255
164 200 255
164 201 255
164 201 255
164 201 255
164 201 255
164 201 255
164 201 255
164 201 255
165 201 255
165 201 255
165 201 255
165 201 255
165 201 255
165 201 255
165 201 255
165 201 255
165 201 255
165 201 255
166 202 255
166 202 255
166 202 255
166 202 255
166 202 255
166 202 255
166 202 255
166 202 255
166 202 255
166 202 255
166 202 255
167 202 255
167 202 255
167 202 255
167 202 255
167 202 255
167 202 255
167 202 255
167 203 255
167 203 255
167 203 255
167 203 255
168 203 255
168 203 255
168 203 255
168 203 255
168 203 255
168 203 255
168 203 255
168 203 255
168 203 255
168 203 255
168 203 255
169 203 255
169 203 255
169 203 255
169 203 255
169 204 255
169 204 255
169 204 255
169 204 255
169 204 255
169 204 255
169 204 255
169 204 255
170 204 255
170 204 255
170 204 255
170 204 255
170 204 255
170 204 255
170 204 255
170 204 255
170 204 255
170 204 255
170 204 255
170 204 255
170 204 255
171 205 255
171 205 255
171 205 255
171 205 255
171 205 255
171 205 255
171 205 255
171 205 255
171 205 255
171 205 255
171 205 255
171 205 255
171 205 255
172 205 255
172 205 255
172 205 255
172 205 255
172 205 255
172 205 255
172 205 255
172 205 255
172 205 255
172 205 255
172 206 255
172 206 255
172 206 255
172 206 255
172 206 255
173 206 255
173 206 255
173 206 255
173 206 255
173 206 255
173 206 255
172 206 255
172 206 255
172 206 255
172 206 255
172 206 255
172 205 255
172 205 255
172 205 255
172 205 255
172 205 255
172 205 255
172 205 255
172 205 255
172 205 255
171 205 255
171 205 255
171 205 255
171 205 255
171 205 255
171 205 255
171 205 255
171 205 255
171 205 255
171 205 255
171 205 255
171 205 255
171 205 255
171 205 255
170 204 255
170 204 255
170 204 255
170 204 255
170 204 255
170 204 255
170 204 255
170 204 255
170 204 255
170 204 255
170 204 255
170 204 255
169 204 255
169 204 255
169 204 255
169 204 255
169 204 255
169 204 255
169 204 255
169 204 255
169 204 255
169 203 255
169 203 255
169 203 255
168 203 255
168 203 255
168 203 255
168 203 255
168 203 255
168 203 255
168 203 255
168 203 255
168 203 255
168 203 255
168 203 255
167 203 255
167 203 255
167 203 255
167 203 255
167 202 255
167 202 255
167 202 255
167 202 255
167 202 255
167 202 255
167 202 255
166 202 255
166 202 255
166 202 255
166 202 255
166 202 255
166 202 255
166 202 255
166 202 255
166 202 255
166 202 255
166 202 255
165 201 255
165 201 255
165 201 255
165 201 255
165 201 255
165 201 255
165 201 255
165 201 255
165 201 255
165 201 255
164 201 255
164 201 255
164 201 255
164 201 255
164 201 255
164 201 255
164 201 255
164 200 255
164 200 255
164 200 255
163 200 255
163 200 255
163 200 255
163 200 255
163 200 255
163 200 255
163 200 255
163 200 255
163 200 255
163 200 255
163 200 255
162 200 255
162 200 255
162 200 255
162 199 255
162 199 255
162 199 255
162 199 255
162 199 255
162 199 255
162 199 255
161 199 255
161 199 255
161 199 255
161 199 255
161 199 255
161 199 255
161 199 255
161 199 255
161 199 255
161 199 255
161 199 255
160 198 255
160 198 255
160 198 255
160 198 255
160 198 255
160 198 255
160 198 255
160 198 255
160 198 255
160 198 255
160 198 255
160 198 255
160 198 255
159 198 255
159 198 255
159 198 255
159 198 255
159 198 255
159 198 255
159 198 255
159 198 255
159 198 255
159 198 255
159 197 255
159 197 255
159 197 255
159 197 255
159 197 255
159 197 255
158 197 255
158 197 255
158 197 255
158 197 255
158 197 255
158 197 255
158 197 255
158 197 255
158 197 255
158 197 255
158 197 255
158 197 255
158 197 255
158 197 255
158 197 255
158 197 255
158 197 255
158 197 255
158 197 255
158 197 255
158 197 255
158 197 255
158 197 255
158 197 255
158 197 255
158 197 255
158 197 255
158 197 255
158 197 255
158 197 255
158 197 255
158 197 255
158 197 255
158 197 255
158 197 255
158 197 255
158 197 255
158 197 255
158 197 255
158 197 255
158 197 255
158 197 255
158 197 255
158 197 255
158 197 255
158 197 255
158 197 255
158 197 255
158 197 255
158 197 255
158 197 255
158 197 255
158 197 255
158 197 255
158 197 255
158 197 255
158 197 255
158 197 255
158 197 255
159 197 255
159 197 255
159 197 255
159 197 255
159 197 255
159 198 255
159 198 255
159 198 255
159 198 255
159 198 255
159 198 255
159 198 255
159 198 255
159 198 255
159 198 255
160 198 255
160 198 255
160 198 255
160 198 255
160 198 255
160 198 255
160 198 255
160 198 255
160 198 255
160 198 255
160 198 255
160 198 255
160 198 255
161 199 255
161 199 255
161 199 255
161 199 255
161 199 255
161 199 255
161 199 255
161 199 255
161 199 255
161 199 255
161 199 255
162 199 255
162 199 255
162 199 255
162 199 255
162 199 255
162 199 255
162 199 255
162 200 255
162 200 255
162 200 255
163 200 255
163 200 255
163 200 255
163 200 255
163 200 255
163 200 255
163 200 255
163 200 255
163 200 255
163 200 255
163 200 255
164 200 255
164 200 255
164 200 255
164 201 255
164 201 255
164 201 255
164 201 255
164 201 255
164 201 255
164 201 255
165 201 255
165 201 255
165 201 255
165 201 255
165 201 255
165 201 255
165 201 255
165 201 255
165 201 255
165 201 255
166 202 255
166 202 255
166 202 255
166 202 255
166 202 255
166 202 255
166 202 255
166 202 255
166 202 255
166 202 255
166 202 255
167 202 255
167 202 255
167 202 255
167 202 255
167 202 255
167 202 255
167 202 255
167 203 255
167 203 255
167 203 255
167 203 255
168 203 255
168 203 255
168 203 255
168 203 255
168 203 255
168 203 255
168 203 255
168 203 255
168 203 255
168 203 255
168 203 255
169 203 255
169 203 255
169 203 255
169 203 255
169 204 255
169 204 255
169 204 255
169 204 255
169 204 255
169 204 255
169 204 255
169 204 255
170 204 255
170 204 255
170 204 255
170 204 255
170 204 255
170 204 255
170 204 255
170 204 255
170 204 255
170 204 255
170 204 255
170 204 255
171 205 255
171 205 255
171 205 255
171 205 255
171 205 255
171 205 255
171 205 255
171 205 255
171 205 255
171 205 255
171 205 255
171 205 255
171 205 255
171 205 255
172 205 255
172 205 255
172 205 255
172 205 255
172 205 255
172 205 255
172 205 255
172 205 255
172 205 255
172 206 255
172 206 255
172 206 255
172 206 255
172 206 255
173 206 255
173 206 255
173 206 255
173 206 255
173 206 255
173 206 255
173 206 255
173 206 255
173 206 255
173 206 255
173 206 255
173 206 255
173 206 255
173 206 255
172 206 255
172 206 255
172 206 255
172 206 255
172 205 255
172 205 255
172 205 255
172 205 255
172 205 255
172 205 255
172 205 255
172 205 255
172 205 255
172 205 255
171 205 255
171 205 255
171 205 255
171 205 255
171 205 255
171 205 255
171 205 255
171 205 255
171 205 255
171 205 255
171 205 255
171 205 255
171 205 255
170 204 255
170 204 255
170 204 255
170 204 255
170 204 255
170 204 255
170 204 255
170 204 255
170 204 255
170 204 255
170 204 255
170 204 255
170 204 255
169 204 255
169 204 255
169 204 255
169 204 255
169 204 255
169 204 255
169 204 255
169 204 255
169 203 255
169 203 255
169 203 255
169 203 255
168 203 255
168 203 255
168 203 255
168 203 255
168 203 255
168 203 255
168 203 255
168 203 255
168 203 255
168 203 255
168 203 255
167 203 255
167 203 255
167 203 255
167 202 255
167 202 255
167 202 255
167 202 255
167 202 255
167 202 255
167 202 255
167 202 255
166 202 255
166 202 255
166 202 255
166 202 255
166 202 255
166 202 255
166 202 255
166 202 255
166 202 255
166 202 255
165 201 255
165 201 255
165 201 255
165 201 255
165 201 255
165 201 255
165 201 255
165 201 255
165 201 255
165 201 255
164 201 255
164 201 255
164 201 255
164 201 255
164 201 255
164 201 255
164 201 255
164 200 255
164 200 255
164 200 255
164 200 255
163 200 255
163 200 255
163 200 255
163 200 255
163 200 255
163 200 255
163 200 255
163 200 255
163 200 255
163 200 255
162 200 255
162 200 255
162 200 255
162 200 255
162 199 255
162 199 255
162 199 255
162 199 255
162 199 255
162 199 255
162 199 255
161 199 255
161 199 255
161 199 255
161 199 255
161 199 255
161 199 255
161 199 255
161 199 255
161 199 255
161 199 255
161 199 255
160 198 255
160 198 255
160 198 255
160 198 255
160 198 255
160 198 255
160 198 255
160 198 255
160 198 255
160 198 255
160 198 255
160 198 255
160 198 255
160 198 255
159 198 255
159 198 255
159 198 255
159 198 255
159 198 255
159 198 255
159 198 255
159 198 255
159 198 255
159 198 255
159 198 255
159 197 255
159 197 255
159 197 255
159 197 255
159 197 255
159 197 255
159 197 255
158 197 255
158 197 255
158 197 255
158 197 255
158 197 255
158 197 255
158 197 255
158 197 255
158 197 255
158 197 255
158 197 255
158 197 255
158 197 255
158 197 255
158 197 255
158 197 255
158 197 255
158 197 255
158 197 255
158 197 255
158 197 255
158 197 255
158 197 255
158 197 255
158 197 255
158 197 255
158 197 255
158 197 255
158 197 255
158 197 255
158 197 255
158 197 255
158 197 255
158 197 255
158 197 255
158 197 255
158 197 255
158 197 255
158 197 255
158 197 255
158 197 255
158 197 255
158 197 255
158 197 255
159 197 255
159 197 255
159 197 255
159 197 255
159 197 255
159 197 255
159 197 255
159 198 255
159 198 255
159 198 255
159 198 255
159 198 255
159 198 255
159 198 255
159 198 255
159 198 255
159 198 255
159 198 255
160 198 255
160 198 255
160 198 255
160 198 255
160 198 255
160 198 255
160 198 255
160 198 255
160 198 255
160 198 255
160 198 255
160 198 255
160 198 255
160 198 255
161 199 255
161 199 255
161 199 255
161 199 255
161 199 255
161 199 255
161 199 255
161 199 255
161 199 255
161 199 255
161 199 255
162 199 255
162 199 255
162 199 255
162 199 255
162 199 255
162 199 255
162 199 255
162 200 255
162 200 255
162 200 255
162 200 255
163 200 255
163 200 255
163 200 255
163 200 255
163 200 255
163 200 255
163 200 255
163 200 255
163 200 255
163 200 255
164 200 255
164 200 255
164 200 255
164 200 255
164 201 255
164 201 255
164 201 255
164 201 255
164 201 255
164 201 255
164 201 255
165 201 255
165 201 255
165 201 255
165 201 255
165 201 255
165 201 255
165 201 255
165 201 255
165 201 255
165 201 255
166 202 255
166 202 255
166 202 255
166 202 255
166 202 255
166 202 255
166 202 255
166 202 255
166 202 255
166 202 255
166 202 255
167 202 255
167 202 255
167 202 255
167 202 255
167 202 255
167 202 255
167 202 255
167 203 255
167 203 255
167 203 255
168 203 255
168 203 255
168 203 255
168 203 255
168 203 255
168 203 255
168 203 255
168 203 255
168 203 255
168 203 255
168 203 255
169 203 255
169 203 255
169 203 255
169 203 255
169 204 255
169 204 255
169 204 255
169 204 255
169 204 255
169 204 255
169 204 255
169 204 255
170 204 255
170 204 255
170 204 255
170 204 255
170 204 255
170 204 255
170 204 255
170 204 255
170 204 255
170 204 255
170 204 255
170 204 255
170 204 255
171 205 255
171 205 255
171 205 255
171 205 255
171 205 255
171 205 255
171 205 255
171 205 255
171 205 255
171 205 255
171 205 255
171 205 255
171 205 255
172 205 255
172 205 255
172 205 255
172 205 255
172 205 255
172 205 255
172 205 255
172 205 255
172 205 255
172 205 255
172 206 255
172 206 255
172 206 255
172 206 255
173 206 255
173 206 255
173 206 255
173 206 255
173 206 255
173 206 255
173 206 255
173 206 255
173 206 255
173 206 255
173 206 255
173 206 255
173 206 255
173 206 255
173 206 255
173 206 255
173 206 255
173 206 255
173 206 255
173 206 255
173 206 255
172 206 255
172 206 255
172 206 255
172 206 255
172 206 255
172 205 255
172 205 255
172 205 255
172 205 255
172 205 255
172 205 255
172 205 255
172 205 255
172 205 255
172 205 255
171 205 255
171 205 255
171 205 255
171 205 255
171 205 255
171 205 255
171 205 255
171 205 255
171 205 255
171 205 255
171 205 255
171 205 255
171 205 255
170 204 255
170 204 255
170 204 255
170 204 255
170 204 255
170 204 255
170 204 255
170 204 255
170 204 255
170 204 255
170 204 255
170 204 255
169 204 255
169 204 255
169 204 255
169 204 255
169 204 255
169 204 255
169 204 255
169 204 255
169 203 255
169 203 255
169 203 255
169 203 255
168 203 255
168 203 255
168 203 255
168 203 255
168 203 255
168 203 255
168 203 255
168 203 255
168 203 255
168 203 255
168 203 255
167 203 255
167 203 255
167 203 255
167 203 255
167 202 255
167 202 255
167 202 255
167 202 255
167 202 255
167 202 255
167 202 255
166 202 255
166 202 255
166 202 255
166 202 255
166 202 255
166 202 255
166 202 255
166 202 255
166 202 255
166 202 255
165 201 255
165 201 255
165 201 255
165 201 255
165 201 255
165 201 255
165 201 255
165 201 255
165 201 255
165 201 255
165 201 255
164 201 255
164 201 255
164 201 255
164 201 255
164 201 255
164 201 255
164 201 255
164 200 255
164 200 255
164 200 255
163 200 255
163 200 255
163 200 255
163 200 255
163 200 255
163 200 255
163 200 255
163 200 255
163 200 255
163 200 255
162 200 255
162 200 255
162 200 255
162 200 255
162 199 255
162 199 255
162 199 255
162 199 255
162 199 255
162 199 255
162 199 255
162 199 255
161 199 255
161 199 255
161 199 255
161 199 255
161 199 255
161 199 255
161 199 255
161 199 255
161 199 255
161 199 255
161 199 255
161 199 255
160 198 255
160 198 255
160 198 255
160 198 255
160 198 255
160 198 255
160 198 255
160 198 255
160 198 255
160 198 255
160 198 255
160 198 255
160 198 255
160 198 255
159 198 255
159 198 255
159 198 255
159 198 255
159 198 255
159 198 255
159 198 255
159 198 255
159 198 255
159 198 255
159 198 255
159 198 255
159 198 255
159 198 255
159 197 255
159 197 255
159 197 255
159 197 255
159 197 255
159 197 255
159 197 255
159 197 255
159 197 255
159 197 255
159 197 255
158 197 255
158 197 255
158 197 255
158 197 255
158 197 255
158 197 255
158 197 255
158 197 255
158 197 255
158 197 255
158 197 255
158 197 255
158 197 255
158 197 255
158 197 255
158 197 255
158 197 255
158 197 255
158 197 255
158 197 255
158 197 255
159 197 255
159 197 255
159 197 255
159 197 255
159 197 255
159 197 255
159 197 255
159 197 255
159 197 255
159 197 255
159 197 255
159 198 255
159 198 255
159 198 255
159 198 255
159 198 255
159 198 255
159 198 255
159 198 255
159 198 255
159 198 255
159 198 255
159 198 255
159 198 255
160 198 255
160 198 255
160 198 255
160 198 255
160 198 255
160 198 255
160 198 255
160 198 255
160 198 255
160 198 255
160 198 255
160 198 255
160 198 255
160 198 255
161 199 255
161 199 255
161 199 255
161 199 255
161 199 255
161 199 255
161 199 255
161 199 255
161 199 255
161 199 255
161 199 255
161 199 255
162 199 255
162 199 255
162 199 255
162 199 255
162 199 255
162 199 255
162 199 255
162 199 255
162 200 255
162 200 255
162 200 255
162 200 255
163 200 255
163 200 255
163 200 255
163 200 255
163 200 255
163 200 255
163 200 255
163 200 255
163 200 255
163 200 255
164 200 255
164 200 255
164 200 255
164 201 255
164 201 255
164 201 255
164 201 255
164 201 255
164 201 255
164 201 255
165 201 255
165 201 255
165 201 255
165 201 255
165 201 255
165 201 255
165 201 255
165 201 255
165 201 255
165 201 255
165 201 255
166 202 255
166 202 255
166 202 255
166 202 255
166 202 255
166 202 255
166 202 255
166 202 255
166 202 255
166 202 255
167 202 255
167 202 255
167 202 255
167 202 255
167 202 255
167 202 255
167 202 255
167 203 255
167 203 255
167 203 255
167 203 255
168 203 255
168 203 255
168 203 255
168 203 255
168 203 255
168 203 255
168 203 255
168 203 255
168 203 255
168 203 255
168 203 255
169 203 255
169 203 255
169 203 255
169 203 255
169 204 255
169 204 255
169 204 255
169 204 255
169 204 255
169 204 255
169 204 255
169 204 255
170 204 255
170 204 255
170 204 255
170 204 255
170 204 255
170 204 255
170 204 255
170 204 255
170 204 255
170 204 255
170 204 255
170 204 255
171 205 255
171 205 255
171 205 255
171 205 255
171 205 255
171 205 255
171 205 255
171 205 255
171 205 255
171 205 255
171 205 255
171 205 255
171 205 255
172 205 255
172 205 255
172 205 255
172 205 255
172 205 255
172 205 255
172 205 255
172 205 255
172 205 255
172 205 255
172 206 255
172 206 255
172 206 255
172 206 255
172 206 255
173 206 255
173 206 255
173 206 255
173 206 255
173 206 255
173 206 255
173 206 255
173 206 255
173 206 255
173 206 255
173 206 255
173 206 255
174 206 255
173 206 255
173 206 255
173 206 255
173 206 255
173 206 255
173 206 255
173 206 255
173 206 255
173 206 255
173 206 255
173 206 255
173 206 255
173 206 255
173 206 255
173 206 255
172 206 255
172 206 255
172 206 255
172 206 255
172 206 255
172 205 255
172 205 255
172 205 255
172 205 255
172 205 255
172 205 255
172 205 255
172 205 255
172 205 255
171 205 255
171 205 255
171 205 255
171 205 255
171 205 255
171 205 255
171 205 255
171 205 255
171 205 255
171 205 255
171 205 255
171 205 255
171 205 255
170 204 255
170 204 255
170 204 255
170 204 255
170 204 255
170 204 255
170 204 255
170 204 255
170 204 255
170 204 255
170 204 255
170 204 255
170 204 255
169 204 255
169 204 255
169 204 255
169 204 255
169 204 255
169 204 255
169 204 255
169 203 255
169 203 255
169 203 255
169 203 255
168 203 255
168 203 255
168 203 255
168 203 255
168 203 255
168 203 255
168 203 255
168 203 255
168 203 255
168 203 255
168 203 255
168 203 255
167 203 255
167 203 255
167 203 255
167 202 255
167 202 255
167 202 255
167 202 255
167 202 255
167 202 255
167 202 255
166 202 255
166 202 255
166 202 255
166 202 255
166 202 255
166 202 255
166 202 255
166 202 255
166 202 255
166 202 255
166 202 255
165 201 255
165 201 255
165 201 255
165 201 255
165 201 255
165 201 255
165 201 255
165 201 255
165 201 255
165 201 255
164 201 255
164 201 255
164 201 255
164 201 255
164 201 255
164 201 255
164 201 255
164 200 255
164 200 255
164 200 255
164 200 255
163 200 255
163 200 255
163 200 255
163 200 255
163 200 255
163 200 255
163 200 255
163 200 255
163 200 255
163 200 255
162 200 255
162 200 255
162 200 255
162 200 255
162 199 255
162 199 255
162 199 255
162 199 255
162 199 255
162 199 255
162 199 255
162 199 255
161 199 255
161 199 255
161 199 255
161 199 255
161 199 255
161 199 255
161 199 255
161 199 255
161 199 255
161 199 255
161 199 255
161 199 255
160 198 255
160 198 255
160 198 255
160 198 255
160 198 255
160 198 255
160 198 255
160 198 255
160 198 255
160 198 255
160 198 255
160 198 255
160 198 255
160 198 255
160 198 255
160 198 255
159 198 255
159 198 255
159 198 255
159 198 255
159 198 255
159 198 255
159 198 255
159 198 255
159 198 255
159 198 255
159 198 255
159 198 255
159 198 255
159 198 255
159 198 255
159 198 255
159 198 255
159 198 255
159 198 255
159 198 255
159 197 255
159 197 255
159 197 255
159 197 255
159 197 255
159 197 255
159 197 255
159 197 255
159 197 255
159 197 255
159 197 255
159 197 255
159 197 255
159 197 255
159 197 255
159 197 255
159 197 255
159 197 255
159 198 255
159 198 255
159 198 255
159 198 255
159 198 255
159 198 255
159 198 255
159 198 255
159 198 255
159 198 255
159 198 255
159 198 255
159 198 255
159 198 255
159 198 255
159 198 255
159 198 255
159 198 255
159 198 255
160 198 255
160 198 255
160 198 255
160 198 255
160 198 255
160 198 255
160 198 255
160 198 255
160 198 255
160 198 255
160 198 255
160 198 255
160 198 255
160 198 255
160 198 255
160 198 255
161 199 255
161 199 255
161 199 255
161 199 255
161 199 255
161 199 255
161 199 255
161 199 255
161 199 255
161 199 255
161 199 255
161 199 255
161 199 255
162 199 255
162 199 255
162 199 255
162 199 255
162 199 255
162 199 255
162 199 255
162 199 255
162 200 255
162 200 255
162 200 255
162 200 255
163 200 255
163 200 255
163 200 255
163 200 255
163 200 255
163 200 255
163 200 255
163 200 255
163 200 255
163 200 255
164 200 255
164 200 255
164 200 255
164 200 255
164 201 255
164 201 255
164 201 255
164 201 255
164 201 255
164 201 255
164 201 255
165 201 255
165 201 255
165 201 255
165 201 255
165 201 255
165 201 255
165 201 255
165 201 255
165 201 255
165 201 255
166 202 255
166 202 255
166 202 255
166 202 255
166 202 255
166 202 255
166 202 255
166 202 255
166 202 255
166 202 255
166 202 255
167 202 255
167 202 255
167 202 255
167 202 255
167 202 255
167 202 255
167 202 255
167 203 255
167 203 255
167 203 255
167 203 255
168 203 255
168 203 255
168 203 255
168 203 255
168 203 255
168 203 255
168 203 255
168 203 255
168 203 255
168 203 255
168 203 255
169 203 255
169 203 255
169 203 255
169 203 255
169 204 255
169 204 255
169 204 255
169 204 255
169 204 255
169 204 255
169 204 255
170 204 255
170 204 255
170 204 255
170 204 255
170 204 255
170 204 255
170 204 255
170 204 255
170 204 255
170 204 255
170 204 255
170 204 255
170 204 255
171 205 255
171 205 255
171 205 255
171 205 255
171 205 255
171 205 255
171 205 255
171 205 255
171 205 255
171 205 255
171 205 255
171 205 255
171 205 255
172 205 255
172 205 255
172 205 255
172 205 255
172 205 255
172 205 255
172 205 255
172 205 255
172 205 255
172 206 255
172 206 255
172 206 255
172 206 255
172 206 255
173 206 255
173 206 255
173 206 255
173 206 255
173 206 255
173 206 255
173 206 255
173 206 255
173 206 255
173 206 255
173 206 255
173 206 255
173 206 255
173 206 255
173 206 255
174 206 255
174 206 255
174 206 255
174 206 255
174 206 255
174 206 255
173 206 255
173 206 255
173 206 255
173 206 255
173 206 255
173 206 255
173 206 255
173 206 255
173 206 255
173 206 255
173 206 255
173 206 255
173 206 255
173 206 255
173 206 255
172 206 255
172 206 255
172 206 255
172 206 255
172 206 255
172 205 255
172 205 255
172 205 255
172 205 255
172 205 255
172 205 255
172 205 255
172 205 255
172 205 255
171 205 255
171 205 255
171 205 255
171 205 255
171 205 255
171 205 255
171 205 255
171 205 255
171 205 255
171 205 255
171 205 255
171 205 255
171 205 255
170 204 255
170 204 255
170 204 255
170 204 255
170 204 255
170 204 255
170 204 255
170 204 255
170 204 255
170 204 255
170 204 255
170 204 255
169 204 255
169 204 255
169 204 255
169 204 255
169 204 255
169 204 255
169 204 255
169 204 255
169 203 255
169 203 255
169 203 255
169 203 255
168 203 255
168 203 255
168 203 255
168 203 255
168 203 255
168 203 255
168 203 255
168 203 255
168 203 255
168 203 255
168 203 255
167 203 255
167 203 255
167 203 255
167 202 255
167 202 255
167 202 255
167 202 255
167 202 255
167 202 255
167 202 255
166 202 255
166 202 255
166 202 255
166 202 255
166 202 255
166 202 255
166 202 255
166 202 255
166 202 255
166 202 255
166 202 255
165 201 255
165 201 255
165 201 255
165 201 255
165 201 255
165 201 255
165 201 255
165 201 255
165 201 255
165 201 255
165 201 255
164 201 255
164 201 255
164 201 255
164 201 255
164 201 255
164 201 255
164 201 255
164 200 255
164 200 255
164 200 255
163 200 255
163 200 255
163 200 255
163 200 255
163 200 255
163 200 255
163 200 255
163 200 255
163 200 255
163 200 255
163 200 255
162 200 255
162 200 255
162 200 255
162 200 255
162 199 255
162 199 255
162 199 255
162 199 255
162 199 255
162 199 255
162 199 255
162 199 255
161 199 255
161 199 255
161 199 255
161 199 255
161 199 255
161 199 255
161 199 255
161 199 255
161 199 255
161 199 255
161 199 255
161 199 255
161 199 255
161 199 255
160 198 255
160 198 255
160 198 255
160 198 255
160 198 255
160 198 255
160 198 255
160 198 255
160 198 255
160 198 255
160 198 255
160 198 255
160 198 255
160 198 255
160 198 255
160 198 255
160 198 255
160 198 255
160 198 255
159 198 255
159 198 255
159 198 255
159 198 255
159 198 255
159 198 255
159 198 255
159 198 255
159 198 255
159 198 255
159 198 255
159 198 255
159 198 255
159 198 255
159 198 255
159 198 255
159 198 255
159 198 255
159 198 255
159 198 255
159 198 255
159 198 255
159 198 255
159 198 255
159 198 255
159 198 255
159 198 255
159 198 255
159 198 255
159 198 255
159 198 255
159 198 255
159 198 255
159 198 255
159 198 255
159 198 255
159 198 255
159 198 255
159 198 255
159 198 255
160 198 255
160 198 255
160 198 255
160 198 255
160 198 255
160 198 255
160 198 255
160 198 255
160 198 255
160 198 255
160 198 255
160 198 255
160 198 255
160 198 255
160 198 255
160 198 255
160 198 255
160 198 255
160 198 255
160 198 255
161 199 255
161 199 255
161 199 255
161 199 255
161 199 255
161 199 255
161 199 255
161 199 255
161 199 255
161 199 255
161 199 255
161 199 255
161 199 255
162 199 255
162 199 255
162 199 255
162 199 255
162 199 255
162 199 255
162 199 255
162 199 255
162 200 255
162 200 255
162 200 255
162 200 255
163 200 255
163 200 255
163 200 255
163 200 255
163 200 255
163 200 255
163 200 255
163 200 255
163 200 255
163 200 255
163 200 255
164 200 255
164 200 255
164 200 255
164 201 255
164 201 255
164 201 255
164 201 255
164 201 255
164 201 255
164 201 255
165 201 255
165 201 255
165 201 255
165 201 255
165 201 255
165 201 255
165 201 255
165 201 255
165 201 255
165 201 255
165 201 255
166 202 255
166 202 255
166 202 255
166 202 255
166 202 255
166 202 255
166 202 255
166 202 255
166 202 255
166 202 255
167 202 255
167 202 255
167 202 255
167 202 255
167 202 255
167 202 255
167 202 255
167 202 255
167 203 255
167 203 255
167 203 255
168 203 255
168 203 255
168 203 255
168 203 255
168 203 255
168 203 255
168 203 255
168 203 255
168 203 255
168 203 255
168 203 255
169 203 255
169 203 255
169 203 255
169 203 255
169 204 255
169 204 255
169 204 255
169 204 255
169 204 255
169 204 255
169 204 255
169 204 255
170 204 255
170 204 255
170 204 255
170 204 255
170 204 255
170 204 255
170 204 255
170 204 255
170 204 255
170 204 255
170 204 255
170 204 255
171 205 255
171 205 255
171 205 255
171 205 255
171 205 255
171 205 255
171 205 255
171 205 255
171 205 255
171 205 255
171 205 255
171 205 255
171 205 255
172 205 255
172 205 255
172 205 255
172 205 255
172 205 255
172 205 255
172 205 255
172 205 255
172 205 255
172 206 255
172 206 255
172 206 255
172 206 255
172 206 255
173 206 255
173 206 255
173 206 255
173 206 255
173 206 255
173 206 255
173 206 255
173 206 255
173 206 255
173 206 255
173 206 255
173 206 255
173 206 255
173 206 255
173 206 255
174 206 255
174 206 255
174 206 255
174 206 255
174 206 255
174 207 255
174 207 255
174 207 255
174 207 255
174 206 255
174 206 255
174 206 255
174 206 255
174 206 255
173 206 255
173 206 255
173 206 255
173 206 255
173 206 255
173 206 255
173 206 255
173 206 255
173 206 255
173 206 255
173 206 255
173 206 255
173 206 255
173 206 255
173 206 255
172 206 255
172 206 255
172 206 255
172 206 255
172 206 255
172 205 255
172 205 255
172 205 255
172 205 255
172 205 255
172 205 255
172 205 255
172 205 255
172 205 255
171 205 255
171 205 255
171 205 255
171 205 255
171 205 255
171 205 255
171 205 255
171 205 255
171 205 255
171 205 255
171 205 255
171 205 255
170 204 255
170 204 255
170 204 255
170 204 255
170 204 255
170 204 255
170 204 255
170 204 255
170 204 255
170 204 255
170 204 255
170 204 255
169 204 255
169 204 255
169 204 255
169 204 255
169 204 255
169 204 255
169 204 255
169 204 255
169 203 255
169 203 255
169 203 255
169 203 255
168 203 255
168 203 255
168 203 255
168 203 255
168 203 255
168 203 255
168 203 255
168 203 255
168 203 255
168 203 255
168 203 255
168 203 255
167 203 255
167 203 255
167 203 255
167 202 255
167 202 255
167 202 255
167 202 255
167 202 255
167 202 255
167 202 255
166 202 255
166 202 255
166 202 255
166 202 255
166 202 255
166 202 255
166 202 255
166 202 255
166 202 255
166 202 255
166 202 255
165 201 255
165 201 255
165 201 255
165 201 255
165 201 255
165 201 255
165 201 255
165 201 255
165 201 255
165 201 255
164 201 255
164 201 255
164 201 255
164 201 255
164 201 255
164 201 255
164 201 255
164 200 255
164 200 255
164 200 255
164 200 255
163 200 255
163 200 255
163 200 255
163 200 255
163 200 255
163 200 255
163 200 255
163 200 255
163 200 255
163 200 255
163 200 255
162 200 255
162 200 255
162 200 255
162 200 255
162 199 255
162 199 255
162 199 255
162 199 255
162 199 255
162 199 255
162 199 255
162 199 255
162 199 255
161 199 255
161 199 255
161 199 255
161 199 255
161 199 255
161 199 255
161 199 255
161 199 255
161 199 255
161 199 255
161 199 255
161 199 255
161 199 255
161 199 255
160 198 255
160 198 255
160 198 255
160 198 255
160 198 255
160 198 255
160 198 255
160 198 255
160 198 255
160 198 255
160 198 255
160 198 255
160 198 255
160 198 255
160 198 255
160 198 255
160 198 255
160 198 255
160 198 255
160 198 255
160 198 255
160 198 255
160 198 255
160 198 255
160 198 255
160 198 255
157 195 252
150 185 239
138 172 223
139 173 223
131 163 211
124 154 200
121 150 193
127 159 206
121 151 195
118 148 192
131 162 209
137 171 222
133 166 215
139 173 224
151 188 243
154 191 247
160 198 255
160 198 255
160 198 255
160 198 255
160 198 255
160 198 255
160 198 255
160 198 255
160 198 255
160 198 255
160 198 255
160 198 255
160 198 255
160 198 255
160 198 255
160 198 255
160 198 255
160 198 255
160 198 255
160 198 255
160 198 255
160 198 255
160 198 255
160 198 255
160 198 255
161 199 255
161 199 255
161 199 255
161 199 255
161 199 255
161 199 255
161 199 255
161 199 255
161 199 255
161 199 255
161 199 255
161 199 255
161 199 255
161 199 255
161 199 255
161 199 255
162 199 255
162 199 255
162 199 255
162 199 255
162 199 255
162 199 255
162 199 255
162 199 255
162 200 255
162 200 255
162 200 255
163 200 255
163 200 255
163 200 255
163 200 255
163 200 255
163 200 255
163 200 255
163 200 255
163 200 255
163 200 255
163 200 255
163 200 255
164 200 255
164 200 255
164 200 255
164 200 255
164 201 255
164 201 255
164 201 255
164 201 255
164 201 255
164 201 255
164 201 255
165 201 255
165 201 255
165 201 255
165 201 255
165 201 255
165 201 255
165 201 255
165 201 255
165 201 255
165 201 255
166 202 255
166 202 255
166 202 255
166 202 255
166 202 255
166 202 255
166 202 255
166 202 255
166 202 255
166 202 255
166 202 255
167 202 255
167 202 255
167 202 255
167 202 255
167 202 255
167 202 255
167 202 255
167 203 255
167 203 255
167 203 255
167 203 255
168 203 255
168 203 255
168 203 255
168 203 255
168 203 255
168 203 255
168 203 255
168 203 255
168 203 255
168 203 255
168 203 255
169 203 255
169 203 255
169 203 255
169 203 255
169 204 255
169 204 255
169 204 255
169 204 255
169 204 255
169 204 255
169 204 255
170 204 255
170 204 255
170 204 255
170 204 255
170 204 255
170 204 255
170 204 255
170 204 255
170 204 255
170 204 255
170 204 255
170 204 255
171 205 255
171 205 255
171 205 255
171 205 255
171 205 255
171 205 255
171 205 255
171 205 255
171 205 255
171 205 255
171 205 255
171 205 255
171 205 255
172 205 255
172 205 255
172 205 255
172 205 255
172 205 255
172 205 255
172 205 255
172 205 255
172 205 255
172 206 255
172 206 255
172 206 255
172 206 255
172 206 255
173 206 255
173 206 255
173 206 255
173 206 255
173 206 255
173 206 255
173 206 255
173 206 255
173 206 255
173 206 255
173 206 255
173 206 255
173 206 255
173 206 255
173 206 255
174 206 255
174 206 255
174 206 255
174 206 255
174 206 255
174 207 255
174 207 255
174 207 255
174 207 255
174 207 255
174 207 255
174 207 255
174 207 255
174 207 255
174 207 255
174 207 255
174 207 255
174 206 255
174 206 255
174 206 255
174 206 255
174 206 255
173 206 255
173 206 255
173 206 255
173 206 255
173 206 255
173 206 255
173 206 255
173 206 255
173 206 255
173 206 255
173 206 255
173 206 255
173 206 255
173 206 255
173 206 255
172 206 255
172 206 255
172 206 255
172 206 255
172 205 255
172 205 255
172 205 255
172 205 255
172 205 255
172 205 255
172 205 255
172 205 255
172 205 255
171 205 255
171 205 255
171 205 255
171 205 255
171 205 255
171 205 255
171 205 255
171 205 255
171 205 255
171 205 255
171 205 255
171 205 255
171 205 255
170 204 255
170 204 255
170 204 255
170 204 255
170 204 255
170 204 255
170 204 255
170 204 255
170 204 255
170 204 255
170 204 255
170 204 255
169 204 255
169 204 255
169 204 255
169 204 255
169 204 255
169 204 255
169 204 255
169 204 255
169 203 255
169 203 255
169 203 255
169 203 255
168 203 255
168 203 255
168 203 255
168 203 255
168 203 255
168 203 255
168 203 255
168 203 255
168 203 255
168 203 255
168 203 255
167 203 255
167 203 255
167 203 255
167 202 255
167 202 255
167 202 255
167 202 255
167 202 255
167 202 255
167 202 255
166 202 255
166 202 255
166 202 255
166 202 255
166 202 255
166 202 255
166 202 255
166 202 255
166 202 255
166 202 255
166 202 255
165 201 255
165 201 255
165 201 255
165 201 255
165 201 255
165 201 255
165 201 255
165 201 255
165 201 255
165 201 255
165 201 255
164 201 255
164 201 255
164 201 255
164 201 255
164 201 255
164 201 255
164 201 255
164 200 255
164 200 255
164 200 255
164 200 255
163 200 255
163 200 255
163 200 255
163 200 255
163 200 255
163 200 255
163 200 255
163 200 255
163 200 255
163 200 255
163 200 255
162 200 255
162 200 255
162 200 255
162 200 255
162 200 255
162 199 255
162 199 255
162 199 255
162 199 255
162 199 255
162 199 255
162 199 255
162 199 255
161 199 255
161 199 255
161 199 255
161 199 255
161 199 255
161 199 255
161 199 255
161 199 255
161 199 255
161 199 255
161 199 255
161 199 255
161 199 255
161 199 255
161 199 255
161 199 255
161 199 255
160 198 255
160 198 255
160 198 255
160 198 255
160 198 255
160 198 255
160 198 255
160 198 255
160 198 255
160 198 255
160 198 255
160 198 255
160 198 255
155 192 248
144 178 230
123 153 198
110 137 178
96 121 158
82 103 135
73 94 124
74 95 125
76 96 126
74 94 125
75 94 123
76 96 125
74 94 124
72 92 122
75 94 122
74 94 124
77 96 125
73 93 122
74 94 124
75 94 122
73 93 122
78 98 129
88 111 145
90 114 150
113 142 185
125 156 202
132 165 215
156 193 249
160 198 255
160 198 255
160 198 255
160 198 255
160 198 255
160 198 255
160 198 255
160 198 255
160 198 255
160 198 255
160 198 255
160 198 255
160 198 255
161 199 255
161 199 255
161 199 255
161 199 255
161 199 255
161 199 255
161 199 255
161 199 255
161 199 255
161 199 255
161 199 255
161 199 255
161 199 255
161 199 255
161 199 255
161 199 255
162 199 255
162 199 255
162 199 255
162 199 255
162 199 255
162 199 255
162 199 255
162 199 255
162 199 255
162 199 255
162 200 255
162 200 255
162 200 255
163 200 255
163 200 255
163 200 255
163 200 255
163 200 255
163 200 255
163 200 255
163 200 255
163 200 255
163 200 255
163 200 255
163 200 255
164 200 255
164 200 255
164 200 255
164 200 255
164 201 255
164 201 255
164 201 255
164 201 255
164 201 255
164 201 255
164 201 255
165 201 255
165 201 255
165 201 255
165 201 255
165 201 255
165 201 255
165 201 255
165 201 255
165 201 255
165 201 255
165 201 255
166 202 255
166 202 255
166 202 255
166 202 255
166 202 255
166 202 255
166 202 255
166 202 255
166 202 255
166 202 255
166 202 255
167 202 255
167 202 255
167 202 255
167 202 255
167 202 255
167 202 255
167 202 255
167 203 255
167 203 255
167 203 255
168 203 255
168 203 255
168 203 255
168 203 255
168 203 255
168 203 255
168 203 255
168 203 255
168 203 255
168 203 255
168 203 255
169 203 255
169 203 255
169 203 255
169 203 255
169 204 255
169 204 255
169 204 255
169 204 255
169 204 255
169 204 255
169 204 255
169 204 255
170 204 255
170 204 255
170 204 255
170 204 255
170 204 255
170 204 255
170 204 255
170 204 255
170 204 255
170 204 255
170 204 255
170 204 255
171 205 255
171 205 255
171 205 255
171 205 255
171 205 255
171 205 255
171 205 255
171 205 255
171 205 255
171 205 255
171 205 255
171 205 255
171 205 255
172 205 255
172 205 255
172 205 255
172 205 255
172 205 255
172 205 255
172 205 255
172 205 255
172 205 255
172 206 255
172 206 255
172 206 255
172 206 255
173 206 255
173 206 255
173 206 255
173 206 255
173 206 255
173 206 255
173 206 255
173 206 255
173 206 255
173 206 255
173 206 255
173 206 255
173 206 255
173 206 255
173 206 255
174 206 255
174 206 255
174 206 255
174 206 255
174 206 255
174 207 255
174 207 255
174 207 255
174 207 255
174 207 255
174 207 255
174 207 255
174 207 255
175 207 255
174 207 255
174 207 255
174 207 255
174 207 255
174 207 255
174 207 255
174 207 255
174 207 255
174 207 255
174 207 255
174 206 255
174 206 255
174 206 255
174 206 255
174 206 255
174 206 255
173 206 255
173 206 255
173 206 255
173 206 255
173 206 255
173 206 255
173 206 255
173 206 255
173 206 255
173 206 255
173 206 255
173 206 255
173 206 255
173 206 255
173 206 255
172 206 255
172 206 255
172 206 255
172 206 255
172 205 255
172 205 255
172 205 255
172 205 255
172 205 255
172 205 255
172 205 255
172 205 255
172 205 255
171 205 255
171 205 255
171 205 255
171 205 255
171 205 255
171 205 255
171 205 255
171 205 255
171 205 255
171 205 255
171 205 255
171 205 255
171 205 255
170 204 255
170 204 255
170 204 255
170 204 255
170 204 255
170 204 255
170 204 255
170 204 255
170 204 255
170 204 255
170 204 255
170 204 255
169 204 255
169 204 255
169 204 255
169 204 255
169 204 255
169 204 255
169 204 255
169 203 255
169 203 255
169 203 255
169 203 255
168 203 255
168 203 255
168 203 255
168 203 255
168 203 255
168 203 255
168 203 255
168 203 255
168 203 255
168 203 255
168 203 255
167 203 255
167 203 255
167 203 255
167 203 255
167 202 255
167 202 255
167 202 255
167 202 255
167 202 255
167 202 255
167 202 255
166 202 255
166 202 255
166 202 255
166 202 255
166 202 255
166 202 255
166 202 255
166 202 255
166 202 255
166 202 255
166 202 255
165 201 255
165 201 255
165 201 255
165 201 255
165 201 255
165 201 255
165 201 255
165 201 255
165 201 255
165 201 255
165 201 255
164 201 255
164 201 255
164 201 255
164 201 255
164 201 255
164 201 255
164 201 255
164 200 255
164 200 255
164 200 255
164 200 255
163 200 255
163 200 255
163 200 255
163 200 255
163 200 255
163 200 255
163 200 255
163 200 255
163 200 255
163 200 255
163 200 255
163 200 255
162 200 255
162 200 255
162 200 255
162 200 255
162 199 255
162 199 255
162 199 255
162 199 255
162 199 255
162 199 255
162 199 255
162 199 255
162 199 255
162 199 255
161 199 255
161 199 255
161 199 255
161 199 255
161 199 255
161 199 255
161 199 255
161 199 255
161 199 255
161 199 255
161 199 255
161 199 255
161 199 255
161 199 255
161 199 255
161 199 255
161 199 255
161 199 255
161 199 255
161 199 255
156 194 250
129 161 208
111 137 176
91 115 152
79 99 128
75 95 124
77 96 125
74 94 124
74 93 122
75 95 124
73 92 119
76 95 124
76 95 124
76 95 125
76 96 125
72 91 120
76 96 125
76 95 124
75 95 124
74 94 123
74 93 122
75 94 122
74 94 124
73 93 123
71 92 122
73 93 122
74 94 123
77 96 125
76 95 125
75 94 123
74 94 124
76 96 125
91 114 149
112 140 181
130 161 209
156 193 249
161 199 255
161 199 255
161 199 255
161 199 255
161 199 255
161 199 255
161 199 255
161 199 255
161 199 255
161 199 255
161 199 255
161 199 255
161 199 255
161 199 255
161 199 255
161 199 255
161 199 255
161 199 255
161 199 255
161 199 255
162 199 255
162 199 255
162 199 255
162 199 255
162 199 255
162 199 255
162 199 255
162 199 255
162 199 255
162 199 255
162 200 255
162 200 255
162 200 255
162 200 255
163 200 255
163 200 255
163 200 255
163 200 255
163 200 255
163 200 255
163 200 255
163 200 255
163 200 255
163 200 255
163 200 255
163 200 255
164 200 255
164 200 255
164 200 255
164 200 255
164 201 255
164 201 255
164 201 255
164 201 255
164 201 255
164 201 255
164 201 255
165 201 255
165 201 255
165 201 255
165 201 255
165 201 255
165 201 255
165 201 255
165 201 255
165 201 255
165 201 255
165 201 255
166 202 255
166 202 255
166 202 255
166 202 255
166 202 255
166 202 255
166 202 255
166 202 255
166 202 255
166 202 255
166 202 255
167 202 255
167 202 255
167 202 255
167 202 255
167 202 255
167 202 255
167 202 255
167 203 255
167 203 255
167 203 255
167 203 255
168 203 255
168 203 255
168 203 255
168 203 255
168 203 255
168 203 255
168 203 255
168 203 255
168 203 255
168 203 255
168 203 255
169 203 255
169 203 255
169 203 255
169 203 255
169 204 255
169 204 255
169 204 255
169 204 255
169 204 255
169 204 255
169 204 255
170 204 255
170 204 255
170 204 255
170 204 255
170 204 255
170 204 255
170 204 255
170 204 255
170 204 255
170 204 255
170 204 255
170 204 255
171 205 255
171 205 255
171 205 255
171 205 255
171 205 255
171 205 255
171 205 255
171 205 255
171 205 255
171 205 255
171 205 255
171 205 255
171 205 255
172 205 255
172 205 255
172 205 255
172 205 255
172 205 255
172 205 255
172 205 255
172 205 255
172 205 255
172 206 255
172 206 255
172 206 255
172 206 255
172 206 255
173 206 255
173 206 255
173 206 255
173 206 255
173 206 255
173 206 255
173 206 255
173 206 255
173 206 255
173 206 255
173 206 255
173 206 255
173 206 255
173 206 255
174 206 255
174 206 255
174 206 255
174 206 255
174 206 255
174 207 255
174 207 255
174 207 255
174 207 255
174 207 255
174 207 255
174 207 255
174 207 255
174 207 255
174 207 255
174 207 255
175 207 255
175 207 255
175 207 255
175 207 255
175 207 255
175 207 255
174 207 255
174 207 255
174 207 255
174 207 255
174 207 255
174 207 255
174 207 255
174 207 255
174 207 255
174 207 255
174 207 255
174 206 255
174 206 255
174 206 255
174 206 255
174 206 255
173 206 255
173 206 255
173 206 255
173 206 255
173 206 255
173 206 255
173 206 255
173 206 255
173 206 255
173 206 255
173 206 255
173 206 255
173 206 255
173 206 255
172 206 255
172 206 255
172 206 255
172 206 255
172 206 255
172 205 255
172 205 255
172 205 255
172 205 255
172 205 255
172 205 255
172 205 255
172 205 255
172 205 255
171 205 255
171 205 255
171 205 255
171 205 255
171 205 255
171 205 255
171 205 255
171 205 255
171 205 255
171 205 255
171 205 255
171 205 255
171 205 255
170 204 255
170 204 255
170 204 255
170 204 255
170 204 255
170 204 255
170 204 255
170 204 255
170 204 255
170 204 255
170 204 255
169 204 255
169 204 255
169 204 255
169 204 255
169 204 255
169 204 255
169 204 255
169 204 255
169 203 255
169 203 255
169 203 255
169 203 255
168 203 255
168 203 255
168 203 255
168 203 255
168 203 255
168 203 255
168 203 255
168 203 255
168 203 255
168 203 255
168 203 255
167 203 255
167 203 255
167 203 255
167 202 255
167 202 255
167 202 255
167 202 255
167 202 255
167 202 255
167 202 255
167 202 255
166 202 255
166 202 255
166 202 255
166 202 255
166 202 255
166 202 255
166 202 255
166 202 255
166 202 255
166 202 255
166 202 255
165 201 255
165 201 255
165 201 255
165 201 255
165 201 255
165 201 255
165 201 255
165 201 255
165 201 255
165 201 255
165 201 255
164 201 255
164 201 255
164 201 255
164 201 255
164 201 255
164 201 255
164 201 255
164 200 255
164 200 255
164 200 255
164 200 255
163 200 255
163 200 255
163 200 255
163 200 255
163 200 255
163 200 255
163 200 255
163 200 255
163 200 255
163 200 255
163 200 255
163 200 255
163 200 255
162 200 255
162 200 255
162 200 255
162 200 255
162 200 255
162 199 255
162 199 255
162 199 255
162 199 255
162 199 255
162 199 255
162 199 255
162 199 255
162 199 255
162 199 255
161 199 255
161 199 255
161 199 255
161 199 255
161 199 255
161 199 255
161 199 255
161 199 255
161 199 255
161 199 255
161 199 255
152 187 241
117 145 188
98 124 163
77 97 128
75 95 125
74 93 121
74 94 124
74 93 122
75 93 121
75 94 122
75 94 122
74 93 122
74 93 122
76 95 122
76 95 124
73 91 118
75 93 120
75 94 122
71 90 119
70 89 117
73 93 122
75 94 123
77 96 124
75 94 122
73 92 120
74 94 124
73 92 121
76 95 124
74 93 121
76 95 124
74 93 120
75 95 125
73 93 122
71 90 118
75 95 124
71 90 118
73 93 122
74 94 123
76 96 126
91 113 147
117 146 189
148 183 236
161 199 255
161 199 255
161 199 255
161 199 255
161 199 255
161 199 255
161 199 255
161 199 255
161 199 255
161 199 255
162 199 255
162 199 255
162 199 255
162 199 255
162 199 255
162 199 255
162 199 255
162 199 255
162 199 255
162 199 255
162 199 255
162 200 255
162 200 255
162 200 255
162 200 255
162 200 255
163 200 255
163 200 255
163 200 255
163 200 255
163 200 255
163 200 255
163 200 255
163 200 255
163 200 255
163 200 255
163 200 255
163 200 255
163 200 255
164 200 255
164 200 255
164 200 255
164 200 255
164 201 255
164 201 255
164 201 255
164 201 255
164 201 255
164 201 255
164 201 255
165 201 255
165 201 255
165 201 255
165 201 255
165 201 255
165 201 255
165 201 255
165 201 255
165 201 255
165 201 255
165 201 255
166 202 255
166 202 255
166 202 255
166 202 255
166 202 255
166 202 255
166 202 255
166 202 255
166 202 255
166 202 255
166 202 255
167 202 255
167 202 255
167 202 255
167 202 255
167 202 255
167 202 255
167 202 255
167 203 255
167 203 255
167 203 255
167 203 255
168 203 255
168 203 255
168 203 255
168 203 255
168 203 255
168 203 255
168 203 255
168 203 255
168 203 255
168 203 255
168 203 255
169 203 255
169 203 255
169 203 255
169 203 255
169 204 255
169 204 255
169 204 255
169 204 255
169 204 255
169 204 255
169 204 255
169 204 255
170 204 255
170 204 255
170 204 255
170 204 255
170 204 255
170 204 255
170 204 255
170 204 255
170 204 255
170 204 255
170 204 255
170 204 255
171 205 255
171 205 255
171 205 255
171 205 255
171 205 255
171 205 255
171 205 255
171 205 255
171 205 255
171 205 255
171 205 255
171 205 255
172 205 255
172 205 255
172 205 255
172 205 255
172 205 255
172 205 255
172 205 255
172 205 255
172 205 255
172 206 255
172 206 255
172 206 255
172 206 255
172 206 255
173 206 255
173 206 255
173 206 255
173 206 255
173 206 255
173 206 255
173 206 255
173 206 255
173 206 255
173 206 255
173 206 255
173 206 255
173 206 255
173 206 255
174 206 255
174 206 255
174 206 255
174 206 255
174 206 255
174 207 255
174 207 255
174 207 255
174 207 255
174 207 255
174 207 255
174 207 255
174 207 255
174 207 255
174 207 255
174 207 255
175 207 255
175 207 255
175 207 255
175 207 255
175 207 255
175 207 255
175 207 255
175 207 255
175 207 255
175 207 255
175 207 255
175 207 255
175 207 255
175 207 255
174 207 255
174 207 255
174 207 255
174 207 255
174 207 255
174 207 255
174 207 255
174 207 255
174 207 255
174 207 255
174 207 255
174 206 255
174 206 255
174 206 255
174 206 255
174 206 255
173 206 255
173 206 255
173 206 255
173 206 255
173 206 255
173 206 255
173 206 255
173 206 255
173 206 255
173 206 255
173 206 255
173 206 255
173 206 255
173 206 255
172 206 255
172 206 255
172 206 255
172 206 255
172 206 255
172 205 255
172 205 255
172 205 255
172 205 255
172 205 255
172 205 255
172 205 255
172 205 255
172 205 255
171 205 255
171 205 255
171 205 255
171 205 255
171 205 255
171 205 255
171 205 255
171 205 255
171 205 255
171 205 255
171 205 255
171 205 255
170 204 255
170 204 255
170 204 255
170 204 255
170 204 255
170 204 255
170 204 255
170 204 255
170 204 255
170 204 255
170 204 255
170 204 255
169 204 255
169 204 255
169 204 255
169 204 255
169 204 255
169 204 255
169 204 255
169 204 255
169 203 255
169 203 255
169 203 255
168 203 255
168 203 255
168 203 255
168 203 255
168 203 255
168 203 255
168 203 255
168 203 255
168 203 255
168 203 255
168 203 255
168 203 255
167 203 255
167 203 255
167 203 255
167 202 255
167 202 255
167 202 255
167 202 255
167 202 255
167 202 255
167 202 255
167 202 255
166 202 255
166 202 255
166 202 255
166 202 255
166 202 255
166 202 255
166 202 255
166 202 255
166 202 255
166 202 255
166 202 255
165 201 255
165 201 255
165 201 255
165 201 255
165 201 255
165 201 255
165 201 255
165 201 255
165 201 255
165 201 255
165 201 255
164 201 255
164 201 255
164 201 255
164 201 255
164 201 255
164 201 255
164 201 255
164 200 255
164 200 255
164 200 255
164 200 255
164 200 255
163 200 255
163 200 255
163 200 255
163 200 255
163 200 255
163 200 255
163 200 255
163 200 255
163 200 255
163 200 255
163 200 255
163 200 255
163 200 255
163 200 255
162 200 255
162 200 255
162 200 255
162 200 255
162 200 255
162 199 255
162 199 255
162 199 255
162 199 255
162 199 255
162 199 255
162 199 255
162 199 255
162 199 255
162 199 255
162 199 255
162 199 255
154 190 245
121 150 193
94 118 154
76 95 124
76 95 124
74 93 122
74 93 122
75 94 122
74 93 122
74 93 122
75 94 122
72 91 119
73 92 121
73 92 119
75 94 122
75 94 122
76 95 123
76 95 124
74 92 120
72 91 119
74 93 121
74 94 123
72 89 115
70 90 119
74 93 120
74 93 121
74 93 122
75 94 123
76 96 124
71 91 120
73 92 120
75 95 124
73 92 121
76 95 123
77 96 125
73 93 121
75 93 120
74 93 120
71 90 119
76 95 122
74 94 124
72 91 119
73 93 122
75 94 122
76 95 124
88 110 143
120 150 195
155 191 245
162 199 255
162 199 255
162 199 255
162 199 255
162 199 255
162 199 255
162 199 255
162 199 255
162 199 255
162 199 255
162 199 255
162 199 255
162 200 255
162 200 255
162 200 255
162 200 255
162 200 255
162 200 255
163 200 255
163 200 255
163 200 255
163 200 255
163 200 255
163 200 255
163 200 255
163 200 255
163 200 255
163 200 255
163 200 255
163 200 255
163 200 255
164 200 255
164 200 255
164 200 255
164 200 255
164 200 255
164 201 255
164 201 255
164 201 255
164 201 255
164 201 255
164 201 255
164 201 255
164 201 255
165 201 255
165 201 255
165 201 255
165 201 255
165 201 255
165 201 255
165 201 255
165 201 255
165 201 255
165 201 255
165 201 255
166 202 255
166 202 255
166 202 255
166 202 255
166 202 255
166 202 255
166 202 255
166 202 255
166 202 255
166 202 255
166 202 255
167 202 255
167 202 255
167 202 255
167 202 255
167 202 255
167 202 255
167 202 255
167 203 255
167 203 255
167 203 255
168 203 255
168 203 255
168 203 255
168 203 255
168 203 255
168 203 255
168 203 255
168 203 255
168 203 255
168 203 255
168 203 255
168 203 255
169 203 255
169 203 255
169 203 255
169 204 255
169 204 255
169 204 255
169 204 255
169 204 255
169 204 255
169 204 255
169 204 255
170 204 255
170 204 255
170 204 255
170 204 255
170 204 255
170 204 255
170 204 255
170 204 255
170 204 255
170 204 255
170 204 255
170 204 255
171 205 255
171 205 255
171 205 255
171 205 255
171 205 255
171 205 255
171 205 255
171 205 255
171 205 255
171 205 255
171 205 255
171 205 255
172 205 255
172 205 255
172 205 255
172 205 255
172 205 255
172 205 255
172 205 255
172 205 255
172 205 255
172 206 255
172 206 255
172 206 255
172 206 255
172 206 255
173 206 255
173 206 255
173 206 255
173 206 255
173 206 255
173 206 255
173 206 255
173 206 255
173 206 255
173 206 255
173 206 255
173 206 255
173 206 255
173 206 255
174 206 255
174 206 255
174 206 255
174 206 255
174 206 255
174 207 255
174 207 255
174 207 255
174 207 255
174 207 255
174 207 255
174 207 255
174 207 255
174 207 255
174 207 255
174 207 255
175 207 255
175 207 255
175 207 255
175 207 255
175 207 255
175 207 255
175 207 255
175 207 255
175 207 255
175 207 255
175 207 255
175 207 255
175 207 255
175 207 255
175 207 255
175 207 255
175 207 255
175 207 255
175 207 255
175 207 255
175 207 255
175 207 255
174 207 255
174 207 255
174 207 255
174 207 255
174 207 255
174 207 255
174 207 255
174 207 255
174 207 255
174 207 255
174 207 255
174 206 255
174 206 255
174 206 255
174 206 255
174 206 255
173 206 255
173 206 255
173 206 255
173 206 255
173 206 255
173 206 255
173 206 255
173 206 255
173 206 255
173 206 255
173 206 255
173 206 255
173 206 255
173 206 255
172 206 255
172 206 255
172 206 255
172 206 255
172 206 255
172 205 255
172 205 255
172 205 255
172 205 255
172 205 255
172 205 255
172 205 255
172 205 255
172 205 255
171 205 255
171 205 255
171 205 255
171 205 255
171 205 255
171 205 255
171 205 255
171 205 255
171 205 255
171 205 255
171 205 255
171 205 255
170 204 255
170 204 255
170 204 255
170 204 255
170 204 255
170 204 255
170 204 255
170 204 255
170 204 255
170 204 255
170 204 255
170 204 255
169 204 255
169 204 255
169 204 255
169 204 255
169 204 255
169 204 255
169 204 255
169 204 255
169 203 255
169 203 255
169 203 255
168 203 255
168 203 255
168 203 255
168 203 255
168 203 255
168 203 255
168 203 255
168 203 255
168 203 255
168 203 255
168 203 255
167 203 255
167 203 255
167 203 255
167 203 255
167 202 255
167 202 255
167 202 255
167 202 255
167 202 255
167 202 255
167 202 255
166 202 255
166 202 255
166 202 255
166 202 255
166 202 255
166 202 255
166 202 255
166 202 255
166 202 255
166 202 255
166 202 255
165 201 255
165 201 255
165 201 255
165 201 255
165 201 255
165 201 255
165 201 255
165 201 255
165 201 255
165 201 255
165 201 255
165 201 255
164 201 255
164 201 255
164 201 255
164 201 255
164 201 255
164 201 255
164 201 255
164 201 255
164 200 255
164 200 255
164 200 255
164 200 255
163 200 255
163 200 255
163 200 255
163 200 255
163 200 255
163 200 255
163 200 255
163 200 255
163 200 255
163 200 255
163 200 255
163 200 255
163 200 255
163 200 255
163 200 255
162 200 255
162 200 255
162 200 255
162 200 255
162 200 255
162 200 255
162 199 255
162 199 255
162 199 255
161 198 254
142 175 225
103 128 165
77 97 127
71 90 119
74 92 120
77 96 125
74 93 122
76 95 122
74 93 122
76 95 124
73 93 122
74 92 120
74 94 124
75 94 122
73 92 120
76 95 122
76 95 123
76 95 123
73 91 119
74 93 121
74 93 122
73 92 122
72 90 117
75 93 120
75 94 124
76 94 122
73 92 121
72 91 120
72 90 117
74 93 120
77 95 123
75 93 120
69 88 117
75 94 123
74 92 120
77 96 124
71 90 118
75 94 123
74 92 119
74 93 121
74 92 120
73 92 120
73 93 122
73 94 124
73 93 122
74 93 122
74 93 121
72 91 120
75 94 124
76 97 128
105 131 170
144 178 228
162 199 255
162 199 255
162 199 255
162 199 255
162 200 255
162 200 255
162 200 255
162 200 255
162 200 255
162 200 255
163 200 255
163 200 255
163 200 255
163 200 255
163 200 255
163 200 255
163 200 255
163 200 255
163 200 255
163 200 255
163 200 255
163 200 255
163 200 255
163 200 255
164 200 255
164 200 255
164 200 255
164 200 255
164 200 255
164 201 255
164 201 255
164 201 255
164 201 255
164 201 255
164 201 255
164 201 255
164 201 255
165 201 255
165 201 255
165 201 255
165 201 255
165 201 255
165 201 255
165 201 255
165 201 255
165 201 255
165 201 255
165 201 255
165 201 255
166 202 255
166 202 255
166 202 255
166 202 255
166 202 255
166 202 255
166 202 255
166 202 255
166 202 255
166 202 255
166 202 255
167 202 255
167 202 255
167 202 255
167 202 255
167 202 255
167 202 255
167 202 255
167 203 255
167 203 255
167 203 255
167 203 255
168 203 255
168 203 255
168 203 255
168 203 255
168 203 255
168 203 255
168 203 255
168 203 255
168 203 255
168 203 255
168 203 255
169 203 255
169 203 255
169 203 255
169 203 255
169 204 255
169 204 255
169 204 255
169 204 255
169 204 255
169 204 255
169 204 255
170 204 255
170 204 255
170 204 255
170 204 255
170 204 255
170 204 255
170 204 255
170 204 255
170 204 255
170 204 255
170 204 255
170 204 255
171 205 255
171 205 255
171 205 255
171 205 255
171 205 255
171 205 255
171 205 255
171 205 255
171 205 255
171 205 255
171 205 255
171 205 255
171 205 255
172 205 255
172 205 255
172 205 255
172 205 255
172 205 255
172 205 255
172 205 255
172 205 255
172 206 255
172 206 255
172 206 255
172 206 255
172 206 255
173 206 255
173 206 255
173 206 255
173 206 255
173 206 255
173 206 255
173 206 255
173 206 255
173 206 255
173 206 255
173 206 255
173 206 255
173 206 255
173 206 255
174 206 255
174 206 255
174 206 255
174 206 255
174 206 255
174 207 255
174 207 255
174 207 255
174 207 255
174 207 255
174 207 255
174 207 255
174 207 255
174 207 255
174 207 255
175 207 255
175 207 255
175 207 255
175 207 255
175 207 255
175 207 255
175 207 255
175 207 255
175 207 255
175 207 255
175 207 255
175 207 255
175 207 255
175 207 255
176 208 255
175 207 255
175 207 255
175 207 255
175 207 255
175 207 255
175 207 255
175 207 255
175 207 255
175 207 255
175 207 255
175 207 255
175 207 255
175 207 255
175 207 255
175 207 255
175 207 255
175 207 255
174 207 255
174 207 255
174 207 255
174 207 255
174 207 255
174 207 255
174 207 255
174 207 255
174 207 255
174 207 255
174 206 255
174 206 255
174 206 255
174 206 255
174 206 255
173 206 255
173 206 255
173 206 255
173 206 255
173 206 255
173 206 255
173 206 255
173 206 255
173 206 255
173 206 255
173 206 255
173 206 255
173 206 255
173 206 255
172 206 255
172 206 255
172 206 255
172 206 255
172 206 255
172 205 255
172 205 255
172 205 255
172 205 255
172 205 255
172 205 255
172 205 255
172 205 255
171 205 255
171 205 255
171 205 255
171 205 255
171 205 255
171 205 255
171 205 255
171 205 255
171 205 255
171 205 255
171 205 255
171 205 255
171 205 255
170 204 255
170 204 255
170 204 255
170 204 255
170 204 255
170 204 255
170 204 255
170 204 255
170 204 255
170 204 255
170 204 255
170 204 255
169 204 255
169 204 255
169 204 255
169 204 255
169 204 255
169 204 255
169 204 255
169 203 255
169 203 255
169 203 255
169 203 255
168 203 255
168 203 255
168 203 255
168 203 255
168 203 255
168 203 255
168 203 255
168 203 255
168 203 255
168 203 255
168 203 255
167 203 255
167 203 255
167 203 255
167 203 255
167 202 255
167 202 255
167 202 255
167 202 255
167 202 255
167 202 255
167 202 255
166 202 255
166 202 255
166 202 255
166 202 255
166 202 255
166 202 255
166 202 255
166 202 255
166 202 255
166 202 255
166 202 255
166 202 255
165 201 255
165 201 255
165 201 255
165 201 255
165 201 255
165 201 255
165 201 255
165 201 255
165 201 255
165 201 255
165 201 255
164 201 255
164 201 255
164 201 255
164 201 255
164 201 255
164 201 255
164 201 255
164 201 255
164 201 255
164 200 255
164 200 255
164 200 255
164 200 255
164 200 255
163 200 255
163 200 255
163 200 255
163 200 255
163 200 255
163 200 255
163 200 255
163 200 255
163 200 255
163 200 255
163 200 255
163 200 255
163 200 255
163 200 255
163 200 255
163 200 255
161 198 253
124 154 199
99 122 157
73 93 122
74 93 123
73 92 120
77 96 125
71 89 117
75 94 124
73 92 120
74 93 122
75 93 121
76 95 123
74 93 120
73 92 120
71 89 116
75 94 122
73 91 119
74 92 120
72 91 119
72 89 115
73 92 120
74 93 122
73 91 119
71 90 119
74 93 122
76 94 122
74 93 122
71 89 117
72 91 119
72 91 120
72 92 120
72 91 119
74 92 120
74 92 119
73 91 119
74 93 122
75 93 120
72 91 119
70 88 115
70 89 117
75 94 123
73 92 119
74 93 122
75 94 122
71 89 117
72 90 117
74 94 122
73 92 120
72 91 119
75 94 122
73 92 120
74 93 122
74 93 120
75 94 123
99 123 159
136 168 215
163 200 255
163 200 255
163 200 255
163 200 255
163 200 255
163 200 255
163 200 255
163 200 255
163 200 255
163 200 255
163 200 255
163 200 255
163 200 255
163 200 255
163 200 255
163 200 255
163 200 255
164 200 255
164 200 255
164 200 255
164 200 255
164 200 255
164 201 255
164 201 255
164 201 255
164 201 255
164 201 255
164 201 255
164 201 255
164 201 255
164 201 255
165 201 255
165 201 255
165 201 255
165 201 255
165 201 255
165 201 255
165 201 255
165 201 255
165 201 255
165 201 255
165 201 255
166 202 255
166 202 255
166 202 255
166 202 255
166 202 255
166 202 255
166 202 255
166 202 255
166 202 255
166 202 255
166 202 255
166 202 255
167 202 255
167 202 255
167 202 255
167 202 255
167 202 255
167 202 255
167 202 255
167 203 255
167 203 255
167 203 255
167 203 255
168 203 255
168 203 255
168 203 255
168 203 255
168 203 255
168 203 255
168 203 255
168 203 255
168 203 255
168 203 255
168 203 255
169 203 255
169 203 255
169 203 255
169 203 255
169 204 255
169 204 255
169 204 255
169 204 255
169 204 255
169 204 255
169 204 255
170 204 255
170 204 255
170 204 255
170 204 255
170 204 255
170 204 255
170 204 255
170 204 255
170 204 255
170 204 255
170 204 255
170 204 255
171 205 255
171 205 255
171 205 255
171 205 255
171 205 255
171 205 255
171 205 255
171 205 255
171 205 255
171 205 255
171 205 255
171 205 255
171 205 255
172 205 255
172 205 255
172 205 255
172 205 255
172 205 255
172 205 255
172 205 255
172 205 255
172 206 255
172 206 255
172 206 255
172 206 255
172 206 255
173 206 255
173 206 255
173 206 255
173 206 255
173 206 255
173 206 255
173 206 255
173 206 255
173 206 255
173 206 255
173 206 255
173 206 255
173 206 255
173 206 255
174 206 255
174 206 255
174 206 255
174 206 255
174 206 255
174 207 255
174 207 255
174 207 255
174 207 255
174 207 255
174 207 255
174 207 255
174 207 255
174 207 255
174 207 255
175 207 255
175 207 255
175 207 255
175 207 255
175 207 255
175 207 255
175 207 255
175 207 255
175 207 255
175 207 255
175 207 255
175 207 255
175 207 255
175 207 255
175 207 255
175 207 255
175 207 255
176 208 255
176 208 255
176 208 255
176 208 255
176 208 255
176 208 255
176 208 255
175 207 255
175 207 255
175 207 255
175 207 255
175 207 255
175 207 255
175 207 255
175 207 255
175 207 255
175 207 255
175 207 255
175 207 255
175 207 255
175 207 255
175 207 255
175 207 255
174 207 255
174 207 255
174 207 255
174 207 255
174 207 255
174 207 255
174 207 255
174 207 255
174 207 255
174 207 255
174 206 255
174 206 255
174 206 255
174 206 255
174 206 255
173 206 255
173 206 255
173 206 255
173 206 255
173 206 255
173 206 255
173 206 255
173 206 255
173 206 255
173 206 255
173 206 255
173 206 255
173 206 255
173 206 255
172 206 255
172 206 255
172 206 255
172 206 255
172 206 255
172 205 255
172 205 255
172 205 255
172 205 255
172 205 255
172 205 255
172 205 255
172 205 255
171 205 255
171 205 255
171 205 255
171 205 255
171 205 255
171 205 255
171 205 255
171 205 255
171 205 255
171 205 255
171 205 255
171 205 255
171 205 255
170 204 255
170 204 255
170 204 255
170 204 255
170 204 255
170 204 255
170 204 255
170 204 255
170 204 255
170 204 255
170 204 255
169 204 255
169 204 255
169 204 255
169 204 255
169 204 255
169 204 255
169 204 255
169 204 255
169 203 255
169 203 255
169 203 255
169 203 255
168 203 255
168 203 255
168 203 255
168 203 255
168 203 255
168 203 255
168 203 255
168 203 255
168 203 255
168 203 255
168 203 255
167 203 255
167 203 255
167 203 255
167 203 255
167 202 255
167 202 255
167 202 255
167 202 255
167 202 255
167 202 255
167 202 255
166 202 255
166 202 255
166 202 255
166 202 255
166 202 255
166 202 255
166 202 255
166 202 255
166 202 255
166 202 255
166 202 255
166 202 255
165 201 255
165 201 255
165 201 255
165 201 255
165 201 255
165 201 255
165 201 255
165 201 255
165 201 255
165 201 255
165 201 255
165 201 255
164 201 255
164 201 255
164 201 255
164 201 255
164 201 255
164 201 255
164 201 255
164 201 255
164 201 255
164 201 255
164 200 255
164 200 255
164 200 255
164 200 255
163 200 255
163 200 255
163 200 255
163 200 255
163 200 255
163 200 255
163 200 255
163 200 255
163 200 255
161 198 253
124 154 198
87 108 141
74 93 121
72 91 119
73 93 123
70 89 117
74 93 121
73 92 120
73 91 118
75 93 120
74 93 120
73 92 120
74 93 121
74 92 120
73 92 120
75 93 122
74 93 122
75 93 119
73 92 120
74 93 121
73 92 121
73 92 119
72 91 119
73 92 121
73 91 119
71 88 115
73 92 120
76 94 120
70 90 119
75 93 120
71 90 117
74 92 120
75 93 120
72 91 119
71 90 117
74 92 120
72 90 118
72 91 119
73 91 119
76 94 122
73 92 119
78 96 124
73 92 120
73 93 122
74 93 122
75 94 122
75 94 122
72 91 119
75 93 121
74 92 119
73 92 120
71 90 118
76 95 124
74 94 122
74 92 120
77 95 122
73 93 122
71 90 118
88 110 145
130 160 205
162 199 254
163 200 255
163 200 255
163 200 255
163 200 255
163 200 255
163 200 255
163 200 255
163 200 255
164 200 255
164 200 255
164 200 255
164 200 255
164 200 255
164 200 255
164 201 255
164 201 255
164 201 255
164 201 255
164 201 255
164 201 255
164 201 255
164 201 255
164 201 255
165 201 255
165 201 255
165 201 255
165 201 255
165 201 255
165 201 255
165 201 255
165 201 255
165 201 255
165 201 255
165 201 255
165 201 255
166 202 255
166 202 255
166 202 255
166 202 255
166 202 255
166 202 255
166 202 255
166 202 255
166 202 255
166 202 255
166 202 255
166 202 255
167 202 255
167 202 255
167 202 255
167 202 255
167 202 255
167 202 255
167 202 255
167 203 255
167 203 255
167 203 255
167 203 255
168 203 255
168 203 255
168 203 255
168 203 255
168 203 255
168 203 255
168 203 255
168 203 255
168 203 255
168 203 255
168 203 255
169 203 255
169 203 255
169 203 255
169 203 255
169 204 255
169 204 255
169 204 255
169 204 255
169 204 255
169 204 255
169 204 255
169 204 255
170 204 255
170 204 255
170 204 255
170 204 255
170 204 255
170 204 255
170 204 255
170 204 255
170 204 255
170 204 255
170 204 255
171 205 255
171 205 255
171 205 255
171 205 255
171 205 255
171 205 255
171 205 255
171 205 255
171 205 255
171 205 255
171 205 255
171 205 255
171 205 255
172 205 255
172 205 255
172 205 255
172 205 255
172 205 255
172 205 255
172 205 255
172 205 255
172 206 255
172 206 255
172 206 255
172 206 255
172 206 255
173 206 255
173 206 255
173 206 255
173 206 255
173 206 255
173 206 255
173 206 255
173 206 255
173 206 255
173 206 255
173 206 255
173 206 255
173 206 255
173 206 255
174 206 255
174 206 255
174 206 255
174 206 255
174 206 255
174 207 255
174 207 255
174 207 255
174 207 255
174 207 255
174 207 255
174 207 255
174 207 255
174 207 255
174 207 255
175 207 255
175 207 255
175 207 255
175 207 255
175 207 255
175 207 255
175 207 255
175 207 255
175 207 255
175 207 255
175 207 255
175 207 255
175 207 255
175 207 255
175 207 255
175 207 255
176 208 255
176 208 255
176 208 255
176 208 255
176 208 255
176 208 255
176 208 255
176 208 255
176 208 255
176 208 255
176 208 255
176 208 255
176 208 255
176 208 255
176 208 255
176 208 255
175 207 255
175 207 255
175 207 255
175 207 255
175 207 255
175 207 255
175 207 255
175 207 255
175 207 255
175 207 255
175 207 255
175 207 255
175 207 255
175 207 255
175 207 255
175 207 255
174 207 255
174 207 255
174 207 255
174 207 255
174 207 255
174 207 255
174 207 255
174 207 255
174 207 255
174 207 255
174 207 255
174 206 255
174 206 255
174 206 255
174 206 255
173 206 255
173 206 255
173 206 255
173 206 255
173 206 255
173 206 255
173 206 255
173 206 255
173 206 255
173 206 255
173 206 255
173 206 255
173 206 255
173 206 255
172 206 255
172 206 255
172 206 255
172 206 255
172 206 255
172 205 255
172 205 255
172 205 255
172 205 255
172 205 255
172 205 255
172 205 255
172 205 255
171 205 255
171 205 255
171 205 255
171 205 255
171 205 255
171 205 255
171 205 255
171 205 255
171 205 255
171 205 255
171 205 255
171 205 255
170 204 255
170 204 255
170 204 255
170 204 255
170 204 255
170 204 255
170 204 255
170 204 255
170 204 255
170 204 255
170 204 255
170 204 255
169 204 255
169 204 255
169 204 255
169 204 255
169 204 255
169 204 255
169 204 255
169 204 255
169 203 255
169 203 255
169 203 255
169 203 255
168 203 255
168 203 255
168 203 255
168 203 255
168 203 255
168 203 255
168 203 255
168 203 255
168 203 255
168 203 255
168 203 255
167 203 255
167 203 255
167 203 255
167 203 255
167 202 255
167 202 255
167 202 255
167 202 255
167 202 255
167 202 255
167 202 255
167 202 255
166 202 255
166 202 255
166 202 255
166 202 255
166 202 255
166 202 255
166 202 255
166 202 255
166 202 255
166 202 255
166 202 255
166 202 255
165 201 255
165 201 255
165 201 255
165 201 255
165 201 255
165 201 255
165 201 255
165 201 255
165 201 255
165 201 255
165 201 255
165 201 255
164 201 255
164 201 255
164 201 255
164 201 255
164 201 255
164 201 255
164 201 255
164 201 255
164 201 255
164 201 255
164 201 255
164 200 255
164 200 255
164 200 255
164 200 255
164 200 255
163 200 255
138 170 217
91 113 147
72 91 119
76 94 122
75 93 120
71 89 116
73 92 121
74 92 119
70 88 116
74 93 120
72 90 118
76 95 124
74 92 120
74 93 122
73 91 119
74 92 120
76 95 122
70 89 117
73 91 118
72 91 118
76 95 122
72 89 116
75 93 120
77 95 123
72 89 115
74 92 118
74 93 120
72 91 118
72 90 118
73 92 121
74 93 122
72 91 119
73 90 116
73 91 119
72 91 119
72 90 117
73 91 119
74 93 122
74 93 121
75 93 122
73 91 117
74 93 120
74 93 120
76 93 120
72 89 116
71 90 117
73 92 120
74 93 120
72 91 119
76 93 120
75 93 121
72 91 118
73 92 120
75 94 122
71 90 118
74 93 122
72 90 117
74 93 121
73 92 120
74 94 122
77 96 125
77 95 122
96 120 155
136 167 214
163 200 255
164 200 255
164 200 255
164 200 255
164 200 255
164 200 255
164 201 255
164 201 255
164 201 255
164 201 255
164 201 255
164 201 255
164 201 255
164 201 255
164 201 255
164 201 255
165 201 255
165 201 255
165 201 255
165 201 255
165 201 255
165 201 255
165 201 255
165 201 255
165 201 255
165 201 255
165 201 255
165 201 255
165 201 255
166 202 255
166 202 255
166 202 255
166 202 255
166 202 255
166 202 255
166 202 255
166 202 255
166 202 255
166 202 255
166 202 255
166 202 255
167 202 255
167 202 255
167 202 255
167 202 255
167 202 255
167 202 255
167 202 255
167 202 255
167 203 255
167 203 255
167 203 255
167 203 255
168 203 255
168 203 255
168 203 255
168 203 255
168 203 255
168 203 255
168 203 255
168 203 255
168 203 255
168 203 255
168 203 255
169 203 255
169 203 255
169 203 255
169 203 255
169 204 255
169 204 255
169 204 255
169 204 255
169 204 255
169 204 255
169 204 255
170 204 255
170 204 255
170 204 255
170 204 255
170 204 255
170 204 255
170 204 255
170 204 255
170 204 255
170 204 255
170 204 255
170 204 255
170 204 255
171 205 255
171 205 255
171 205 255
171 205 255
171 205 255
171 205 255
171 205 255
171 205 255
171 205 255
171 205 255
171 205 255
171 205 255
172 205 255
172 205 255
172 205 255
172 205 255
172 205 255
172 205 255
172 205 255
172 205 255
172 206 255
172 206 255
172 206 255
172 206 255
172 206 255
173 206 255
173 206 255
173 206 255
173 206 255
173 206 255
173 206 255
173 206 255
173 206 255
173 206 255
173 206 255
173 206 255
173 206 255
173 206 255
173 206 255
174 206 255
174 206 255
174 206 255
174 206 255
174 207 255
174 207 255
174 207 255
174 207 255
174 207 255
174 207 255
174 207 255
174 207 255
174 207 255
174 207 255
174 207 255
175 207 255
175 207 255
175 207 255
175 207 255
175 207 255
175 207 255
175 207 255
175 207 255
175 207 255
175 207 255
175 207 255
175 207 255
175 207 255
175 207 255
175 207 255
175 207 255
176 208 255
176 208 255
176 208 255
176 208 255
176 208 255
176 208 255
176 208 255
176 208 255
176 208 255
176 208 255
176 208 255
176 208 255
176 208 255
176 208 255
176 208 255
176 208 255
176 208 255
176 208 255
176 208 255
176 208 255
176 208 255
176 208 255
176 208 255
176 208 255
176 208 255
175 207 255
175 207 255
175 207 255
175 207 255
175 207 255
175 207 255
175 207 255
175 207 255
175 207 255
175 207 255
175 207 255
175 207 255
175 207 255
175 207 255
175 207 255
175 207 255
174 207 255
174 207 255
174 207 255
174 207 255
174 207 255
174 207 255
174 207 255
174 207 255
174 207 255
174 207 255
174 206 255
174 206 255
174 206 255
174 206 255
173 206 255
173 206 255
173 206 255
173 206 255
173 206 255
173 206 255
173 206 255
173 206 255
173 206 255
173 206 255
173 206 255
173 206 255
173 206 255
173 206 255
172 206 255
172 206 255
172 206 255
172 206 255
172 206 255
172 205 255
172 205 255
172 205 255
172 205 255
172 205 255
172 205 255
172 205 255
172 205 255
171 205 255
171 205 255
171 205 255
171 205 255
171 205 255
171 205 255
171 205 255
171 205 255
171 205 255
171 205 255
171 205 255
171 205 255
171 205 255
170 204 255
170 204 255
170 204 255
170 204 255
170 204 255
170 204 255
170 204 255
170 204 255
170 204 255
170 204 255
170 204 255
170 204 255
169 204 255
169 204 255
169 204 255
169 204 255
169 204 255
169 204 255
169 204 255
169 203 255
169 203 255
169 203 255
169 203 255
168 203 255
168 203 255
168 203 255
168 203 255
168 203 255
168 203 255
168 203 255
168 203 255
168 203 255
168 203 255
168 203 255
167 203 255
167 203 255
167 203 255
167 203 255
167 202 255
167 202 255
167 202 255
167 202 255
167 202 255
167 202 255
167 202 255
167 202 255
166 202 255
166 202 255
166 202 255
166 202 255
166 202 255
166 202 255
166 202 255
166 202 255
166 202 255
166 202 255
166 202 255
166 202 255
165 201 255
165 201 255
165 201 255
165 201 255
165 201 255
165 201 255
165 201 255
165 201 255
165 201 255
165 201 255
165 201 255
165 201 255
165 201 255
165 201 255
164 201 255
164 201 255
164 201 255
164 201 255
164 201 255
164 201 255
164 201 255
164 201 255
164 201 255
146 180 230
100 124 160
79 98 126
73 91 118
71 90 117
73 90 117
73 92 120
76 94 122
73 91 119
75 93 120
75 93 120
76 94 121
76 95 122
72 90 117
69 87 113
73 92 119
74 93 120
76 95 123
73 91 117
74 93 122
72 90 117
74 92 120
72 90 118
71 89 116
73 91 117
75 93 120
74 92 119
74 92 119
75 94 122
75 93 120
73 91 120
73 91 119
75 94 121
74 92 119
76 95 122
69 87 114
73 91 118
69 87 113
74 92 119
75 92 119
75 93 120
71 90 118
73 91 118
69 88 115
72 90 119
72 90 117
71 90 118
75 93 119
77 94 120
73 92 120
71 89 117
75 93 120
74 92 119
68 86 112
73 92 120
71 90 118
75 93 120
70 88 114
75 94 122
73 92 120
72 90 117
70 88 117
72 91 119
77 96 124
75 93 121
75 94 122
92 114 147
151 185 236
164 201 255
164 201 255
164 201 255
164 201 255
164 201 255
164 201 255
164 201 255
164 201 255
164 201 255
165 201 255
165 201 255
165 201 255
165 201 255
165 201 255
165 201 255
165 201 255
165 201 255
165 201 255
165 201 255
165 201 255
165 201 255
165 201 255
165 201 255
166 202 255
166 202 255
166 202 255
166 202 255
166 202 255
166 202 255
166 202 255
166 202 255
166 202 255
166 202 255
166 202 255
166 202 255
167 202 255
167 202 255
167 202 255
167 202 255
167 202 255
167 202 255
167 202 255
167 202 255
167 203 255
167 203 255
167 203 255
167 203 255
168 203 255
168 203 255
168 203 255
168 203 255
168 203 255
168 203 255
168 203 255
168 203 255
168 203 255
168 203 255
168 203 255
169 203 255
169 203 255
169 203 255
169 203 255
169 204 255
169 204 255
169 204 255
169 204 255
169 204 255
169 204 255
169 204 255
169 204 255
170 204 255
170 204 255
170 204 255
170 204 255
170 204 255
170 204 255
170 204 255
170 204 255
170 204 255
170 204 255
170 204 255
170 204 255
171 205 255
171 205 255
171 205 255
171 205 255
171 205 255
171 205 255
171 205 255
171 205 255
171 205 255
171 205 255
171 205 255
171 205 255
172 205 255
172 205 255
172 205 255
172 205 255
172 205 255
172 205 255
172 205 255
172 205 255
172 206 255
172 206 255
172 206 255
172 206 255
172 206 255
173 206 255
173 206 255
173 206 255
173 206 255
173 206 255
173 206 255
173 206 255
173 206 255
173 206 255
173 206 255
173 206 255
173 206 255
173 206 255
173 206 255
174 206 255
174 206 255
174 206 255
174 206 255
174 207 255
174 207 255
174 207 255
174 207 255
174 207 255
174 207 255
174 207 255
174 207 255
174 207 255
174 207 255
175 207 255
175 207 255
175 207 255
175 207 255
175 207 255
175 207 255
175 207 255
175 207 255
175 207 255
175 207 255
175 207 255
175 207 255
175 207 255
175 207 255
175 207 255
175 207 255
175 207 255
176 208 255
176 208 255
176 208 255
176 208 255
176 208 255
176 208 255
176 208 255
176 208 255
176 208 255
176 208 255
176 208 255
176 208 255
176 208 255
176 208 255
177 208 255
177 208 255
176 208 255
176 208 255
176 208 255
176 208 255
176 208 255
176 208 255
176 208 255
176 208 255
176 208 255
176 208 255
176 208 255
176 208 255
176 208 255
176 208 255
176 208 255
176 208 255
176 208 255
175 207 255
175 207 255
175 207 255
175 207 255
175 207 255
175 207 255
175 207 255
175 207 255
175 207 255
175 207 255
175 207 255
175 207 255
175 207 255
175 207 255
175 207 255
175 207 255
174 207 255
174 207 255
174 207 255
174 207 255
174 207 255
174 207 255
174 207 255
174 207 255
174 207 255
174 207 255
174 206 255
174 206 255
174 206 255
174 206 255
174 206 255
173 206 255
173 206 255
173 206 255
173 206 255
173 206 255
173 206 255
173 206 255
173 206 255
173 206 255
173 206 255
173 206 255
173 206 255
173 206 255
173 206 255
172 206 255
172 206 255
172 206 255
172 206 255
172 205 255
172 205 255
172 205 255
172 205 255
172 205 255
172 205 255
172 205 255
172 205 255
171 205 255
171 205 255
171 205 255
171 205 255
171 205 255
171 205 255
171 205 255
171 205 255
171 205 255
171 205 255
171 205 255
171 205 255
170 204 255
170 204 255
170 204 255
170 204 255
170 204 255
170 204 255
170 204 255
170 204 255
170 204 255
170 204 255
170 204 255
170 204 255
169 204 255
169 204 255
169 204 255
169 204 255
169 204 255
169 204 255
169 204 255
169 204 255
169 203 255
169 203 255
169 203 255
169 203 255
168 203 255
168 203 255
168 203 255
168 203 255
168 203 255
168 203 255
168 203 255
168 203 255
168 203 255
168 203 255
168 203 255
168 203 255
167 203 255
167 203 255
167 203 255
167 202 255
167 202 255
167 202 255
167 202 255
167 202 255
167 202 255
167 202 255
167 202 255
167 202 255
166 202 255
166 202 255
166 202 255
166 202 255
166 202 255
166 202 255
166 202 255
166 202 255
166 202 255
166 202 255
166 202 255
166 202 255
166 202 255
165 201 255
165 201 255
165 201 255
165 201 255
165 201 255
165 201 255
165 201 255
165 201 255
165 201 255
165 201 255
165 201 255
165 201 255
165 201 255
165 201 255
165 201 255
161 197 251
119 146 188
78 98 127
74 92 120
73 93 122
72 90 119
77 95 122
75 92 119
75 94 122
73 92 120
72 90 117
74 92 120
72 90 118
74 93 120
74 93 120
74 92 119
74 93 120
72 91 119
75 94 122
75 93 120
75 92 117
74 93 122
71 89 115
70 88 115
70 88 116
72 90 118
74 92 119
74 92 118
71 89 116
74 92 119
75 93 120
74 91 118
71 90 119
72 90 117
75 94 123
73 92 119
73 91 118
72 91 119
72 91 119
72 90 116
71 89 116
72 90 118
72 90 117
71 90 118
76 94 120
73 92 120
75 94 122
74 92 118
72 91 120
71 90 119
73 92 120
75 94 122
71 89 117
77 94 121
70 89 117
70 88 115
72 90 117
73 92 120
77 96 124
73 91 118
74 91 118
73 91 118
74 93 121
69 89 118
74 92 119
72 91 119
77 95 122
71 90 119
75 94 122
73 93 122
110 136 175
162 198 252
164 201 255
165 201 255
165 201 255
165 201 255
165 201 255
165 201 255
165 201 255
165 201 255
165 201 255
165 201 255
165 201 255
165 201 255
165 201 255
165 201 255
165 201 255
165 201 255
166 202 255
166 202 255
166 202 255
166 202 255
166 202 255
166 202 255
166 202 255
166 202 255
166 202 255
166 202 255
166 202 255
166 202 255
167 202 255
167 202 255
167 202 255
167 202 255
167 202 255
167 202 255
167 202 255
167 202 255
167 203 255
167 203 255
167 203 255
167 203 255
168 203 255
168 203 255
168 203 255
168 203 255
168 203 255
168 203 255
168 203 255
168 203 255
168 203 255
168 203 255
168 203 255
168 203 255
169 203 255
169 203 255
169 203 255
169 203 255
169 204 255
169 204 255
169 204 255
169 204 255
169 204 255
169 204 255
169 204 255
170 204 255
170 204 255
170 204 255
170 204 255
170 204 255
170 204 255
170 204 255
170 204 255
170 204 255
170 204 255
170 204 255
170 204 255
171 205 255
171 205 255
171 205 255
171 205 255
171 205 255
171 205 255
171 205 255
171 205 255
171 205 255
171 205 255
171 205 255
171 205 255
171 205 255
172 205 255
172 205 255
172 205 255
172 205 255
172 205 255
172 205 255
172 205 255
172 205 255
172 206 255
172 206 255
172 206 255
172 206 255
173 206 255
173 206 255
173 206 255
173 206 255
173 206 255
173 206 255
173 206 255
173 206 255
173 206 255
173 206 255
173 206 255
173 206 255
173 206 255
173 206 255
174 206 255
174 206 255
174 206 255
174 206 255
174 206 255
174 207 255
174 207 255
174 207 255
174 207 255
174 207 255
174 207 255
174 207 255
174 207 255
174 207 255
174 207 255
175 207 255
175 207 255
175 207 255
175 207 255
175 207 255
175 207 255
175 207 255
175 207 255
175 207 255
175 207 255
175 207 255
175 207 255
175 207 255
175 207 255
175 207 255
175 207 255
176 208 255
176 208 255
176 208 255
176 208 255
176 208 255
176 208 255
176 208 255
176 208 255
176 208 255
176 208 255
176 208 255
176 208 255
176 208 255
176 208 255
176 208 255
176 208 255
176 208 255
176 208 255
177 208 255
177 208 255
177 208 255
177 208 255
177 208 255
177 208 255
177 208 255
176 208 255
176 208 255
176 208 255
176 208 255
176 208 255
176 208 255
176 208 255
176 208 255
176 208 255
176 208 255
176 208 255
176 208 255
176 208 255
176 208 255
176 208 255
176 208 255
176 208 255
176 208 255
175 207 255
175 207 255
175 207 255
175 207 255
175 207 255
175 207 255
175 207 255
175 207 255
175 207 255
175 207 255
175 207 255
175 207 255
175 207 255
175 207 255
175 207 255
175 207 255
174 207 255
174 207 255
174 207 255
174 207 255
174 207 255
174 207 255
174 207 255
174 207 255
174 207 255
174 206 255
174 206 255
174 206 255
174 206 255
174 206 255
173 206 255
173 206 255
173 206 255
173 206 255
173 206 255
173 206 255
173 206 255
173 206 255
173 206 255
173 206 255
173 206 255
173 206 255
173 206 255
172 206 255
172 206 255
172 206 255
172 206 255
172 206 255
172 205 255
172 205 255
172 205 255
172 205 255
172 205 255
172 205 255
172 205 255
172 205 255
172 205 255
171 205 255
171 205 255
171 205 255
171 205 255
171 205 255
171 205 255
171 205 255
171 205 255
171 205 255
171 205 255
171 205 255
171 205 255
170 204 255
170 204 255
170 204 255
170 204 255
170 204 255
170 204 255
170 204 255
170 204 255
170 204 255
170 204 255
170 204 255
169 204 255
169 204 255
169 204 255
169 204 255
169 204 255
169 204 255
169 204 255
169 204 255
169 203 255
169 203 255
169 203 255
169 203 255
168 203 255
168 203 255
168 203 255
168 203 255
168 203 255
168 203 255
168 203 255
168 203 255
168 203 255
168 203 255
168 203 255
168 203 255
167 203 255
167 203 255
167 203 255
167 203 255
167 202 255
167 202 255
167 202 255
167 202 255
167 202 255
167 202 255
167 202 255
167 202 255
167 202 255
166 202 255
166 202 255
166 202 255
166 202 255
166 202 255
166 202 255
166 202 255
166 202 255
166 202 255
166 202 255
166 202 255
166 202 255
166 202 255
165 201 255
165 201 255
165 201 255
165 201 255
165 201 255
165 201 255
165 201 255
165 201 255
165 201 255
150 184 234
92 115 151
74 94 123
74 93 122
75 93 120
72 91 120
72 90 119
72 91 118
73 91 118
71 90 118
74 92 119
76 93 120
72 90 119
75 94 121
73 91 117
71 88 115
76 95 122
70 87 113
72 89 115
73 91 119
70 88 115
72 90 117
72 90 116
73 91 118
69 88 116
73 90 116
75 93 120
70 88 114
73 92 120
71 90 117
72 90 117
70 88 114
72 91 119
70 88 115
71 88 115
73 91 119
74 92 119
71 90 117
76 95 123
69 88 115
73 92 119
76 93 119
72 90 116
76 95 124
69 88 115
75 93 120
73 91 119
71 90 117
70 88 113
71 89 115
71 90 118
73 91 118
77 94 121
72 89 115
72 90 117
77 96 124
72 90 118
74 92 120
73 90 117
71 88 115
71 90 118
74 92 118
75 93 121
72 91 118
73 91 119
74 92 120
75 93 120
71 90 117
73 91 119
70 89 117
74 92 120
75 93 120
80 101 133
136 168 215
165 201 255
165 201 255
165 201 255
165 201 255
165 201 255
165 201 255
165 201 255
165 201 255
165 201 255
166 202 255
166 202 255
166 202 255
166 202 255
166 202 255
166 202 255
166 202 255
166 202 255
166 202 255
166 202 255
166 202 255
166 202 255
166 202 255
166 202 255
167 202 255
167 202 255
167 202 255
167 202 255
167 202 255
167 202 255
167 202 255
167 203 255
167 203 255
167 203 255
167 203 255
167 203 255
168 203 255
168 203 255
168 203 255
168 203 255
168 203 255
168 203 255
168 203 255
168 203 255
168 203 255
168 203 255
168 203 255
168 203 255
169 203 255
169 203 255
169 203 255
169 204 255
169 204 255
169 204 255
169 204 255
169 204 255
169 204 255
169 204 255
169 204 255
170 204 255
170 204 255
170 204 255
170 204 255
170 204 255
170 204 255
170 204 255
170 204 255
170 204 255
170 204 255
170 204 255
170 204 255
171 205 255
171 205 255
171 205 255
171 205 255
171 205 255
171 205 255
171 205 255
171 205 255
171 205 255
171 205 255
171 205 255
171 205 255
172 205 255
172 205 255
172 205 255
172 205 255
172 205 255
172 205 255
172 205 255
172 205 255
172 205 255
172 206 255
172 206 255
172 206 255
172 206 255
173 206 255
173 206 255
173 206 255
173 206 255
173 206 255
173 206 255
173 206 255
173 206 255
173 206 255
173 206 255
173 206 255
173 206 255
173 206 255
173 206 255
174 206 255
174 206 255
174 206 255
174 206 255
174 206 255
174 207 255
174 207 255
174 207 255
174 207 255
174 207 255
174 207 255
174 207 255
174 207 255
174 207 255
175 207 255
175 207 255
175 207 255
175 207 255
175 207 255
175 207 255
175 207 255
175 207 255
175 207 255
175 207 255
175 207 255
175 207 255
175 207 255
175 207 255
175 207 255
175 207 255
176 208 255
176 208 255
176 208 255
176 208 255
176 208 255
176 208 255
176 208 255
176 208 255
176 208 255
176 208 255
176 208 255
176 208 255
176 208 255
176 208 255
176 208 255
176 208 255
176 208 255
176 208 255
177 208 255
177 208 255
177 208 255
177 208 255
177 208 255
177 208 255
177 208 255
177 208 255
177 208 255
177 208 255
177 208 255
177 208 255
177 208 255
177 208 255
177 208 255
177 208 255
177 208 255
176 208 255
176 208 255
176 208 255
176 208 255
176 208 255
176 208 255
176 208 255
176 208 255
176 208 255
176 208 255
176 208 255
176 208 255
176 208 255
176 208 255
176 208 255
176 208 255
176 208 255
176 208 255
175 207 255
175 207 255
175 207 255
175 207 255
175 207 255
175 207 255
175 207 255
175 207 255
175 207 255
175 207 255
175 207 255
175 207 255
175 207 255
175 207 255
175 207 255
174 207 255
174 207 255
174 207 255
174 207 255
174 207 255
174 207 255
174 207 255
174 207 255
174 207 255
174 207 255
174 206 255
174 206 255
174 206 255
174 206 255
173 206 255
173 206 255
173 206 255
173 206 255
173 206 255
173 206 255
173 206 255
173 206 255
173 206 255
173 206 255
173 206 255
173 206 255
173 206 255
173 206 255
172 206 255
172 206 255
172 206 255
172 206 255
172 205 255
172 205 255
172 205 255
172 205 255
172 205 255
172 205 255
172 205 255
172 205 255
172 205 255
171 205 255
171 205 255
171 205 255
171 205 255
171 205 255
171 205 255
171 205 255
171 205 255
171 205 255
171 205 255
171 205 255
171 205 255
170 204 255
170 204 255
170 204 255
170 204 255
170 204 255
170 204 255
170 204 255
170 204 255
170 204 255
170 204 255
170 204 255
170 204 255
169 204 255
169 204 255
169 204 255
169 204 255
169 204 255
169 204 255
169 204 255
169 204 255
169 203 255
169 203 255
169 203 255
169 203 255
168 203 255
168 203 255
168 203 255
168 203 255
168 203 255
168 203 255
168 203 255
168 203 255
168 203 255
168 203 255
168 203 255
168 203 255
167 203 255
167 203 255
167 203 255
167 203 255
167 202 255
167 202 255
167 202 255
167 202 255
167 202 255
167 202 255
167 202 255
167 202 255
167 202 255
166 202 255
166 202 255
166 202 255
166 202 255
166 202 255
166 202 255
166 202 255
166 202 255
166 202 255
166 202 255
166 202 255
166 202 255
166 202 255
166 202 255
166 202 255
164 200 253
124 152 195
78 97 125
73 93 122
73 91 119
74 92 119
71 88 115
73 93 122
74 93 121
72 90 118
73 90 116
72 90 118
73 91 118
73 92 120
75 92 119
72 90 116
73 92 119
76 95 122
74 92 120
73 92 120
71 88 114
72 90 116
75 93 120
74 92 119
73 91 119
75 93 120
68 85 111
74 92 118
73 91 117
71 89 117
74 92 119
72 90 117
74 92 120
75 93 119
75 92 119
73 90 117
72 89 115
72 90 117
72 89 114
73 91 119
74 92 119
71 89 116
75 93 120
71 89 117
74 92 119
74 92 120
73 91 117
73 91 117
73 91 118
73 91 118
73 91 119
73 91 118
70 88 115
70 88 113
71 89 116
73 90 116
74 92 119
73 91 117
72 90 116
76 95 123
75 92 117
76 94 121
72 90 117
71 89 116
72 91 118
72 90 118
74 92 119
73 90 117
73 90 116
73 91 117
73 92 119
74 92 119
74 92 119
76 95 124
73 90 115
73 93 121
119 145 185
163 198 252
166 202 255
166 202 255
166 202 255
166 202 255
166 202 255
166 202 255
166 202 255
166 202 255
166 202 255
166 202 255
166 202 255
166 202 255
166 202 255
166 202 255
166 202 255
167 202 255
167 202 255
167 202 255
167 202 255
167 202 255
167 202 255
167 202 255
167 202 255
167 202 255
167 203 255
167 203 255
167 203 255
167 203 255
168 203 255
168 203 255
168 203 255
168 203 255
168 203 255
168 203 255
168 203 255
168 203 255
168 203 255
168 203 255
168 203 255
168 203 255
169 203 255
169 203 255
169 203 255
169 203 255
169 204 255
169 204 255
169 204 255
169 204 255
169 204 255
169 204 255
169 204 255
169 204 255
170 204 255
170 204 255
170 204 255
170 204 255
170 204 255
170 204 255
170 204 255
170 204 255
170 204 255
170 204 255
170 204 255
170 204 255
171 205 255
171 205 255
171 205 255
171 205 255
171 205 255
171 205 255
171 205 255
171 205 255
171 205 255
171 205 255
171 205 255
171 205 255
172 205 255
172 205 255
172 205 255
172 205 255
172 205 255
172 205 255
172 205 255
172 205 255
172 205 255
172 206 255
172 206 255
172 206 255
172 206 255
173 206 255
173 206 255
173 206 255
173 206 255
173 206 255
173 206 255
173 206 255
173 206 255
173 206 255
173 206 255
173 206 255
173 206 255
173 206 255
173 206 255
174 206 255
174 206 255
174 206 255
174 206 255
174 207 255
174 207 255
174 207 255
174 207 255
174 207 255
174 207 255
174 207 255
174 207 255
174 207 255
174 207 255
175 207 255
175 207 255
175 207 255
175 207 255
175 207 255
175 207 255
175 207 255
175 207 255
175 207 255
175 207 255
175 207 255
175 207 255
175 207 255
175 207 255
175 207 255
175 207 255
176 208 255
176 208 255
176 208 255
176 208 255
176 208 255
176 208 255
176 208 255
176 208 255
176 208 255
176 208 255
176 208 255
176 208 255
176 208 255
176 208 255
176 208 255
176 208 255
176 208 255
177 208 255
177 208 255
177 208 255
177 208 255
177 208 255
177 208 255
177 208 255
177 208 255
177 208 255
177 208 255
177 208 255
177 209 255
177 209 255
177 209 255
177 209 255
177 208 255
177 208 255
177 208 255
177 208 255
177 208 255
177 208 255
177 208 255
177 208 255
177 208 255
177 208 255
177 208 255
177 208 255
176 208 255
176 208 255
176 208 255
176 208 255
176 208 255
176 208 255
176 208 255
176 208 255
176 208 255
176 208 255
176 208 255
176 208 255
176 208 255
176 208 255
176 208 255
176 208 255
176 208 255
175 207 255
175 207 255
175 207 255
175 207 255
175 207 255
175 207 255
175 207 255
175 207 255
175 207 255
175 207 255
175 207 255
175 207 255
175 207 255
175 207 255
175 207 255
174 207 255
174 207 255
174 207 255
174 207 255
174 207 255
174 207 255
174 207 255
174 207 255
174 207 255
174 207 255
174 206 255
174 206 255
174 206 255
174 206 255
174 206 255
173 206 255
173 206 255
173 206 255
173 206 255
173 206 255
173 206 255
173 206 255
173 206 255
173 206 255
173 206 255
173 206 255
173 206 255
173 206 255
172 206 255
172 206 255
172 206 255
172 206 255
172 205 255
172 205 255
172 205 255
172 205 255
172 205 255
172 205 255
172 205 255
172 205 255
172 205 255
171 205 255
171 205 255
171 205 255
171 205 255
171 205 255
171 205 255
171 205 255
171 205 255
171 205 255
171 205 255
171 205 255
171 205 255
170 204 255
170 204 255
170 204 255
170 204 255
170 204 255
170 204 255
170 204 255
170 204 255
170 204 255
170 204 255
170 204 255
170 204 255
169 204 255
169 204 255
169 204 255
169 204 255
169 204 255
169 204 255
169 204 255
169 204 255
169 203 255
169 203 255
169 203 255
169 203 255
168 203 255
168 203 255
168 203 255
168 203 255
168 203 255
168 203 255
168 203 255
168 203 255
168 203 255
168 203 255
168 203 255
168 203 255
168 203 255
167 203 255
167 203 255
167 203 255
167 203 255
167 202 255
167 202 255
167 202 255
167 202 255
167 202 255
167 202 255
167 202 255
167 202 255
167 202 255
166 202 255
166 202 255
166 202 255
166 202 255
166 202 255
166 202 255
166 202 255
166 202 255
166 202 255
155 188 239
94 115 147
74 92 119
71 90 119
73 91 119
71 90 117
75 93 120
72 90 116
71 90 118
73 91 119
74 92 119
74 92 119
73 91 118
72 90 117
73 92 119
74 92 119
73 91 118
71 89 115
75 93 120
71 89 117
76 94 121
73 92 119
73 91 117
70 88 116
72 89 116
71 89 115
71 88 115
71 89 115
74 91 117
70 89 118
74 91 117
71 88 113
75 93 120
75 93 120
72 90 116
71 90 119
71 88 114
72 90 118
72 89 115
72 90 116
67 84 110
73 90 115
73 92 119
73 90 115
73 90 115
71 88 114
74 92 120
74 92 118
73 90 116
72 90 118
70 87 112
73 90 117
71 89 117
74 92 119
73 90 117
73 90 117
72 90 117
73 91 117
73 91 117
72 89 115
72 91 118
71 89 115
74 92 120
71 89 115
73 91 119
74 91 118
71 89 117
72 90 118
75 92 118
73 91 117
74 93 121
71 89 117
74 92 119
73 91 117
73 91 117
72 90 117
75 93 121
72 91 118
91 114 147
152 186 236
166 202 255
166 202 255
166 202 255
166 202 255
166 202 255
166 202 255
166 202 255
166 202 255
166 202 255
167 202 255
167 202 255
167 202 255
167 202 255
167 202 255
167 202 255
167 202 255
167 202 255
167 202 255
167 203 255
167 203 255
167 203 255
167 203 255
168 203 255
168 203 255
168 203 255
168 203 255
168 203 255
168 203 255
168 203 255
168 203 255
168 203 255
168 203 255
168 203 255
168 203 255
169 203 255
169 203 255
169 203 255
169 203 255
169 203 255
169 204 255
169 204 255
169 204 255
169 204 255
169 204 255
169 204 255
169 204 255
169 204 255
170 204 255
170 204 255
170 204 255
170 204 255
170 204 255
170 204 255
170 204 255
170 204 255
170 204 255
170 204 255
170 204 255
170 204 255
171 205 255
171 205 255
171 205 255
171 205 255
171 205 255
171 205 255
171 205 255
171 205 255
171 205 255
171 205 255
171 205 255
171 205 255
172 205 255
172 205 255
172 205 255
172 205 255
172 205 255
172 205 255
172 205 255
172 205 255
172 206 255
172 206 255
172 206 255
172 206 255
172 206 255
173 206 255
173 206 255
173 206 255
173 206 255
173 206 255
173 206 255
173 206 255
173 206 255
173 206 255
173 206 255
173 206 255
173 206 255
173 206 255
174 206 255
174 206 255
174 206 255
174 206 255
174 206 255
174 207 255
174 207 255
174 207 255
174 207 255
174 207 255
174 207 255
174 207 255
174 207 255
174 207 255
174 207 255
175 207 255
175 207 255
175 207 255
175 207 255
175 207 255
175 207 255
175 207 255
175 207 255
175 207 255
175 207 255
175 207 255
175 207 255
175 207 255
175 207 255
175 207 255
176 208 255
176 208 255
176 208 255
176 208 255
176 208 255
176 208 255
176 208 255
176 208 255
176 208 255
176 208 255
176 208 255
176 208 255
176 208 255
176 208 255
176 208 255
176 208 255
176 208 255
177 208 255
177 208 255
177 208 255
177 208 255
177 208 255
177 208 255
177 208 255
177 208 255
177 208 255
177 208 255
177 208 255
177 208 255
177 209 255
177 209 255
177 209 255
177 209 255
178 209 255
178 209 255
177 209 255
177 209 255
177 209 255
177 209 255
177 209 255
177 209 255
177 209 255
177 208 255
177 208 255
177 208 255
177 208 255
177 208 255
177 208 255
177 208 255
177 208 255
177 208 255
177 208 255
177 208 255
177 208 255
176 208 255
176 208 255
176 208 255
176 208 255
176 208 255
176 208 255
176 208 255
176 208 255
176 208 255
176 208 255
176 208 255
176 208 255
176 208 255
176 208 255
176 208 255
176 208 255
176 208 255
175 207 255
175 207 255
175 207 255
175 207 255
175 207 255
175 207 255
175 207 255
175 207 255
175 207 255
175 207 255
175 207 255
175 207 255
175 207 255
175 207 255
175 207 255
174 207 255
174 207 255
174 207 255
174 207 255
174 207 255
174 207 255
174 207 255
174 207 255
174 207 255
174 207 255
174 206 255
174 206 255
174 206 255
174 206 255
173 206 255
173 206 255
173 206 255
173 206 255
173 206 255
173 206 255
173 206 255
173 206 255
173 206 255
173 206 255
173 206 255
173 206 255
173 206 255
173 206 255
172 206 255
172 206 255
172 206 255
172 206 255
172 205 255
172 205 255
172 205 255
172 205 255
172 205 255
172 205 255
172 205 255
172 205 255
171 205 255
171 205 255
171 205 255
171 205 255
171 205 255
171 205 255
171 205 255
171 205 255
171 205 255
171 205 255
171 205 255
171 205 255
171 205 255
170 204 255
170 204 255
170 204 255
170 204 255
170 204 255
170 204 255
170 204 255
170 204 255
170 204 255
170 204 255
170 204 255
170 204 255
169 204 255
169 204 255
169 204 255
169 204 255
169 204 255
169 204 255
169 204 255
169 204 255
169 203 255
169 203 255
169 203 255
169 203 255
168 203 255
168 203 255
168 203 255
168 203 255
168 203 255
168 203 255
168 203 255
168 203 255
168 203 255
168 203 255
168 203 255
168 203 255
168 203 255
167 203 255
167 203 255
167 203 255
167 203 255
167 203 255
167 202 255
167 202 255
167 202 255
167 202 255
167 202 255
167 202 255
167 202 255
167 202 255
167 202 255
167 202 255
166 202 255
147 178 226
76 95 123
74 93 121
73 92 119
71 90 119
73 91 119
74 91 117
71 89 116
74 93 120
72 89 116
75 93 121
73 92 119
71 89 115
72 90 116
71 89 115
74 92 119
72 89 115
68 85 112
72 89 115
72 90 117
72 90 116
72 90 117
71 89 115
74 91 117
69 87 114
74 92 118
74 92 118
71 88 114
69 87 113
71 88 114
72 89 115
71 89 116
72 90 116
71 88 114
71 88 115
72 89 116
69 86 112
72 91 119
70 87 113
74 92 118
73 90 116
73 91 119
72 89 116
73 90 115
73 90 115
71 89 117
70 88 114
70 88 115
74 93 120
70 88 115
74 92 120
68 85 112
72 89 115
71 89 116
75 92 119
72 90 117
71 88 114
71 88 113
72 90 117
71 89 115
73 90 117
73 91 119
72 89 115
73 91 119
72 90 117
75 93 120
72 90 117
74 91 117
73 89 114
76 94 121
72 91 119
72 89 115
73 91 118
72 90 118
72 90 118
71 91 119
74 93 121
72 90 117
74 92 120
74 93 120
83 103 133
138 168 213
166 202 255
166 202 255
167 202 255
167 202 255
167 202 255
167 202 255
167 202 255
167 202 255
167 202 255
167 202 255
167 202 255
167 202 255
167 203 255
167 203 255
167 203 255
167 203 255
168 203 255
168 203 255
168 203 255
168 203 255
168 203 255
168 203 255
168 203 255
168 203 255
168 203 255
168 203 255
168 203 255
168 203 255
168 203 255
169 203 255
169 203 255
169 203 255
169 203 255
169 204 255
169 204 255
169 204 255
169 204 255
169 204 255
169 204 255
169 204 255
169 204 255
170 204 255
170 204 255
170 204 255
170 204 255
170 204 255
170 204 255
170 204 255
170 204 255
170 204 255
170 204 255
170 204 255
170 204 255
171 205 255
171 205 255
171 205 255
171 205 255
171 205 255
171 205 255
171 205 255
171 205 255
171 205 255
171 205 255
171 205 255
171 205 255
171 205 255
172 205 255
172 205 255
172 205 255
172 205 255
172 205 255
172 205 255
172 205 255
172 205 255
172 206 255
172 206 255
172 206 255
172 206 255
173 206 255
173 206 255
173 206 255
173 206 255
173 206 255
173 206 255
173 206 255
173 206 255
173 206 255
173 206 255
173 206 255
173 206 255
173 206 255
173 206 255
174 206 255
174 206 255
174 206 255
174 206 255
174 207 255
174 207 255
174 207 255
174 207 255
174 207 255
174 207 255
174 207 255
174 207 255
174 207 255
174 207 255
175 207 255
175 207 255
175 207 255
175 207 255
175 207 255
175 207 255
175 207 255
175 207 255
175 207 255
175 207 255
175 207 255
175 207 255
175 207 255
175 207 255
175 207 255
175 207 255
176 208 255
176 208 255
176 208 255
176 208 255
176 208 255
176 208 255
176 208 255
176 208 255
176 208 255
176 208 255
176 208 255
176 208 255
176 208 255
176 208 255
176 208 255
176 208 255
177 208 255
177 208 255
177 208 255
177 208 255
177 208 255
177 208 255
177 208 255
177 208 255
177 208 255
177 208 255
177 208 255
177 208 255
177 209 255
177 209 255
177 209 255
177 209 255
177 209 255
177 209 255
177 209 255
178 209 255
178 209 255
178 209 255
178 209 255
178 209 255
178 209 255
178 209 255
178 209 255
178 209 255
177 209 255
177 209 255
177 209 255
177 209 255
177 209 255
177 209 255
177 209 255
177 208 255
177 208 255
177 208 255
177 208 255
177 208 255
177 208 255
177 208 255
177 208 255
177 208 255
177 208 255
177 208 255
177 208 255
176 208 255
176 208 255
176 208 255
176 208 255
176 208 255
176 208 255
176 208 255
176 208 255
176 208 255
176 208 255
176 208 255
176 208 255
176 208 255
176 208 255
176 208 255
176 208 255
175 207 255
175 207 255
175 207 255
175 207 255
175 207 255
175 207 255
175 207 255
175 207 255
175 207 255
175 207 255
175 207 255
175 207 255
175 207 255
175 207 255
175 207 255
174 207 255
174 207 255
174 207 255
174 207 255
174 207 255
174 207 255
174 207 255
174 207 255
174 207 255
174 207 255
174 206 255
174 206 255
174 206 255
174 206 255
174 206 255
173 206 255
173 206 255
173 206 255
173 206 255
173 206 255
173 206 255
173 206 255
173 206 255
173 206 255
173 206 255
173 206 255
173 206 255
173 206 255
172 206 255
172 206 255
172 206 255
172 206 255
172 205 255
172 205 255
172 205 255
172 205 255
172 205 255
172 205 255
172 205 255
172 205 255
172 205 255
171 205 255
171 205 255
171 205 255
171 205 255
171 205 255
171 205 255
171 205 255
171 205 255
171 205 255
171 205 255
171 205 255
171 205 255
170 204 255
170 204 255
170 204 255
170 204 255
170 204 255
170 204 255
170 204 255
170 204 255
170 204 255
170 204 255
170 204 255
170 204 255
170 204 255
169 204 255
169 204 255
169 204 255
169 204 255
169 204 255
169 204 255
169 204 255
169 204 255
169 203 255
169 203 255
169 203 255
169 203 255
168 203 255
168 203 255
168 203 255
168 203 255
168 203 255
168 203 255
168 203 255
168 203 255
168 203 255
168 203 255
168 203 255
168 203 255
168 203 255
168 203 255
167 203 255
167 203 255
167 203 255
167 203 255
167 203 255
167 202 255
167 202 255
167 202 255
167 202 255
119 146 185
72 91 120
72 90 119
73 91 119
73 91 119
74 91 118
75 93 120
74 93 120
72 89 115
71 89 117
71 90 117
72 91 119
70 88 114
73 91 119
74 93 120
73 90 116
74 92 120
75 93 119
75 93 119
73 89 114
72 89 116
74 91 118
72 90 117
69 87 114
73 90 116
75 91 117
71 88 114
75 91 117
72 90 116
70 87 113
73 90 115
73 91 117
71 88 113
71 89 116
73 91 119
71 89 117
74 92 119
69 86 113
73 92 119
73 91 117
74 92 119
75 93 120
71 89 116
68 85 111
74 92 120
71 88 113
71 89 115
71 89 115
75 93 120
72 90 117
70 87 113
71 89 116
71 89 115
71 88 115
69 85 110
75 92 117
72 91 119
71 88 114
72 89 115
72 90 117
70 88 114
73 91 119
73 91 119
70 87 113
72 90 117
72 89 115
75 94 121
68 86 112
69 87 113
69 86 111
71 88 114
72 90 115
76 94 121
71 89 117
74 93 120
76 93 119
75 93 121
69 87 114
73 92 120
74 92 119
72 90 117
70 88 115
73 92 121
127 155 197
167 202 255
167 202 255
167 202 255
167 202 255
167 203 255
167 203 255
167 203 255
167 203 255
167 203 255
168 203 255
168 203 255
168 203 255
168 203 255
168 203 255
168 203 255
168 203 255
168 203 255
168 203 255
168 203 255
168 203 255
168 203 255
168 203 255
168 203 255
169 203 255
169 203 255
169 203 255
169 203 255
169 204 255
169 204 255
169 204 255
169 204 255
169 204 255
169 204 255
169 204 255
169 204 255
169 204 255
170 204 255
170 204 255
170 204 255
170 204 255
170 204 255
170 204 255
170 204 255
170 204 255
170 204 255
170 204 255
170 204 255
170 204 255
171 205 255
171 205 255
171 205 255
171 205 255
171 205 255
171 205 255
171 205 255
171 205 255
171 205 255
171 205 255
171 205 255
171 205 255
172 205 255
172 205 255
172 205 255
172 205 255
172 205 255
172 205 255
172 205 255
172 205 255
172 205 255
172 206 255
172 206 255
172 206 255
172 206 255
173 206 255
173 206 255
173 206 255
173 206 255
173 206 255
173 206 255
173 206 255
173 206 255
173 206 255
173 206 255
173 206 255
173 206 255
173 206 255
174 206 255
174 206 255
174 206 255
174 206 255
174 206 255
174 207 255
174 207 255
174 207 255
174 207 255
174 207 255
174 207 255
174 207 255
174 207 255
174 207 255
175 207 255
175 207 255
175 207 255
175 207 255
175 207 255
175 207 255
175 207 255
175 207 255
175 207 255
175 207 255
175 207 255
175 207 255
175 207 255
175 207 255
175 207 255
175 207 255
176 208 255
176 208 255
176 208 255
176 208 255
176 208 255
176 208 255
176 208 255
176 208 255
176 208 255
176 208 255
176 208 255
176 208 255
176 208 255
176 208 255
176 208 255
176 208 255
177 208 255
177 208 255
177 208 255
177 208 255
177 208 255
177 208 255
177 208 255
177 208 255
177 208 255
177 208 255
177 208 255
177 208 255
177 209 255
177 209 255
177 209 255
177 209 255
177 209 255
177 209 255
177 209 255
178 209 255
178 209 255
178 209 255
178 209 255
178 209 255
178 209 255
178 209 255
178 209 255
178 209 255
178 209 255
178 209 255
178 209 255
178 209 255
178 209 255
178 209 255
178 209 255
178 209 255
178 209 255
178 209 255
178 209 255
177 209 255
177 209 255
177 209 255
177 209 255
177 209 255
177 209 255
177 208 255
177 208 255
177 208 255
177 208 255
177 208 255
177 208 255
177 208 255
177 208 255
177 208 255
177 208 255
177 208 255
177 208 255
176 208 255
176 208 255
176 208 255
176 208 255
176 208 255
176 208 255
176 208 255
176 208 255
176 208 255
176 208 255
176 208 255
176 208 255
176 208 255
176 208 255
176 208 255
176 208 255
175 207 255
175 207 255
175 207 255
175 207 255
175 207 255
175 207 255
175 207 255
175 207 255
175 207 255
175 207 255
175 207 255
175 207 255
175 207 255
175 207 255
175 207 255
174 207 255
174 207 255
174 207 255
174 207 255
174 207 255
174 207 255
174 207 255
174 207 255
174 207 255
174 207 255
174 206 255
174 206 255
174 206 255
174 206 255
174 206 255
173 206 255
173 206 255
173 206 255
173 206 255
173 206 255
173 206 255
173 206 255
173 206 255
173 206 255
173 206 255
173 206 255
173 206 255
173 206 255
172 206 255
172 206 255
172 206 255
172 206 255
172 205 255
172 205 255
172 205 255
172 205 255
172 205 255
172 205 255
172 205 255
172 205 255
171 205 255
171 205 255
171 205 255
171 205 255
171 205 255
171 205 255
171 205 255
171 205 255
171 205 255
171 205 255
171 205 255
171 205 255
171 205 255
170 204 255
170 204 255
170 204 255
170 204 255
170 204 255
170 204 255
170 204 255
170 204 255
170 204 255
170 204 255
170 204 255
170 204 255
170 204 255
169 204 255
169 204 255
169 204 255
169 204 255
169 204 255
169 204 255
169 204 255
169 204 255
169 203 255
169 203 255
169 203 255
169 203 255
169 203 255
168 203 255
168 203 255
168 203 255
168 203 255
168 203 255
168 203 255
168 203 255
168 203 255
168 203 255
168 203 255
168 203 255
168 203 255
168 203 255
168 203 255
167 203 255
166 201 254
104 128 164
74 92 119
72 91 118
70 89 117
74 92 120
72 91 119
71 89 117
73 92 120
72 89 115
71 89 115
71 88 115
75 93 120
74 91 117
71 89 115
71 89 115
74 92 120
70 87 112
70 87 113
71 88 113
73 91 117
75 94 122
72 89 114
73 90 117
75 93 119
72 89 115
75 93 120
72 90 115
74 91 117
75 92 117
73 91 117
72 90 117
71 89 117
73 90 117
75 92 119
72 90 117
69 87 114
73 91 117
70 88 114
69 86 111
69 87 114
73 91 117
70 87 114
72 89 116
70 88 113
71 88 115
71 89 115
73 91 119
71 89 115
71 88 113
73 89 115
73 91 118
73 90 116
71 88 114
75 94 122
70 89 117
72 90 115
72 90 118
69 87 115
71 88 114
72 90 115
69 86 113
72 89 114
71 90 117
72 90 117
74 90 115
73 91 118
72 91 119
71 89 115
73 90 117
69 87 112
74 92 120
72 90 117
73 90 117
71 88 113
72 90 116
72 89 116
72 90 118
70 88 114
71 89 115
74 93 120
71 89 116
71 89 117
72 90 117
72 90 118
72 90 118
109 134 172
166 201 253
167 203 255
168 203 255
168 203 255
168 203 255
168 203 255
168 203 255
168 203 255
168 203 255
168 203 255
168 203 255
168 203 255
168 203 255
168 203 255
168 203 255
168 203 255
168 203 255
169 203 255
169 203 255
169 203 255
169 203 255
169 204 255
169 204 255
169 204 255
169 204 255
169 204 255
169 204 255
169 204 255
169 204 255
169 204 255
170 204 255
170 204 255
170 204 255
170 204 255
170 204 255
170 204 255
170 204 255
170 204 255
170 204 255
170 204 255
170 204 255
170 204 255
171 205 255
171 205 255
171 205 255
171 205 255
171 205 255
171 205 255
171 205 255
171 205 255
171 205 255
171 205 255
171 205 255
171 205 255
172 205 255
172 205 255
172 205 255
172 205 255
172 205 255
172 205 255
172 205 255
172 205 255
172 205 255
172 206 255
172 206 255
172 206 255
172 206 255
173 206 255
173 206 255
173 206 255
173 206 255
173 206 255
173 206 255
173 206 255
173 206 255
173 206 255
173 206 255
173 206 255
173 206 255
173 206 255
173 206 255
174 206 255
174 206 255
174 206 255
174 206 255
174 207 255
174 207 255
174 207 255
174 207 255
174 207 255
174 207 255
174 207 255
174 207 255
174 207 255
174 207 255
175 207 255
175 207 255
175 207 255
175 207 255
175 207 255
175 207 255
175 207 255
175 207 255
175 207 255
175 207 255
175 207 255
175 207 255
175 207 255
175 207 255
175 207 255
176 208 255
176 208 255
176 208 255
176 208 255
176 208 255
176 208 255
176 208 255
176 208 255
176 208 255
176 208 255
176 208 255
176 208 255
176 208 255
176 208 255
176 208 255
176 208 255
177 208 255
177 208 255
177 208 255
177 208 255
177 208 255
177 208 255
177 208 255
177 208 255
177 208 255
177 208 255
177 208 255
177 208 255
177 209 255
177 209 255
177 209 255
177 209 255
177 209 255
177 209 255
178 209 255
178 209 255
178 209 255
178 209 255
178 209 255
178 209 255
178 209 255
178 209 255
178 209 255
178 209 255
178 209 255
178 209 255
178 209 255
178 209 255
178 209 255
178 209 255
178 209 255
178 209 255
178 209 255
178 209 255
178 209 255
178 209 255
178 209 255
178 209 255
178 209 255
178 209 255
178 209 255
178 209 255
178 209 255
178 209 255
178 209 255
177 209 255
177 209 255
177 209 255
177 209 255
177 209 255
177 209 255
177 208 255
177 208 255
177 208 255
177 208 255
177 208 255
177 208 255
177 208 255
177 208 255
177 208 255
177 208 255
177 208 255
177 208 255
176 208 255
176 208 255
176 208 255
176 208 255
176 208 255
176 208 255
176 208 255
176 208 255
176 208 255
176 208 255
176 208 255
176 208 255
176 208 255
176 208 255
176 208 255
176 208 255
175 207 255
175 207 255
175 207 255
175 207 255
175 207 255
175 207 255
175 207 255
175 207 255
175 207 255
175 207 255
175 207 255
175 207 255
175 207 255
175 207 255
175 207 255
174 207 255
174 207 255
174 207 255
174 207 255
174 207 255
174 207 255
174 207 255
174 207 255
174 207 255
174 207 255
174 206 255
174 206 255
174 206 255
174 206 255
173 206 255
173 206 255
173 206 255
173 206 255
173 206 255
173 206 255
173 206 255
173 206 255
173 206 255
173 206 255
173 206 255
173 206 255
173 206 255
172 206 255
172 206 255
172 206 255
172 206 255
172 206 255
172 205 255
172 205 255
172 205 255
172 205 255
172 205 255
172 205 255
172 205 255
172 205 255
171 205 255
171 205 255
171 205 255
171 205 255
171 205 255
171 205 255
171 205 255
171 205 255
171 205 255
171 205 255
171 205 255
171 205 255
171 205 255
170 204 255
170 204 255
170 204 255
170 204 255
170 204 255
170 204 255
170 204 255
170 204 255
170 204 255
170 204 255
170 204 255
170 204 255
170 204 255
169 204 255
169 204 255
169 204 255
169 204 255
169 204 255
169 204 255
169 204 255
169 204 255
169 204 255
169 203 255
169 203 255
169 203 255
169 203 255
169 203 255
168 203 255
168 203 255
168 203 255
168 203 255
168 203 255
168 203 255
168 203 255
168 203 255
164 199 250
100 124 159
77 96 124
73 90 117
74 92 120
68 86 113
72 90 116
76 94 121
74 92 119
69 87 113
69 86 111
71 89 117
72 90 116
69 86 110
76 95 123
70 87 112
72 91 118
70 88 115
72 90 117
73 91 119
69 86 111
73 91 118
75 94 122
71 88 114
66 83 108
75 92 118
68 85 111
71 87 111
71 88 113
75 93 120
70 87 113
71 88 115
74 91 117
75 93 120
74 91 118
70 87 113
74 91 117
71 88 115
69 86 111
70 87 113
76 94 121
71 89 115
72 90 117
71 88 114
71 89 115
73 91 118
75 93 120
72 90 117
69 86 112
72 89 114
74 91 116
74 92 119
72 89 115
72 89 115
71 89 115
69 86 112
72 89 115
76 94 120
71 88 113
72 89 114
72 88 113
72 89 115
74 92 118
72 90 116
71 88 113
72 90 117
70 89 116
72 89 115
72 90 117
70 87 111
74 92 119
72 89 115
72 90 117
70 87 113
72 90 117
72 90 116
74 91 117
75 93 120
74 91 117
71 89 117
71 89 116
73 91 118
74 92 119
75 93 120
73 90 115
73 91 117
73 92 120
72 91 119
97 119 152
162 196 247
168 203 255
168 203 255
168 203 255
168 203 255
168 203 255
168 203 255
168 203 255
168 203 255
168 203 255
169 203 255
169 203 255
169 203 255
169 203 255
169 203 255
169 204 255
169 204 255
169 204 255
169 204 255
169 204 255
169 204 255
169 204 255
169 204 255
169 204 255
170 204 255
170 204 255
170 204 255
170 204 255
170 204 255
170 204 255
170 204 255
170 204 255
170 204 255
170 204 255
170 204 255
170 204 255
171 205 255
171 205 255
171 205 255
171 205 255
171 205 255
171 205 255
171 205 255
171 205 255
171 205 255
171 205 255
171 205 255
171 205 255
171 205 255
172 205 255
172 205 255
172 205 255
172 205 255
172 205 255
172 205 255
172 205 255
172 205 255
172 206 255
172 206 255
172 206 255
172 206 255
172 206 255
173 206 255
173 206 255
173 206 255
173 206 255
173 206 255
173 206 255
173 206 255
173 206 255
173 206 255
173 206 255
173 206 255
173 206 255
173 206 255
174 206 255
174 206 255
174 206 255
174 206 255
174 207 255
174 207 255
174 207 255
174 207 255
174 207 255
174 207 255
174 207 255
174 207 255
174 207 255
174 207 255
175 207 255
175 207 255
175 207 255
175 207 255
175 207 255
175 207 255
175 207 255
175 207 255
175 207 255
175 207 255
175 207 255
175 207 255
175 207 255
175 207 255
175 207 255
176 208 255
176 208 255
176 208 255
176 208 255
176 208 255
176 208 255
176 208 255
176 208 255
176 208 255
176 208 255
176 208 255
176 208 255
176 208 255
176 208 255
176 208 255
176 208 255
177 208 255
177 208 255
177 208 255
177 208 255
177 208 255
177 208 255
177 208 255
177 208 255
177 208 255
177 208 255
177 208 255
177 208 255
177 209 255
177 209 255
177 209 255
177 209 255
177 209 255
177 209 255
178 209 255
178 209 255
178 209 255
178 209 255
178 209 255
178 209 255
178 209 255
178 209 255
178 209 255
178 209 255
178 209 255
178 209 255
178 209 255
178 209 255
178 209 255
178 209 255
178 209 255
178 209 255
179 209 255
179 209 255
179 209 255
178 209 255
178 209 255
178 209 255
178 209 255
178 209 255
178 209 255
178 209 255
178 209 255
178 209 255
178 209 255
178 209 255
178 209 255
178 209 255
178 209 255
178 209 255
178 209 255
178 209 255
178 209 255
178 209 255
178 209 255
177 209 255
177 209 255
177 209 255
177 209 255
177 209 255
177 209 255
177 208 255
177 208 255
177 208 255
177 208 255
177 208 255
177 208 255
177 208 255
177 208 255
177 208 255
177 208 255
177 208 255
176 208 255
176 208 255
176 208 255
176 208 255
176 208 255
176 208 255
176 208 255
176 208 255
176 208 255
176 208 255
176 208 255
176 208 255
176 208 255
176 208 255
176 208 255
176 208 255
176 208 255
175 207 255
175 207 255
175 207 255
175 207 255
175 207 255
175 207 255
175 207 255
175 207 255
175 207 255
175 207 255
175 207 255
175 207 255
175 207 255
175 207 255
175 207 255
174 207 255
174 207 255
174 207 255
174 207 255
174 207 255
174 207 255
174 207 255
174 207 255
174 207 255
174 206 255
174 206 255
174 206 255
174 206 255
174 206 255
173 206 255
173 206 255
173 206 255
173 206 255
173 206 255
173 206 255
173 206 255
173 206 255
173 206 255
173 206 255
173 206 255
173 206 255
173 206 255
172 206 255
172 206 255
172 206 255
172 206 255
172 205 255
172 205 255
172 205 255
172 205 255
172 205 255
172 205 255
172 205 255
172 205 255
172 205 255
171 205 255
171 205 255
171 205 255
171 205 255
171 205 255
171 205 255
171 205 255
171 205 255
171 205 255
171 205 255
171 205 255
171 205 255
171 205 255
170 204 255
170 204 255
170 204 255
170 204 255
170 204 255
170 204 255
170 204 255
170 204 255
170 204 255
170 204 255
170 204 255
170 204 255
170 204 255
169 204 255
169 204 255
169 204 255
169 204 255
169 204 255
169 204 255
169 204 255
169 204 255
169 204 255
169 204 255
169 203 255
169 203 255
169 203 255
169 203 255
169 203 255
168 203 255
160 193 243
98 120 154
74 91 118
72 89 113
71 90 117
72 89 115
71 89 115
74 92 120
73 91 119
72 91 118
73 91 119
71 88 114
74 91 117
71 89 116
71 89 115
68 86 111
73 91 119
72 90 116
73 91 118
69 87 114
69 86 111
69 87 113
72 89 114
74 92 118
72 89 115
72 89 115
73 90 115
71 89 116
71 88 113
70 87 112
70 88 114
73 91 117
70 88 115
72 90 116
75 92 119
71 88 115
72 90 117
69 86 110
74 92 118
70 87 112
72 89 115
72 89 115
71 89 115
71 89 115
72 90 117
69 85 110
72 90 119
70 88 114
70 86 112
72 89 113
72 89 116
67 84 109
71 88 113
72 90 116
72 90 117
74 91 117
72 88 113
67 85 111
71 89 116
70 87 113
71 88 115
73 91 118
72 90 117
72 89 115
71 88 113
70 87 113
69 87 113
71 89 115
69 87 113
72 90 115
75 92 118
72 89 115
72 89 116
72 89 116
74 91 116
69 86 111
71 89 115
73 91 119
69 87 112
74 92 119
69 87 114
73 91 118
72 90 116
75 93 120
73 92 119
70 88 114
72 90 117
72 90 117
73 91 119
70 88 116
96 118 151
164 198 249
168 203 255
169 203 255
169 203 255
169 203 255
169 203 255
169 203 255
169 203 255
169 204 255
169 204 255
169 204 255
169 204 255
169 204 255
169 204 255
169 204 255
169 204 255
169 204 255
170 204 255
170 204 255
170 204 255
170 204 255
170 204 255
170 204 255
170 204 255
170 204 255
170 204 255
170 204 255
170 204 255
170 204 255
170 204 255
171 205 255
171 205 255
171 205 255
171 205 255
171 205 255
171 205 255
171 205 255
171 205 255
171 205 255
171 205 255
171 205 255
171 205 255
171 205 255
172 205 255
172 205 255
172 205 255
172 205 255
172 205 255
172 205 255
172 205 255
172 205 255
172 205 255
172 206 255
172 206 255
172 206 255
172 206 255
173 206 255
173 206 255
173 206 255
173 206 255
173 206 255
173 206 255
173 206 255
173 206 255
173 206 255
173 206 255
173 206 255
173 206 255
173 206 255
174 206 255
174 206 255
174 206 255
174 206 255
174 206 255
174 207 255
174 207 255
174 207 255
174 207 255
174 207 255
174 207 255
174 207 255
174 207 255
174 207 255
175 207 255
175 207 255
175 207 255
175 207 255
175 207 255
175 207 255
175 207 255
175 207 255
175 207 255
175 207 255
175 207 255
175 207 255
175 207 255
175 207 255
175 207 255
176 208 255
176 208 255
176 208 255
176 208 255
176 208 255
176 208 255
176 208 255
176 208 255
176 208 255
176 208 255
176 208 255
176 208 255
176 208 255
176 208 255
176 208 255
176 208 255
177 208 255
177 208 255
177 208 255
177 208 255
177 208 255
177 208 255
177 208 255
177 208 255
177 208 255
177 208 255
177 208 255
177 208 255
177 209 255
177 209 255
177 209 255
177 209 255
177 209 255
177 209 255
178 209 255
178 209 255
178 209 255
178 209 255
178 209 255
178 209 255
178 209 255
178 209 255
178 209 255
178 209 255
178 209 255
178 209 255
178 209 255
178 209 255
178 209 255
178 209 255
178 209 255
178 209 255
178 209 255
178 209 255
179 209 255
179 209 255
179 209 255
179 210 255
179 210 255
179 209 255
179 209 255
179 209 255
179 209 255
179 209 255
179 209 255
179 209 255
178 209 255
178 209 255
178 209 255
178 209 255
178 209 255
178 209 255
178 209 255
178 209 255
178 209 255
178 209 255
178 209 255
178 209 255
178 209 255
178 209 255
178 209 255
178 209 255
178 209 255
178 209 255
178 209 255
177 209 255
177 209 255
177 209 255
177 209 255
177 209 255
177 209 255
177 208 255
177 208 255
177 208 255
177 208 255
177 208 255
177 208 255
177 208 255
177 208 255
177 208 255
177 208 255
177 208 255
177 208 255
176 208 255
176 208 255
176 208 255
176 208 255
176 208 255
176 208 255
176 208 255
176 208 255
176 208 255
176 208 255
176 208 255
176 208 255
176 208 255
176 208 255
176 208 255
176 208 255
175 207 255
175 207 255
175 207 255
175 207 255
175 207 255
175 207 255
175 207 255
175 207 255
175 207 255
175 207 255
175 207 255
175 207 255
175 207 255
175 207 255
175 207 255
174 207 255
174 207 255
174 207 255
174 207 255
174 207 255
174 207 255
174 207 255
174 207 255
174 207 255
174 206 255
174 206 255
174 206 255
174 206 255
174 206 255
173 206 255
173 206 255
173 206 255
173 206 255
173 206 255
173 206 255
173 206 255
173 206 255
173 206 255
173 206 255
173 206 255
173 206 255
173 206 255
172 206 255
172 206 255
172 206 255
172 206 255
172 205 255
172 205 255
172 205 255
172 205 255
172 205 255
172 205 255
172 205 255
172 205 255
172 205 255
171 205 255
171 205 255
171 205 255
171 205 255
171 205 255
171 205 255
171 205 255
171 205 255
171 205 255
171 205 255
171 205 255
171 205 255
171 205 255
170 204 255
170 204 255
170 204 255
170 204 255
170 204 255
170 204 255
170 204 255
170 204 255
170 204 255
170 204 255
170 204 255
170 204 255
170 204 255
170 204 255
169 204 255
169 204 255
169 204 255
169 204 255
169 204 255
169 204 255
169 204 255
169 204 255
169 204 255
165 198 249
86 105 135
70 89 117
70 88 114
75 93 119
73 90 116
71 89 115
73 91 118
70 87 114
71 89 116
71 88 115
72 89 114
71 88 114
68 86 113
72 91 118
69 86 113
71 89 116
70 88 115
69 86 112
72 90 116
68 86 111
70 88 115
72 89 114
70 87 113
69 86 112
73 91 118
69 85 110
72 89 115
73 90 115
71 89 115
72 90 117
71 88 115
72 90 117
70 87 113
73 90 116
73 91 117
72 90 116
73 90 115
72 89 115
74 92 119
71 88 114
74 92 120
68 85 111
70 87 113
66 82 106
69 86 111
73 90 117
70 87 113
74 91 117
70 88 115
71 89 115
73 91 118
67 84 111
70 87 113
73 91 117
74 91 117
72 89 115
73 90 115
71 89 115
72 89 115
65 81 107
71 88 113
73 90 117
71 89 117
71 87 112
72 89 115
68 85 110
69 87 113
72 89 115
72 89 115
70 88 113
70 87 111
71 89 115
69 87 113
71 88 113
72 89 114
71 88 114
75 92 117
70 87 112
69 86 111
75 93 119
70 88 116
70 88 114
69 86 111
71 89 116
69 87 114
72 90 116
72 89 115
72 90 116
73 90 116
73 92 120
72 90 116
96 117 149
162 195 245
169 204 255
169 204 255
169 204 255
169 204 255
169 204 255
169 204 255
169 204 255
169 204 255
169 204 255
170 204 255
170 204 255
170 204 255
170 204 255
170 204 255
170 204 255
170 204 255
170 204 255
170 204 255
170 204 255
170 204 255
170 204 255
170 204 255
170 204 255
171 205 255
171 205 255
171 205 255
171 205 255
171 205 255
171 205 255
171 205 255
171 205 255
171 205 255
171 205 255
171 205 255
171 205 255
171 205 255
172 205 255
172 205 255
172 205 255
172 205 255
172 205 255
172 205 255
172 205 255
172 205 255
172 206 255
172 206 255
172 206 255
172 206 255
172 206 255
173 206 255
173 206 255
173 206 255
173 206 255
173 206 255
173 206 255
173 206 255
173 206 255
173 206 255
173 206 255
173 206 255
173 206 255
173 206 255
173 206 255
174 206 255
174 206 255
174 206 255
174 206 255
174 207 255
174 207 255
174 207 255
174 207 255
174 207 255
174 207 255
174 207 255
174 207 255
174 207 255
175 207 255
175 207 255
175 207 255
175 207 255
175 207 255
175 207 255
175 207 255
175 207 255
175 207 255
175 207 255
175 207 255
175 207 255
175 207 255
175 207 255
175 207 255
176 208 255
176 208 255
176 208 255
176 208 255
176 208 255
176 208 255
176 208 255
176 208 255
176 208 255
176 208 255
176 208 255
176 208 255
176 208 255
176 208 255
176 208 255
176 208 255
177 208 255
177 208 255
177 208 255
177 208 255
177 208 255
177 208 255
177 208 255
177 208 255
177 208 255
177 208 255
177 208 255
177 208 255
177 209 255
177 209 255
177 209 255
177 209 255
177 209 255
177 209 255
178 209 255
178 209 255
178 209 255
178 209 255
178 209 255
178 209 255
178 209 255
178 209 255
178 209 255
178 209 255
178 209 255
178 209 255
178 209 255
178 209 255
178 209 255
178 209 255
178 209 255
178 209 255
178 209 255
179 209 255
179 209 255
179 209 255
179 209 255
179 209 255
179 209 255
179 209 255
179 210 255
179 210 255
179 210 255
179 210 255
179 210 255
179 210 255
179 210 255
179 210 255
179 210 255
179 210 255
179 209 255
179 209 255
179 209 255
179 209 255
179 209 255
179 209 255
178 209 255
178 209 255
178 209 255
178 209 255
178 209 255
178 209 255
178 209 255
178 209 255
178 209 255
178 209 255
178 209 255
178 209 255
178 209 255
178 209 255
178 209 255
178 209 255
178 209 255
178 209 255
178 209 255
178 209 255
177 209 255
177 209 255
177 209 255
177 209 255
177 209 255
177 209 255
177 208 255
177 208 255
177 208 255
177 208 255
177 208 255
177 208 255
177 208 255
177 208 255
177 208 255
177 208 255
177 208 255
176 208 255
176 208 255
176 208 255
176 208 255
176 208 255
176 208 255
176 208 255
176 208 255
176 208 255
176 208 255
176 208 255
176 208 255
176 208 255
176 208 255
176 208 255
176 208 255
175 207 255
175 207 255
175 207 255
175 207 255
175 207 255
175 207 255
175 207 255
175 207 255
175 207 255
175 207 255
175 207 255
175 207 255
175 207 255
175 207 255
175 207 255
174 207 255
174 207 255
174 207 255
174 207 255
174 207 255
174 207 255
174 207 255
174 207 255
174 207 255
174 206 255
174 206 255
174 206 255
174 206 255
173 206 255
173 206 255
173 206 255
173 206 255
173 206 255
173 206 255
173 206 255
173 206 255
173 206 255
173 206 255
173 206 255
173 206 255
173 206 255
173 206 255
172 206 255
172 206 255
172 206 255
172 206 255
172 205 255
172 205 255
172 205 255
172 205 255
172 205 255
172 205 255
172 205 255
172 205 255
172 205 255
171 205 255
171 205 255
171 205 255
171 205 255
171 205 255
171 205 255
171 205 255
171 205 255
171 205 255
171 205 255
171 205 255
171 205 255
171 205 255
171 205 255
170 204 255
170 204 255
170 204 255
170 204 255
170 204 255
170 204 255
170 204 255
170 204 255
170 204 255
170 204 255
170 204 255
170 204 255
170 204 255
170 204 255
170 204 255
169 204 255
162 195 245
90 110 141
72 91 119
74 92 119
74 92 119
72 90 117
73 90 116
69 86 112
72 89 116
72 88 113
71 89 117
70 88 114
74 92 119
73 90 116
72 90 116
71 88 112
74 91 117
74 91 117
70 88 115
74 91 116
74 91 117
69 86 111
70 87 113
68 85 110
72 90 117
71 88 113
69 86 112
70 87 112
70 88 115
71 88 114
67 84 110
71 89 114
71 88 115
74 93 120
72 88 113
71 88 113
74 92 119
73 91 118
72 90 117
70 86 112
74 92 119
74 92 118
69 87 115
69 86 112
71 88 114
72 89 113
73 90 116
68 85 110
69 86 111
71 89 115
74 91 118
72 88 113
70 87 112
71 88 114
71 88 113
72 89 113
72 88 113
73 90 115
71 88 113
70 87 113
73 90 115
71 89 115
71 88 112
74 90 115
72 90 117
71 87 112
71 87 111
70 87 112
74 91 116
69 86 111
68 86 111
73 90 115
71 88 115
72 89 115
74 93 120
72 90 117
70 87 113
71 88 113
70 88 116
72 89 114
69 86 112
72 89 114
71 89 117
72 89 116
71 88 115
71 89 116
73 91 117
71 88 114
72 90 116
75 93 121
72 89 115
73 90 117
70 88 114
73 91 119
88 110 142
164 197 247
169 204 255
169 204 255
170 204 255
170 204 255
170 204 255
170 204 255
170 204 255
170 204 255
170 204 255
170 204 255
170 204 255
170 204 255
170 204 255
170 204 255
170 204 255
170 204 255
171 205 255
171 205 255
171 205 255
171 205 255
171 205 255
171 205 255
171 205 255
171 205 255
171 205 255
171 205 255
171 205 255
171 205 255
171 205 255
171 205 255
172 205 255
172 205 255
172 205 255
172 205 255
172 205 255
172 205 255
172 205 255
172 205 255
172 205 255
172 206 255
172 206 255
172 206 255
172 206 255
173 206 255
173 206 255
173 206 255
173 206 255
173 206 255
173 206 255
173 206 255
173 206 255
173 206 255
173 206 255
173 206 255
173 206 255
173 206 255
174 206 255
174 206 255
174 206 255
174 206 255
174 206 255
174 207 255
174 207 255
174 207 255
174 207 255
174 207 255
174 207 255
174 207 255
174 207 255
174 207 255
175 207 255
175 207 255
175 207 255
175 207 255
175 207 255
175 207 255
175 207 255
175 207 255
175 207 255
175 207 255
175 207 255
175 207 255
175 207 255
175 207 255
175 207 255
176 208 255
176 208 255
176 208 255
176 208 255
176 208 255
176 208 255
176 208 255
176 208 255
176 208 255
176 208 255
176 208 255
176 208 255
176 208 255
176 208 255
176 208 255
176 208 255
177 208 255
177 208 255
177 208 255
177 208 255
177 208 255
177 208 255
177 208 255
177 208 255
177 208 255
177 208 255
177 208 255
177 209 255
177 209 255
177 209 255
177 209 255
177 209 255
177 209 255
178 209 255
178 209 255
178 209 255
178 209 255
178 209 255
178 209 255
178 209 255
178 209 255
178 209 255
178 209 255
178 209 255
178 209 255
178 209 255
178 209 255
178 209 255
178 209 255
178 209 255
178 209 255
178 209 255
179 209 255
179 209 255
179 209 255
179 209 255
179 209 255
179 209 255
179 209 255
179 209 255
179 210 255
179 210 255
179 210 255
179 210 255
179 210 255
179 210 255
179 210 255
179 210 255
179 210 255
179 210 255
179 210 255
179 210 255
179 210 255
179 210 255
179 210 255
179 210 255
179 210 255
179 210 255
179 210 255
179 210 255
179 209 255
179 209 255
179 209 255
179 209 255
179 209 255
179 209 255
179 209 255
178 209 255
178 209 255
178 209 255
178 209 255
178 209 255
178 209 255
178 209 255
178 209 255
178 209 255
178 209 255
178 209 255
178 209 255
178 209 255
178 209 255
178 209 255
178 209 255
178 209 255
178 209 255
178 209 255
177 209 255
177 209 255
177 209 255
177 209 255
177 209 255
177 209 255
177 208 255
177 208 255
177 208 255
177 208 255
177 208 255
177 208 255
177 208 255
177 208 255
177 208 255
177 208 255
177 208 255
176 208 255
176 208 255
176 208 255
176 208 255
176 208 255
176 208 255
176 208 255
176 208 255
176 208 255
176 208 255
176 208 255
176 208 255
176 208 255
176 208 255
176 208 255
176 208 255
175 207 255
175 207 255
175 207 255
175 207 255
175 207 255
175 207 255
175 207 255
175 207 255
175 207 255
175 207 255
175 207 255
175 207 255
175 207 255
175 207 255
175 207 255
174 207 255
174 207 255
174 207 255
174 207 255
174 207 255
174 207 255
174 207 255
174 207 255
174 207 255
174 206 255
174 206 255
174 206 255
174 206 255
174 206 255
173 206 255
173 206 255
173 206 255
173 206 255
173 206 255
173 206 255
173 206 255
173 206 255
173 206 255
173 206 255
173 206 255
173 206 255
173 206 255
172 206 255
172 206 255
172 206 255
172 206 255
172 206 255
172 205 255
172 205 255
172 205 255
172 205 255
172 205 255
172 205 255
172 205 255
172 205 255
172 205 255
171 205 255
171 205 255
171 205 255
171 205 255
171 205 255
171 205 255
171 205 255
171 205 255
171 205 255
171 205 255
171 205 255
171 205 255
171 205 255
171 205 255
170 204 255
170 204 255
170 204 255
170 204 255
170 204 255
170 204 255
170 204 255
170 204 255
170 204 255
169 203 254
97 119 152
71 88 114
70 87 113
71 90 119
70 88 115
71 88 115
70 88 114
69 86 113
73 91 117
69 86 110
72 90 116
71 89 117
70 87 113
68 85 111
70 87 112
72 89 114
72 89 115
75 93 119
72 89 116
71 88 113
72 89 114
70 87 113
72 89 115
67 85 112
69 86 112
70 88 115
71 88 112
69 86 112
72 90 116
70 88 113
71 88 114
69 86 111
75 93 120
70 88 114
71 89 115
73 89 114
69 85 110
71 88 113
73 90 117
71 87 111
69 86 112
69 86 112
71 89 115
71 87 113
74 92 119
78 95 121
70 87 112
72 88 113
72 89 114
73 90 116
67 83 107
71 89 115
71 87 112
68 85 109
76 93 119
70 86 112
72 89 116
73 90 115
74 92 118
74 90 115
68 86 112
73 90 115
74 92 119
70 87 113
73 90 116
72 89 114
72 90 116
75 92 118
73 89 114
71 88 113
71 88 114
76 93 117
69 86 112
72 90 116
69 87 113
69 85 110
73 91 117
69 86 112
68 85 111
72 89 115
72 89 115
77 95 122
72 88 113
71 88 114
71 89 115
73 91 118
71 88 114
72 89 115
72 90 117
70 87 113
73 90 117
71 89 116
69 86 111
71 88 114
71 89 115
98 120 152
169 203 254
170 204 255
170 204 255
170 204 255
170 204 255
170 204 255
170 204 255
170 204 255
170 204 255
170 204 255
171 205 255
171 205 255
171 205 255
171 205 255
171 205 255
171 205 255
171 205 255
171 205 255
171 205 255
171 205 255
171 205 255
171 205 255
171 205 255
171 205 255
172 205 255
172 205 255
172 205 255
172 205 255
172 205 255
172 205 255
172 205 255
172 205 255
172 205 255
172 206 255
172 206 255
172 206 255
172 206 255
172 206 255
173 206 255
173 206 255
173 206 255
173 206 255
173 206 255
173 206 255
173 206 255
173 206 255
173 206 255
173 206 255
173 206 255
173 206 255
173 206 255
174 206 255
174 206 255
174 206 255
174 206 255
174 206 255
174 207 255
174 207 255
174 207 255
174 207 255
174 207 255
174 207 255
174 207 255
174 207 255
174 207 255
175 207 255
175 207 255
175 207 255
175 207 255
175 207 255
175 207 255
175 207 255
175 207 255
175 207 255
175 207 255
175 207 255
175 207 255
175 207 255
175 207 255
175 207 255
176 208 255
176 208 255
176 208 255
176 208 255
176 208 255
176 208 255
176 208 255
176 208 255
176 208 255
176 208 255
176 208 255
176 208 255
176 208 255
176 208 255
176 208 255
176 208 255
177 208 255
177 208 255
177 208 255
177 208 255
177 208 255
177 208 255
177 208 255
177 208 255
177 208 255
177 208 255
177 208 255
177 209 255
177 209 255
177 209 255
177 209 255
177 209 255
177 209 255
178 209 255
178 209 255
178 209 255
178 209 255
178 209 255
178 209 255
178 209 255
178 209 255
178 209 255
178 209 255
178 209 255
178 209 255
178 209 255
178 209 255
178 209 255
178 209 255
178 209 255
178 209 255
178 209 255
179 209 255
179 209 255
179 209 255
179 209 255
179 209 255
179 209 255
179 209 255
179 210 255
179 210 255
179 210 255
179 210 255
179 210 255
179 210 255
179 210 255
179 210 255
179 210 255
179 210 255
179 210 255
179 210 255
179 210 255
180 210 255
180 210 255
180 210 255
180 210 255
180 210 255
179 210 255
179 210 255
179 210 255
179 210 255
179 210 255
179 210 255
179 210 255
179 210 255
179 210 255
179 210 255
179 210 255
179 210 255
179 210 255
179 210 255
179 209 255
179 209 255
179 209 255
179 209 255
179 209 255
179 209 255
179 209 255
178 209 255
178 209 255
178 209 255
178 209 255
178 209 255
178 209 255
178 209 255
178 209 255
178 209 255
178 209 255
178 209 255
178 209 255
178 209 255
178 209 255
178 209 255
178 209 255
178 209 255
178 209 255
178 209 255
177 209 255
177 209 255
177 209 255
177 209 255
177 209 255
177 208 255
177 208 255
177 208 255
177 208 255
177 208 255
177 208 255
177 208 255
177 208 255
177 208 255
177 208 255
177 208 255
177 208 255
176 208 255
176 208 255
176 208 255
176 208 255
176 208 255
176 208 255
176 208 255
176 208 255
176 208 255
176 208 255
176 208 255
176 208 255
176 208 255
176 208 255
176 208 255
175 207 255
175 207 255
175 207 255
175 207 255
175 207 255
175 207 255
175 207 255
175 207 255
175 207 255
175 207 255
175 207 255
175 207 255
175 207 255
175 207 255
175 207 255
174 207 255
174 207 255
174 207 255
174 207 255
174 207 255
174 207 255
174 207 255
174 207 255
174 207 255
174 206 255
174 206 255
174 206 255
174 206 255
174 206 255
173 206 255
173 206 255
173 206 255
173 206 255
173 206 255
173 206 255
173 206 255
173 206 255
173 206 255
173 206 255
173 206 255
173 206 255
173 206 255
173 206 255
172 206 255
172 206 255
172 206 255
172 206 255
172 205 255
172 205 255
172 205 255
172 205 255
172 205 255
172 205 255
172 205 255
172 205 255
172 205 255
172 205 255
171 205 255
171 205 255
171 205 255
171 205 255
171 205 255
171 205 255
171 205 255
171 205 255
171 205 255
171 205 255
171 205 255
171 205 255
171 205 255
171 205 255
171 205 255
170 204 255
170 204 255
107 130 165
73 91 118
69 87 114
71 87 113
74 91 118
72 90 116
71 88 115
73 91 118
68 85 110
75 92 117
74 91 117
74 91 117
70 86 112
72 91 118
74 91 117
74 91 117
71 88 114
72 91 118
72 90 115
70 88 113
72 90 117
70 88 114
69 86 112
70 86 111
73 90 116
70 87 112
67 83 107
72 89 114
70 88 113
69 86 110
74 91 116
71 88 113
68 85 110
70 86 110
72 88 113
72 89 116
70 87 112
71 88 113
73 90 115
72 90 115
70 87 112
72 90 116
68 85 110
74 91 117
67 84 110
67 85 111
68 84 108
70 87 112
69 86 111
72 89 114
69 86 111
71 89 116
69 85 111
73 90 116
69 85 110
71 88 115
74 91 117
73 90 116
71 87 111
72 89 114
74 91 115
71 88 114
69 86 112
69 85 111
69 85 109
73 90 116
71 88 113
69 86 112
73 90 116
70 86 111
73 90 115
71 88 115
74 92 119
71 88 114
68 86 113
67 84 108
72 90 117
73 90 116
70 88 113
70 88 114
72 90 117
70 87 114
72 89 115
71 88 114
73 90 115
71 88 113
73 89 114
72 90 117
70 87 113
71 89 115
72 89 113
72 90 117
74 91 116
72 89 115
71 89 115
76 94 120
73 90 116
107 131 167
170 204 255
170 204 255
170 204 255
171 205 255
171 205 255
171 205 255
171 205 255
171 205 255
171 205 255
171 205 255
171 205 255
171 205 255
171 205 255
171 205 255
171 205 255
171 205 255
171 205 255
172 205 255
172 205 255
172 205 255
172 205 255
172 205 255
172 205 255
172 205 255
172 205 255
172 205 255
172 205 255
172 206 255
172 206 255
172 206 255
172 206 255
173 206 255
173 206 255
173 206 255
173 206 255
173 206 255
173 206 255
173 206 255
173 206 255
173 206 255
173 206 255
173 206 255
173 206 255
173 206 255
173 206 255
174 206 255
174 206 255
174 206 255
174 206 255
174 206 255
174 207 255
174 207 255
174 207 255
174 207 255
174 207 255
174 207 255
174 207 255
174 207 255
174 207 255
175 207 255
175 207 255
175 207 255
175 207 255
175 207 255
175 207 255
175 207 255
175 207 255
175 207 255
175 207 255
175 207 255
175 207 255
175 207 255
175 207 255
175 207 255
176 208 255
176 208 255
176 208 255
176 208 255
176 208 255
176 208 255
176 208 255
176 208 255
176 208 255
176 208 255
176 208 255
176 208 255
176 208 255
176 208 255
176 208 255
176 208 255
177 208 255
177 208 255
177 208 255
177 208 255
177 208 255
177 208 255
177 208 255
177 208 255
177 208 255
177 208 255
177 209 255
177 209 255
177 209 255
177 209 255
177 209 255
177 209 255
178 209 255
178 209 255
178 209 255
178 209 255
178 209 255
178 209 255
178 209 255
178 209 255
178 209 255
178 209 255
178 209 255
178 209 255
178 209 255
178 209 255
178 209 255
178 209 255
178 209 255
178 209 255
178 209 255
179 209 255
179 209 255
179 209 255
179 209 255
179 209 255
179 209 255
179 209 255
179 210 255
179 210 255
179 210 255
179 210 255
179 210 255
179 210 255
179 210 255
179 210 255
179 210 255
179 210 255
179 210 255
179 210 255
179 210 255
179 210 255
180 210 255
180 210 255
180 210 255
180 210 255
180 210 255
180 210 255
180 210 255
180 210 255
180 210 255
180 210 255
180 210 255
180 210 255
180 210 255
180 210 255
180 210 255
180 210 255
179 210 255
179 210 255
179 210 255
179 210 255
179 210 255
179 210 255
179 210 255
179 210 255
179 210 255
179 210 255
179 210 255
179 210 255
179 210 255
179 210 255
179 209 255
179 209 255
179 209 255
179 209 255
179 209 255
179 209 255
179 209 255
178 209 255
178 209 255
178 209 255
178 209 255
178 209 255
178 209 255
178 209 255
178 209 255
178 209 255
178 209 255
178 209 255
178 209 255
178 209 255
178 209 255
178 209 255
178 209 255
178 209 255
178 209 255
177 209 255
177 209 255
177 209 255
177 209 255
177 209 255
177 209 255
177 208 255
177 208 255
177 208 255
177 208 255
177 208 255
177 208 255
177 208 255
177 208 255
177 208 255
177 208 255
177 208 255
176 208 255
176 208 255
176 208 255
176 208 255
176 208 255
176 208 255
176 208 255
176 208 255
176 208 255
176 208 255
176 208 255
176 208 255
176 208 255
176 208 255
176 208 255
175 207 255
175 207 255
175 207 255
175 207 255
175 207 255
175 207 255
175 207 255
175 207 255
175 207 255
175 207 255
175 207 255
175 207 255
175 207 255
175 207 255
175 207 255
174 207 255
174 207 255
174 207 255
174 207 255
174 207 255
174 207 255
174 207 255
174 207 255
174 207 255
174 206 255
174 206 255
174 206 255
174 206 255
174 206 255
173 206 255
173 206 255
173 206 255
173 206 255
173 206 255
173 206 255
173 206 255
173 206 255
173 206 255
173 206 255
173 206 255
173 206 255
173 206 255
173 206 255
172 206 255
172 206 255
172 206 255
172 206 255
172 206 255
172 205 255
172 205 255
172 205 255
172 205 255
172 205 255
172 205 255
172 205 255
172 205 255
172 205 255
172 205 255
171 205 255
171 205 255
171 205 255
171 205 255
171 205 255
171 205 255
171 205 255
171 205 255
171 205 255
171 205 255
122 148 188
73 91 119
71 88 115
75 92 119
72 90 116
74 93 120
74 90 115
75 93 120
72 90 116
73 90 115
70 88 114
71 88 113
73 90 117
71 88 115
69 86 111
70 87 113
69 85 111
69 86 111
73 90 115
69 85 110
68 85 110
76 94 120
70 86 110
66 82 107
70 87 113
70 87 111
71 88 113
71 88 113
68 85 111
71 88 113
69 86 111
71 88 114
67 84 108
72 89 114
69 85 109
72 90 117
73 91 117
68 85 110
70 87 112
72 88 112
68 85 110
71 89 115
74 91 116
73 90 116
71 88 113
68 85 110
70 87 112
70 87 113
70 88 114
71 88 113
73 91 117
68 86 112
71 89 115
72 88 113
69 86 111
70 86 111
66 82 107
69 86 111
68 84 110
73 90 117
75 93 120
72 90 116
67 83 107
73 90 115
70 87 112
70 88 113
69 85 110
72 89 115
73 91 118
70 87 112
71 88 114
67 84 110
70 88 113
68 85 110
70 87 112
72 88 113
72 88 113
72 89 114
68 85 110
72 90 116
70 86 111
69 86 111
73 91 117
70 87 112
70 88 114
71 88 113
70 87 112
73 90 117
71 88 113
68 84 109
72 89 115
71 88 113
71 88 113
71 88 115
72 89 115
73 92 119
75 92 119
74 91 117
70 87 114
119 145 183
171 205 255
171 205 255
171 205 255
171 205 255
171 205 255
171 205 255
171 205 255
171 205 255
171 205 255
171 205 255
171 205 255
172 205 255
172 205 255
172 205 255
172 205 255
172 205 255
172 205 255
172 205 255
172 205 255
172 205 255
172 206 255
172 206 255
172 206 255
172 206 255
172 206 255
173 206 255
173 206 255
173 206 255
173 206 255
173 206 255
173 206 255
173 206 255
173 206 255
173 206 255
173 206 255
173 206 255
173 206 255
173 206 255
173 206 255
174 206 255
174 206 255
174 206 255
174 206 255
174 207 255
174 207 255
174 207 255
174 207 255
174 207 255
174 207 255
174 207 255
174 207 255
174 207 255
174 207 255
175 207 255
175 207 255
175 207 255
175 207 255
175 207 255
175 207 255
175 207 255
175 207 255
175 207 255
175 207 255
175 207 255
175 207 255
175 207 255
175 207 255
176 208 255
176 208 255
176 208 255
176 208 255
176 208 255
176 208 255
176 208 255
176 208 255
176 208 255
176 208 255
176 208 255
176 208 255
176 208 255
176 208 255
176 208 255
176 208 255
177 208 255
177 208 255
177 208 255
177 208 255
177 208 255
177 208 255
177 208 255
177 208 255
177 208 255
177 208 255
177 208 255
177 209 255
177 209 255
177 209 255
177 209 255
177 209 255
177 209 255
178 209 255
178 209 255
178 209 255
178 209 255
178 209 255
178 209 255
178 209 255
178 209 255
178 209 255
178 209 255
178 209 255
178 209 255
178 209 255
178 209 255
178 209 255
178 209 255
178 209 255
178 209 255
179 209 255
179 209 255
179 209 255
179 209 255
179 209 255
179 209 255
179 209 255
179 210 255
179 210 255
179 210 255
179 210 255
179 210 255
179 210 255
179 210 255
179 210 255
179 210 255
179 210 255
179 210 255
179 210 255
179 210 255
179 210 255
180 210 255
180 210 255
180 210 255
180 210 255
180 210 255
180 210 255
180 210 255
180 210 255
180 210 255
180 210 255
180 210 255
180 210 255
180 210 255
180 210 255
180 210 255
180 210 255
180 210 255
180 210 255
180 210 255
180 210 255
180 210 255
180 210 255
180 210 255
180 210 255
180 210 255
180 210 255
180 210 255
180 210 255
179 210 255
179 210 255
179 210 255
179 210 255
179 210 255
179 210 255
179 210 255
179 210 255
179 210 255
179 210 255
179 210 255
179 210 255
179 210 255
179 210 255
179 209 255
179 209 255
179 209 255
179 209 255
179 209 255
179 209 255
178 209 255
178 209 255
178 209 255
178 209 255
178 209 255
178 209 255
178 209 255
178 209 255
178 209 255
178 209 255
178 209 255
178 209 255
178 209 255
178 209 255
178 209 255
178 209 255
178 209 255
178 209 255
178 209 255
177 209 255
177 209 255
177 209 255
177 209 255
177 209 255
177 209 255
177 208 255
177 208 255
177 208 255
177 208 255
177 208 255
177 208 255
177 208 255
177 208 255
177 208 255
177 208 255
177 208 255
176 208 255
176 208 255
176 208 255
176 208 255
176 208 255
176 208 255
176 208 255
176 208 255
176 208 255
176 208 255
176 208 255
176 208 255
176 208 255
176 208 255
176 208 255
175 207 255
175 207 255
175 207 255
175 207 255
175 207 255
175 207 255
175 207 255
175 207 255
175 207 255
175 207 255
175 207 255
175 207 255
175 207 255
175 207 255
174 207 255
174 207 255
174 207 255
174 207 255
174 207 255
174 207 255
174 207 255
174 207 255
174 207 255
174 207 255
174 206 255
174 206 255
174 206 255
174 206 255
174 206 255
173 206 255
173 206 255
173 206 255
173 206 255
173 206 255
173 206 255
173 206 255
173 206 255
173 206 255
173 206 255
173 206 255
173 206 255
173 206 255
173 206 255
172 206 255
172 206 255
172 206 255
172 206 255
172 206 255
172 205 255
172 205 255
172 205 255
172 205 255
172 205 255
172 205 255
172 205 255
172 205 255
172 205 255
172 205 255
171 205 255
171 205 255
171 205 255
136 163 205
71 88 115
72 89 115
73 90 116
68 85 111
69 86 112
72 90 116
71 89 116
70 86 111
72 90 118
74 91 117
73 90 116
69 86 111
71 88 115
72 89 115
67 84 109
71 89 115
73 91 118
70 86 111
71 88 114
69 86 111
66 83 108
71 87 112
68 85 110
69 86 111
69 86 111
75 93 119
69 85 110
69 86 110
72 89 113
71 87 112
69 86 111
73 90 116
68 85 109
70 87 112
69 87 112
65 82 108
68 85 110
66 83 108
74 91 117
70 87 113
70 88 115
69 85 109
72 90 115
71 88 113
68 85 111
68 84 108
76 93 119
67 83 106
70 87 111
67 84 109
72 90 117
69 86 111
70 87 112
67 83 108
72 89 114
70 87 113
72 89 114
69 85 110
70 87 113
70 87 112
69 87 113
69 86 112
72 89 115
64 79 103
72 89 116
70 87 113
72 89 115
67 84 110
68 84 108
69 87 113
72 89 114
72 89 114
70 88 113
70 85 109
73 91 119
68 85 109
69 86 110
71 87 112
69 85 111
71 89 115
71 87 110
72 91 118
68 84 108
70 87 111
67 84 108
67 84 109
73 89 114
71 88 114
77 95 121
66 83 108
73 90 117
68 85 109
69 87 113
70 87 113
68 85 109
71 88 114
70 88 113
74 92 119
69 86 111
72 89 115
140 168 211
171 205 255
171 205 255
171 205 255
172 205 255
172 205 255
172 205 255
172 205 255
172 205 255
172 205 255
172 205 255
172 205 255
172 205 255
172 205 255
172 206 255
172 206 255
172 206 255
172 206 255
172 206 255
173 206 255
173 206 255
173 206 255
173 206 255
173 206 255
173 206 255
173 206 255
173 206 255
173 206 255
173 206 255
173 206 255
173 206 255
173 206 255
173 206 255
174 206 255
174 206 255
174 206 255
174 206 255
174 206 255
174 207 255
174 207 255
174 207 255
174 207 255
174 207 255
174 207 255
174 207 255
174 207 255
174 207 255
175 207 255
175 207 255
175 207 255
175 207 255
175 207 255
175 207 255
175 207 255
175 207 255
175 207 255
175 207 255
175 207 255
175 207 255
175 207 255
175 207 255
175 207 255
176 208 255
176 208 255
176 208 255
176 208 255
176 208 255
176 208 255
176 208 255
176 208 255
176 208 255
176 208 255
176 208 255
176 208 255
176 208 255
176 208 255
176 208 255
176 208 255
177 208 255
177 208 255
177 208 255
177 208 255
177 208 255
177 208 255
177 208 255
177 208 255
177 208 255
177 208 255
177 209 255
177 209 255
177 209 255
177 209 255
177 209 255
177 209 255
178 209 255
178 209 255
178 209 255
178 209 255
178 209 255
178 209 255
178 209 255
178 209 255
178 209 255
178 209 255
178 209 255
178 209 255
178 209 255
178 209 255
178 209 255
178 209 255
178 209 255
178 209 255
178 209 255
179 209 255
179 209 255
179 209 255
179 209 255
179 209 255
179 209 255
179 210 255
179 210 255
179 210 255
179 210 255
179 210 255
179 210 255
179 210 255
179 210 255
179 210 255
179 210 255
179 210 255
179 210 255
179 210 255
179 210 255
180 210 255
180 210 255
180 210 255
180 210 255
180 210 255
180 210 255
180 210 255
180 210 255
180 210 255
180 210 255
180 210 255
180 210 255
180 210 255
180 210 255
180 210 255
180 210 255
180 210 255
180 210 255
180 210 255
180 210 255
180 210 255
180 210 255
180 210 255
180 210 255
180 210 255
180 210 255
180 210 255
180 210 255
180 210 255
180 210 255
180 210 255
180 210 255
180 210 255
180 210 255
180 210 255
180 210 255
180 210 255
180 210 255
180 210 255
180 210 255
179 210 255
179 210 255
179 210 255
179 210 255
179 210 255
179 210 255
179 210 255
179 210 255
179 210 255
179 210 255
179 210 255
179 210 255
179 210 255
179 210 255
179 209 255
179 209 255
179 209 255
179 209 255
179 209 255
179 209 255
179 209 255
178 209 255
178 209 255
178 209 255
178 209 255
178 209 255
178 209 255
178 209 255
178 209 255
178 209 255
178 209 255
178 209 255
178 209 255
178 209 255
178 209 255
178 209 255
178 209 255
178 209 255
177 209 255
177 209 255
177 209 255
177 209 255
177 209 255
177 209 255
177 208 255
177 208 255
177 208 255
177 208 255
177 208 255
177 208 255
177 208 255
177 208 255
177 208 255
177 208 255
177 208 255
176 208 255
176 208 255
176 208 255
176 208 255
176 208 255
176 208 255
176 208 255
176 208 255
176 208 255
176 208 255
176 208 255
176 208 255
176 208 255
176 208 255
176 208 255
176 208 255
175 207 255
175 207 255
175 207 255
175 207 255
175 207 255
175 207 255
175 207 255
175 207 255
175 207 255
175 207 255
175 207 255
175 207 255
175 207 255
175 207 255
174 207 255
174 207 255
174 207 255
174 207 255
174 207 255
174 207 255
174 207 255
174 207 255
174 207 255
174 207 255
174 206 255
174 206 255
174 206 255
174 206 255
174 206 255
173 206 255
173 206 255
173 206 255
173 206 255
173 206 255
173 206 255
173 206 255
173 206 255
173 206 255
173 206 255
173 206 255
173 206 255
173 206 255
173 206 255
172 206 255
172 206 255
172 206 255
172 206 255
172 206 255
172 206 255
172 205 255
172 205 255
172 205 255
172 205 255
172 205 255
141 170 213
80 99 128
68 85 111
71 88 113
69 87 113
70 87 112
72 89 116
73 91 117
73 92 119
71 89 115
73 90 115
74 92 119
72 89 113
70 87 112
70 86 111
68 86 111
74 90 115
73 90 115
70 87 113
69 86 111
75 91 116
67 83 108
69 87 113
69 85 110
69 86 111
69 86 111
70 87 113
72 89 114
71 87 111
67 83 108
68 85 111
69 85 110
68 85 111
70 86 110
71 88 113
67 83 107
68 86 111
74 91 117
65 81 105
75 91 115
69 85 110
69 85 110
71 87 111
72 89 114
69 86 110
75 91 116
70 86 111
70 86 110
71 88 112
70 86 111
71 88 113
70 86 111
71 88 114
70 87 112
71 88 113
70 86 111
67 82 105
72 88 113
70 86 111
68 85 111
71 88 114
67 83 108
70 87 112
71 88 114
70 87 111
70 86 111
69 87 113
68 84 109
69 85 110
70 86 111
68 85 111
71 88 113
72 88 113
72 89 115
74 91 115
69 86 111
69 86 112
71 87 113
72 89 115
75 92 119
67 83 107
69 87 113
74 91 117
73 90 117
65 82 107
68 84 108
68 86 112
70 86 110
73 91 117
71 88 113
73 90 115
69 85 108
67 84 109
72 89 114
67 84 110
66 83 108
70 86 110
69 86 112
70 87 112
73 90 117
67 84 109
68 85 111
77 94 120
154 184 230
172 205 255
172 205 255
172 205 255
172 205 255
172 205 255
172 205 255
172 206 255
172 206 255
172 206 255
172 206 255
173 206 255
173 206 255
173 206 255
173 206 255
173 206 255
173 206 255
173 206 255
173 206 255
173 206 255
173 206 255
173 206 255
173 206 255
173 206 255
173 206 255
173 206 255
174 206 255
174 206 255
174 206 255
174 206 255
174 206 255
174 207 255
174 207 255
174 207 255
174 207 255
174 207 255
174 207 255
174 207 255
174 207 255
174 207 255
174 207 255
175 207 255
175 207 255
175 207 255
175 207 255
175 207 255
175 207 255
175 207 255
175 207 255
175 207 255
175 207 255
175 207 255
175 207 255
175 207 255
175 207 255
176 208 255
176 208 255
176 208 255
176 208 255
176 208 255
176 208 255
176 208 255
176 208 255
176 208 255
176 208 255
176 208 255
176 208 255
176 208 255
176 208 255
176 208 255
176 208 255
177 208 255
177 208 255
177 208 255
177 208 255
177 208 255
177 208 255
177 208 255
177 208 255
177 208 255
177 208 255
177 208 255
177 209 255
177 209 255
177 209 255
177 209 255
177 209 255
177 209 255
178 209 255
178 209 255
178 209 255
178 209 255
178 209 255
178 209 255
178 209 255
178 209 255
178 209 255
178 209 255
178 209 255
178 209 255
178 209 255
178 209 255
178 209 255
178 209 255
178 209 255
178 209 255
179 209 255
179 209 255
179 209 255
179 209 255
179 209 255
179 209 255
179 210 255
179 210 255
179 210 255
179 210 255
179 210 255
179 210 255
179 210 255
179 210 255
179 210 255
179 210 255
179 210 255
179 210 255
179 210 255
179 210 255
180 210 255
180 210 255
180 210 255
180 210 255
180 210 255
180 210 255
180 210 255
180 210 255
180 210 255
180 210 255
180 210 255
180 210 255
180 210 255
180 210 255
180 210 255
180 210 255
180 210 255
180 210 255
180 210 255
180 210 255
180 210 255
180 210 255
180 210 255
181 211 255
181 211 255
181 211 255
181 211 255
181 211 255
181 211 255
181 211 255
180 210 255
180 210 255
180 210 255
180 210 255
180 210 255
180 210 255
180 210 255
180 210 255
180 210 255
180 210 255
180 210 255
180 210 255
180 210 255
180 210 255
180 210 255
180 210 255
180 210 255
180 210 255
180 210 255
180 210 255
180 210 255
180 210 255
180 210 255
179 210 255
179 210 255
179 210 255
179 210 255
179 210 255
179 210 255
179 210 255
179 210 255
179 210 255
179 210 255
179 210 255
179 210 255
179 210 255
179 209 255
179 209 255
179 209 255
179 209 255
179 209 255
179 209 255
178 209 255
178 209 255
178 209 255
178 209 255
178 209 255
178 209 255
178 209 255
178 209 255
178 209 255
178 209 255
178 209 255
178 209 255
178 209 255
178 209 255
178 209 255
178 209 255
178 209 255
178 209 255
177 209 255
177 209 255
177 209 255
177 209 255
177 209 255
177 209 255
177 208 255
177 208 255
177 208 255
177 208 255
177 208 255
177 208 255
177 208 255
177 208 255
177 208 255
177 208 255
177 208 255
176 208 255
176 208 255
176 208 255
176 208 255
176 208 255
176 208 255
176 208 255
176 208 255
176 208 255
176 208 255
176 208 255
176 208 255
176 208 255
176 208 255
176 208 255
175 207 255
175 207 255
175 207 255
175 207 255
175 207 255
175 207 255
175 207 255
175 207 255
175 207 255
175 207 255
175 207 255
175 207 255
175 207 255
175 207 255
175 207 255
174 207 255
174 207 255
174 207 255
174 207 255
174 207 255
174 207 255
174 207 255
174 207 255
174 207 255
174 207 255
174 206 255
174 206 255
174 206 255
174 206 255
174 206 255
173 206 255
173 206 255
173 206 255
173 206 255
173 206 255
173 206 255
173 206 255
173 206 255
173 206 255
173 206 255
173 206 255
173 206 255
173 206 255
173 206 255
173 206 255
172 206 255
172 206 255
172 206 255
166 198 247
80 99 126
73 90 116
72 88 113
74 92 118
73 90 114
69 85 109
74 92 118
71 88 114
73 90 117
71 88 113
70 87 113
75 92 117
76 93 119
66 82 106
73 91 117
69 87 113
69 85 111
73 90 115
71 87 112
71 87 111
69 86 113
72 89 115
70 87 113
68 84 108
67 83 108
69 86 111
69 86 110
70 87 112
70 86 111
70 88 115
70 86 111
69 85 110
72 89 113
67 82 105
68 85 110
69 86 111
72 89 115
66 82 106
68 84 108
72 88 113
70 87 112
70 87 112
74 90 115
73 90 117
69 86 111
67 83 106
70 87 111
70 87 112
69 86 112
68 84 109
71 88 115
69 85 110
69 87 113
68 84 109
70 87 111
69 85 110
72 89 114
66 81 104
70 87 113
70 87 112
72 89 114
69 85 110
70 86 110
71 88 114
70 87 112
70 87 113
74 91 116
68 85 109
71 87 112
73 91 117
73 89 115
71 89 115
71 88 114
68 85 110
71 88 113
71 89 115
69 85 108
66 82 107
71 88 113
72 88 113
69 86 112
68 84 109
72 89 115
74 92 118
74 91 117
69 86 110
67 84 109
70 87 111
71 89 115
75 93 120
72 89 114
70 88 114
72 89 115
73 91 117
72 90 116
74 90 115
72 89 115
70 86 111
67 85 110
66 83 108
71 89 116
70 88 114
73 90 115
86 106 136
167 200 248
172 206 255
172 206 255
172 206 255
173 206 255
173 206 255
173 206 255
173 206 255
173 206 255
173 206 255
173 206 255
173 206 255
173 206 255
173 206 255
173 206 255
173 206 255
173 206 255
173 206 255
173 206 255
174 206 255
174 206 255
174 206 255
174 206 255
174 206 255
174 207 255
174 207 255
174 207 255
174 207 255
174 207 255
174 207 255
174 207 255
174 207 255
174 207 255
174 207 255
175 207 255
175 207 255
175 207 255
175 207 255
175 207 255
175 207 255
175 207 255
175 207 255
175 207 255
175 207 255
175 207 255
175 207 255
175 207 255
175 207 255
175 207 255
176 208 255
176 208 255
176 208 255
176 208 255
176 208 255
176 208 255
176 208 255
176 208 255
176 208 255
176 208 255
176 208 255
176 208 255
176 208 255
176 208 255
176 208 255
177 208 255
177 208 255
177 208 255
177 208 255
177 208 255
177 208 255
177 208 255
177 208 255
177 208 255
177 208 255
177 208 255
177 209 255
177 209 255
177 209 255
177 209 255
177 209 255
177 209 255
178 209 255
178 209 255
178 209 255
178 209 255
178 209 255
178 209 255
178 209 255
178 209 255
178 209 255
178 209 255
178 209 255
178 209 255
178 209 255
178 209 255
178 209 255
178 209 255
178 209 255
179 209 255
179 209 255
179 209 255
179 209 255
179 209 255
179 209 255
179 209 255
179 210 255
179 210 255
179 210 255
179 210 255
179 210 255
179 210 255
179 210 255
179 210 255
179 210 255
179 210 255
179 210 255
179 210 255
179 210 255
179 210 255
180 210 255
180 210 255
180 210 255
180 210 255
180 210 255
180 210 255
180 210 255
180 210 255
180 210 255
180 210 255
180 210 255
180 210 255
180 210 255
180 210 255
180 210 255
180 210 255
180 210 255
180 210 255
180 210 255
180 210 255
180 210 255
180 210 255
181 211 255
181 211 255
181 211 255
181 211 255
181 211 255
181 211 255
181 211 255
181 211 255
181 211 255
181 211 255
181 211 255
181 211 255
181 211 255
181 211 255
181 211 255
181 211 255
181 211 255
181 211 255
181 211 255
181 211 255
181 211 255
180 210 255
180 210 255
180 210 255
180 210 255
180 210 255
180 210 255
180 210 255
180 210 255
180 210 255
180 210 255
180 210 255
180 210 255
180 210 255
180 210 255
180 210 255
180 210 255
180 210 255
180 210 255
180 210 255
180 210 255
180 210 255
180 210 255
179 210 255
179 210 255
179 210 255
179 210 255
179 210 255
179 210 255
179 210 255
179 210 255
179 210 255
179 210 255
179 210 255
179 210 255
179 210 255
179 209 255
179 209 255
179 209 255
179 209 255
179 209 255
179 209 255
179 209 255
178 209 255
178 209 255
178 209 255
178 209 255
178 209 255
178 209 255
178 209 255
178 209 255
178 209 255
178 209 255
178 209 255
178 209 255
178 209 255
178 209 255
178 209 255
178 209 255
178 209 255
177 209 255
177 209 255
177 209 255
177 209 255
177 209 255
177 208 255
177 208 255
177 208 255
177 208 255
177 208 255
177 208 255
177 208 255
177 208 255
177 208 255
177 208 255
177 208 255
177 208 255
176 208 255
176 208 255
176 208 255
176 208 255
176 208 255
176 208 255
176 208 255
176 208 255
176 208 255
176 208 255
176 208 255
176 208 255
176 208 255
176 208 255
176 208 255
175 207 255
175 207 255
175 207 255
175 207 255
175 207 255
175 207 255
175 207 255
175 207 255
175 207 255
175 207 255
175 207 255
175 207 255
175 207 255
175 207 255
175 207 255
174 207 255
174 207 255
174 207 255
174 207 255
174 207 255
174 207 255
174 207 255
174 207 255
174 207 255
174 207 255
174 206 255
174 206 255
174 206 255
174 206 255
174 206 255
173 206 255
173 206 255
173 206 255
173 206 255
173 206 255
173 206 255
173 206 255
173 206 255
173 206 255
173 206 255
173 206 255
173 206 255
101 123 156
72 89 115
73 90 117
69 86 112
73 90 115
68 85 111
69 86 111
67 85 111
72 89 115
67 84 109
68 86 111
71 87 112
74 91 117
68 85 110
70 87 112
73 89 113
68 85 110
74 91 117
74 91 115
69 85 110
68 85 110
72 88 112
70 86 111
72 89 114
72 89 115
68 84 108
71 88 114
76 93 118
72 88 112
71 87 111
71 87 111
70 86 111
69 85 110
71 87 110
72 89 114
74 90 115
70 87 112
69 85 109
69 85 109
67 83 107
68 83 107
70 87 113
69 86 111
70 87 113
69 86 111
70 86 110
70 87 112
71 87 112
68 85 110
71 87 111
66 83 109
72 90 116
67 84 109
69 85 110
69 87 113
69 86 111
69 85 110
72 90 115
70 86 111
71 87 112
66 82 105
70 87 112
72 89 114
67 84 110
71 88 114
70 86 110
68 84 108
70 86 111
69 86 110
71 88 113
67 82 106
69 86 111
70 87 111
70 87 112
71 89 115
71 88 112
69 85 110
71 88 114
69 86 111
66 82 107
69 87 113
71 88 113
68 85 110
71 88 114
69 86 110
69 85 110
69 86 111
68 86 112
70 86 110
68 84 108
70 87 113
71 87 111
70 86 111
71 88 112
71 88 114
70 87 113
68 86 112
70 86 111
70 87 112
69 86 111
72 90 117
73 91 116
68 84 108
70 87 113
70 87 112
107 130 164
173 206 255
173 206 255
173 206 255
173 206 255
173 206 255
173 206 255
173 206 255
173 206 255
173 206 255
173 206 255
173 206 255
174 206 255
174 206 255
174 206 255
174 206 255
174 206 255
174 206 255
174 207 255
174 207 255
174 207 255
174 207 255
174 207 255
174 207 255
174 207 255
174 207 255
174 207 255
174 207 255
175 207 255
175 207 255
175 207 255
175 207 255
175 207 255
175 207 255
175 207 255
175 207 255
175 207 255
175 207 255
175 207 255
175 207 255
175 207 255
175 207 255
175 207 255
176 208 255
176 208 255
176 208 255
176 208 255
176 208 255
176 208 255
176 208 255
176 208 255
176 208 255
176 208 255
176 208 255
176 208 255
176 208 255
176 208 255
176 208 255
176 208 255
177 208 255
177 208 255
177 208 255
177 208 255
177 208 255
177 208 255
177 208 255
177 208 255
177 208 255
177 208 255
177 209 255
177 209 255
177 209 255
177 209 255
177 209 255
177 209 255
178 209 255
178 209 255
178 209 255
178 209 255
178 209 255
178 209 255
178 209 255
178 209 255
178 209 255
178 209 255
178 209 255
178 209 255
178 209 255
178 209 255
178 209 255
178 209 255
178 209 255
178 209 255
179 209 255
179 209 255
179 209 255
179 209 255
179 209 255
179 209 255
179 210 255
179 210 255
179 210 255
179 210 255
179 210 255
179 210 255
179 210 255
179 210 255
179 210 255
179 210 255
179 210 255
179 210 255
179 210 255
180 210 255
180 210 255
180 210 255
180 210 255
180 210 255
180 210 255
180 210 255
180 210 255
180 210 255
180 210 255
180 210 255
180 210 255
180 210 255
180 210 255
180 210 255
180 210 255
180 210 255
180 210 255
180 210 255
180 210 255
180 210 255
180 210 255
180 210 255
181 211 255
181 211 255
181 211 255
181 211 255
181 211 255
181 211 255
181 211 255
181 211 255
181 211 255
181 211 255
181 211 255
181 211 255
181 211 255
181 211 255
181 211 255
181 211 255
181 211 255
181 211 255
181 211 255
181 211 255
181 211 255
181 211 255
181 211 255
181 211 255
181 211 255
181 211 255
181 211 255
181 211 255
181 211 255
181 211 255
181 211 255
181 211 255
181 211 255
180 210 255
180 210 255
180 210 255
180 210 255
180 210 255
180 210 255
180 210 255
180 210 255
180 210 255
180 210 255
180 210 255
180 210 255
180 210 255
180 210 255
180 210 255
180 210 255
180 210 255
180 210 255
180 210 255
180 210 255
180 210 255
180 210 255
179 210 255
179 210 255
179 210 255
179 210 255
179 210 255
179 210 255
179 210 255
179 210 255
179 210 255
179 210 255
179 210 255
179 210 255
179 210 255
179 209 255
179 209 255
179 209 255
179 209 255
179 209 255
179 209 255
179 209 255
178 209 255
178 209 255
178 209 255
178 209 255
178 209 255
178 209 255
178 209 255
178 209 255
178 209 255
178 209 255
178 209 255
178 209 255
178 209 255
178 209 255
178 209 255
178 209 255
178 209 255
177 209 255
177 209 255
177 209 255
177 209 255
177 209 255
177 209 255
177 208 255
177 208 255
177 208 255
177 208 255
177 208 255
177 208 255
177 208 255
177 208 255
177 208 255
177 208 255
177 208 255
176 208 255
176 208 255
176 208 255
176 208 255
176 208 255
176 208 255
176 208 255
176 208 255
176 208 255
176 208 255
176 208 255
176 208 255
176 208 255
176 208 255
176 208 255
175 207 255
175 207 255
175 207 255
175 207 255
175 207 255
175 207 255
175 207 255
175 207 255
175 207 255
175 207 255
175 207 255
175 207 255
175 207 255
175 207 255
175 207 255
174 207 255
174 207 255
174 207 255
174 207 255
174 207 255
174 207 255
174 207 255
174 207 255
174 207 255
174 207 255
174 207 255
174 206 255
174 206 255
174 206 255
174 206 255
174 206 255
174 206 255
173 206 255
173 206 255
173 206 255
133 160 201
75 92 117
71 88 113
64 81 106
71 88 115
74 92 118
70 88 114
70 87 111
72 89 115
75 91 116
71 88 113
68 84 109
71 88 113
73 90 115
71 88 114
71 88 113
69 86 111
72 89 115
71 88 114
69 86 110
72 89 114
70 87 112
73 90 117
73 90 115
72 89 115
68 85 109
69 86 112
68 84 108
70 87 112
69 85 109
66 82 107
72 88 112
71 88 113
67 84 110
70 87 112
69 87 112
69 85 110
71 87 112
66 83 107
70 86 111
68 84 108
64 81 105
67 84 109
69 85 110
68 85 111
69 85 109
68 85 110
69 86 111
70 86 111
68 84 110
70 86 110
68 84 109
69 84 108
70 87 113
73 90 115
68 85 110
68 85 110
73 91 117
70 86 111
71 88 113
68 85 110
71 87 113
70 87 111
69 86 112
69 84 107
68 84 107
71 88 113
69 85 110
69 85 109
72 89 115
66 83 108
69 86 112
71 88 113
72 89 114
73 91 117
68 83 106
72 89 115
72 88 113
72 89 115
65 81 106
69 86 111
68 84 108
70 86 111
71 88 113
67 83 108
74 91 116
71 89 116
69 86 110
65 80 103
73 90 115
69 86 110
74 91 117
69 86 112
68 85 111
72 89 114
70 86 111
68 85 110
67 85 111
69 85 109
67 84 109
74 91 116
70 88 116
69 85 110
70 88 114
72 89 115
74 91 117
72 89 114
134 161 202
173 206 255
173 206 255
173 206 255
174 206 255
174 206 255
174 206 255
174 206 255
174 206 255
174 206 255
174 207 255
174 207 255
174 207 255
174 207 255
174 207 255
174 207 255
174 207 255
174 207 255
174 207 255
174 207 255
174 207 255
175 207 255
175 207 255
175 207 255
175 207 255
175 207 255
175 207 255
175 207 255
175 207 255
175 207 255
175 207 255
175 207 255
175 207 255
175 207 255
175 207 255
175 207 255
176 208 255
176 208 255
176 208 255
176 208 255
176 208 255
176 208 255
176 208 255
176 208 255
176 208 255
176 208 255
176 208 255
176 208 255
176 208 255
176 208 255
176 208 255
177 208 255
177 208 255
177 208 255
177 208 255
177 208 255
177 208 255
177 208 255
177 208 255
177 208 255
177 208 255
177 208 255
177 209 255
177 209 255
177 209 255
177 209 255
177 209 255
177 209 255
178 209 255
178 209 255
178 209 255
178 209 255
178 209 255
178 209 255
178 209 255
178 209 255
178 209 255
178 209 255
178 209 255
178 209 255
178 209 255
178 209 255
178 209 255
178 209 255
178 209 255
179 209 255
179 209 255
179 209 255
179 209 255
179 209 255
179 209 255
179 209 255
179 210 255
179 210 255
179 210 255
179 210 255
179 210 255
179 210 255
179 210 255
179 210 255
179 210 255
179 210 255
179 210 255
179 210 255
179 210 255
180 210 255
180 210 255
180 210 255
180 210 255
180 210 255
180 210 255
180 210 255
180 210 255
180 210 255
180 210 255
180 210 255
180 210 255
180 210 255
180 210 255
180 210 255
180 210 255
180 210 255
180 210 255
180 210 255
180 210 255
180 210 255
180 210 255
181 211 255
181 211 255
181 211 255
181 211 255
181 211 255
181 211 255
181 211 255
181 211 255
181 211 255
181 211 255
181 211 255
181 211 255
181 211 255
181 211 255
181 211 255
181 211 255
181 211 255
181 211 255
181 211 255
181 211 255
182 211 255
182 211 255
181 211 255
181 211 255
181 211 255
181 211 255
181 211 255
181 211 255
181 211 255
181 211 255
181 211 255
181 211 255
181 211 255
181 211 255
181 211 255
181 211 255
181 211 255
181 211 255
181 211 255
181 211 255
181 211 255
181 211 255
181 211 255
181 211 255
181 211 255
181 211 255
181 211 255
180 210 255
180 210 255
180 210 255
180 210 255
180 210 255
180 210 255
180 210 255
180 210 255
180 210 255
180 210 255
180 210 255
180 210 255
180 210 255
180 210 255
180 210 255
180 210 255
180 210 255
180 210 255
180 210 255
180 210 255
180 210 255
180 210 255
179 210 255
179 210 255
179 210 255
179 210 255
179 210 255
179 210 255
179 210 255
179 210 255
179 210 255
179 210 255
179 210 255
179 210 255
179 209 255
179 209 255
179 209 255
179 209 255
179 209 255
179 209 255
179 209 255
178 209 255
178 209 255
178 209 255
178 209 255
178 209 255
178 209 255
178 209 255
178 209 255
178 209 255
178 209 255
178 209 255
178 209 255
178 209 255
178 209 255
178 209 255
178 209 255
178 209 255
177 209 255
177 209 255
177 209 255
177 209 255
177 209 255
177 209 255
177 208 255
177 208 255
177 208 255
177 208 255
177 208 255
177 208 255
177 208 255
177 208 255
177 208 255
177 208 255
177 208 255
176 208 255
176 208 255
176 208 255
176 208 255
176 208 255
176 208 255
176 208 255
176 208 255
176 208 255
176 208 255
176 208 255
176 208 255
176 208 255
176 208 255
176 208 255
176 208 255
175 207 255
175 207 255
175 207 255
175 207 255
175 207 255
175 207 255
175 207 255
175 207 255
175 207 255
175 207 255
175 207 255
175 207 255
175 207 255
175 207 255
175 207 255
174 207 255
174 207 255
174 207 255
174 207 255
174 207 255
174 207 255
174 207 255
174 207 255
174 207 255
174 207 255
174 207 255
174 207 255
159 190 236
75 92 118
69 87 115
72 89 115
69 85 110
68 85 110
74 92 117
71 88 113
69 85 109
68 84 110
72 89 115
71 88 113
71 88 112
73 90 115
71 88 113
70 87 113
72 89 114
68 85 111
71 88 114
67 83 108
76 93 118
71 87 112
73 90 116
73 90 115
71 88 113
69 85 110
68 85 110
70 87 112
69 86 111
69 85 110
67 84 108
71 88 112
70 86 111
68 84 108
71 87 112
72 89 115
70 88 113
70 86 111
68 84 108
69 86 111
70 87 112
68 85 110
71 88 113
68 85 109
71 88 112
68 84 110
69 85 110
64 80 105
67 82 106
67 84 109
66 81 103
70 86 111
69 85 110
75 92 119
72 89 113
68 85 111
74 91 116
71 88 114
68 84 108
68 85 109
66 82 106
72 89 114
69 85 110
67 82 105
71 88 112
69 85 110
68 85 111
70 87 112
70 87 111
72 88 114
70 87 111
69 86 110
74 90 114
69 86 110
73 90 117
71 88 112
70 87 113
69 86 111
72 89 115
72 89 116
69 86 111
66 83 108
70 87 113
70 86 109
71 88 113
68 85 109
71 88 113
72 90 116
63 79 103
72 89 116
67 84 109
69 85 110
69 85 110
69 86 110
67 83 108
72 89 115
76 93 119
68 85 111
69 87 113
71 88 113
68 85 112
69 86 112
71 88 113
71 88 113
71 88 114
72 90 117
72 91 118
68 85 110
78 96 123
162 193 239
174 206 255
174 207 255
174 207 255
174 207 255
174 207 255
174 207 255
174 207 255
174 207 255
174 207 255
174 207 255
174 207 255
174 207 255
175 207 255
175 207 255
175 207 255
175 207 255
175 207 255
175 207 255
175 207 255
175 207 255
175 207 255
175 207 255
175 207 255
175 207 255
175 207 255
175 207 255
175 207 255
175 207 255
176 208 255
176 208 255
176 208 255
176 208 255
176 208 255
176 208 255
176 208 255
176 208 255
176 208 255
176 208 255
176 208 255
176 208 255
176 208 255
176 208 255
176 208 255
177 208 255
177 208 255
177 208 255
177 208 255
177 208 255
177 208 255
177 208 255
177 208 255
177 208 255
177 208 255
177 208 255
177 209 255
177 209 255
177 209 255
177 209 255
177 209 255
178 209 255
178 209 255
178 209 255
178 209 255
178 209 255
178 209 255
178 209 255
178 209 255
178 209 255
178 209 255
178 209 255
178 209 255
178 209 255
178 209 255
178 209 255
178 209 255
178 209 255
178 209 255
179 209 255
179 209 255
179 209 255
179 209 255
179 209 255
179 209 255
179 210 255
179 210 255
179 210 255
179 210 255
179 210 255
179 210 255
179 210 255
179 210 255
179 210 255
179 210 255
179 210 255
179 210 255
179 210 255
180 210 255
180 210 255
180 210 255
180 210 255
180 210 255
180 210 255
180 210 255
180 210 255
180 210 255
180 210 255
180 210 255
180 210 255
180 210 255
180 210 255
180 210 255
180 210 255
180 210 255
180 210 255
180 210 255
180 210 255
180 210 255
180 210 255
181 211 255
181 211 255
181 211 255
181 211 255
181 211 255
181 211 255
181 211 255
181 211 255
181 211 255
181 211 255
181 211 255
181 211 255
181 211 255
181 211 255
181 211 255
181 211 255
181 211 255
181 211 255
181 211 255
181 211 255
181 211 255
181 211 255
181 211 255
181 211 255
181 211 255
182 211 255
182 211 255
182 211 255
182 211 255
182 211 255
182 211 255
182 211 255
182 211 255
182 211 255
182 211 255
182 211 255
181 211 255
181 211 255
181 211 255
181 211 255
181 211 255
181 211 255
181 211 255
181 211 255
181 211 255
181 211 255
181 211 255
181 211 255
181 211 255
181 211 255
181 211 255
181 211 255
181 211 255
181 211 255
181 211 255
181 211 255
181 211 255
181 211 255
181 211 255
181 211 255
181 211 255
180 210 255
180 210 255
180 210 255
180 210 255
180 210 255
180 210 255
180 210 255
180 210 255
180 210 255
180 210 255
180 210 255
180 210 255
180 210 255
180 210 255
180 210 255
180 210 255
180 210 255
180 210 255
180 210 255
180 210 255
180 210 255
179 210 255
179 210 255
179 210 255
179 210 255
179 210 255
179 210 255
179 210 255
179 210 255
179 210 255
179 210 255
179 210 255
179 210 255
179 210 255
179 209 255
179 209 255
179 209 255
179 209 255
179 209 255
179 209 255
178 209 255
178 209 255
178 209 255
178 209 255
178 209 255
178 209 255
178 209 255
178 209 255
178 209 255
178 209 255
178 209 255
178 209 255
178 209 255
178 209 255
178 209 255
178 209 255
178 209 255
178 209 255
177 209 255
177 209 255
177 209 255
177 209 255
177 209 255
177 208 255
177 208 255
177 208 255
177 208 255
177 208 255
177 208 255
177 208 255
177 208 255
177 208 255
177 208 255
177 208 255
176 208 255
176 208 255
176 208 255
176 208 255
176 208 255
176 208 255
176 208 255
176 208 255
176 208 255
176 208 255
176 208 255
176 208 255
176 208 255
176 208 255
176 208 255
176 208 255
176 208 255
175 207 255
175 207 255
175 207 255
175 207 255
175 207 255
175 207 255
175 207 255
175 207 255
175 207 255
175 207 255
175 207 255
175 207 255
175 207 255
175 207 255
175 207 255
175 207 255
174 207 255
174 207 255
174 207 255
174 207 255
99 121 152
71 88 113
72 89 116
67 84 110
69 85 108
65 81 105
68 85 110
65 81 104
73 91 119
71 88 113
75 91 115
71 87 112
74 90 115
70 86 110
67 83 108
68 84 109
70 88 114
71 89 115
71 88 114
70 88 113
67 83 107
73 89 114
70 87 112
72 88 113
70 85 108
70 86 111
71 88 113
69 85 110
71 87 110
68 85 110
69 86 111
70 87 112
73 90 115
70 87 112
65 81 105
72 89 115
68 84 109
65 81 105
71 87 112
68 84 107
71 87 111
69 85 108
70 87 111
68 85 110
71 87 112
72 90 115
67 83 107
68 83 107
67 83 108
68 86 112
67 84 108
68 84 107
66 82 105
69 86 111
70 87 113
65 81 105
72 89 113
67 82 106
68 84 109
74 90 115
68 84 108
71 86 109
69 86 111
68 84 108
68 84 109
69 86 110
71 86 110
72 88 113
67 83 106
69 87 113
71 88 113
69 85 108
69 85 109
69 86 111
71 88 113
68 84 108
69 85 109
74 91 116
69 85 109
71 87 111
66 82 105
67 85 111
68 84 109
68 84 108
74 90 114
72 88 113
71 88 114
69 85 110
68 84 109
69 86 110
71 88 113
69 87 113
70 87 113
71 89 116
70 86 110
72 89 113
68 84 109
68 84 108
72 89 114
71 88 113
69 86 112
71 89 114
71 88 113
71 87 112
72 89 115
70 87 112
66 83 109
70 87 113
73 91 117
100 122 155
174 207 255
174 207 255
174 207 255
175 207 255
175 207 255
175 207 255
175 207 255
175 207 255
175 207 255
175 207 255
175 207 255
175 207 255
175 207 255
175 207 255
175 207 255
175 207 255
175 207 255
175 207 255
175 207 255
175 207 255
175 207 255
176 208 255
176 208 255
176 208 255
176 208 255
176 208 255
176 208 255
176 208 255
176 208 255
176 208 255
176 208 255
176 208 255
176 208 255
176 208 255
176 208 255
176 208 255
176 208 255
177 208 255
177 208 255
177 208 255
177 208 255
177 208 255
177 208 255
177 208 255
177 208 255
177 208 255
177 208 255
177 208 255
177 209 255
177 209 255
177 209 255
177 209 255
177 209 255
178 209 255
178 209 255
178 209 255
178 209 255
178 209 255
178 209 255
178 209 255
178 209 255
178 209 255
178 209 255
178 209 255
178 209 255
178 209 255
178 209 255
178 209 255
178 209 255
178 209 255
178 209 255
179 209 255
179 209 255
179 209 255
179 209 255
179 209 255
179 209 255
179 210 255
179 210 255
179 210 255
179 210 255
179 210 255
179 210 255
179 210 255
179 210 255
179 210 255
179 210 255
179 210 255
179 210 255
179 210 255
180 210 255
180 210 255
180 210 255
180 210 255
180 210 255
180 210 255
180 210 255
180 210 255
180 210 255
180 210 255
180 210 255
180 210 255
180 210 255
180 210 255
180 210 255
180 210 255
180 210 255
180 210 255
180 210 255
180 210 255
180 210 255
181 211 255
181 211 255
181 211 255
181 211 255
181 211 255
181 211 255
181 211 255
181 211 255
181 211 255
181 211 255
181 211 255
181 211 255
181 211 255
181 211 255
181 211 255
181 211 255
181 211 255
181 211 255
181 211 255
181 211 255
181 211 255
181 211 255
181 211 255
181 211 255
181 211 255
182 211 255
182 211 255
182 211 255
182 211 255
182 211 255
182 211 255
182 211 255
182 211 255
182 211 255
182 211 255
182 211 255
182 211 255
182 211 255
182 211 255
182 211 255
182 211 255
182 211 255
182 211 255
182 211 255
182 211 255
182 211 255
182 211 255
182 211 255
182 211 255
182 211 255
182 211 255
181 211 255
181 211 255
181 211 255
181 211 255
181 211 255
181 211 255
181 211 255
181 211 255
181 211 255
181 211 255
181 211 255
181 211 255
181 211 255
181 211 255
181 211 255
181 211 255
181 211 255
181 211 255
181 211 255
181 211 255
181 211 255
181 211 255
181 211 255
181 211 255
180 210 255
180 210 255
180 210 255
180 210 255
180 210 255
180 210 255
180 210 255
180 210 255
180 210 255
180 210 255
180 210 255
180 210 255
180 210 255
180 210 255
180 210 255
180 210 255
180 210 255
180 210 255
180 210 255
180 210 255
180 210 255
179 210 255
179 210 255
179 210 255
179 210 255
179 210 255
179 210 255
179 210 255
179 210 255
179 210 255
179 210 255
179 210 255
179 210 255
179 210 255
179 209 255
179 209 255
179 209 255
179 209 255
179 209 255
179 209 255
178 209 255
178 209 255
178 209 255
178 209 255
178 209 255
178 209 255
178 209 255
178 209 255
178 209 255
178 209 255
178 209 255
178 209 255
178 209 255
178 209 255
178 209 255
178 209 255
178 209 255
177 209 255
177 209 255
177 209 255
177 209 255
177 209 255
177 209 255
177 208 255
177 208 255
177 208 255
177 208 255
177 208 255
177 208 255
177 208 255
177 208 255
177 208 255
177 208 255
177 208 255
176 208 255
176 208 255
176 208 255
176 208 255
176 208 255
176 208 255
176 208 255
176 208 255
176 208 255
176 208 255
176 208 255
176 208 255
176 208 255
176 208 255
176 208 255
176 208 255
176 208 255
175 207 255
175 207 255
175 207 255
175 207 255
175 207 255
175 207 255
175 207 255
175 207 255
175 207 255
175 207 255
175 207 255
175 207 255
137 163 203
70 88 114
72 88 113
69 86 111
74 92 120
71 88 113
71 87 112
68 85 110
72 89 115
70 87 112
69 86 111
70 86 110
68 85 110
72 90 117
72 88 113
70 86 110
67 84 108
72 90 115
72 89 115
71 88 114
74 91 115
68 85 111
69 85 109
68 83 107
67 83 107
70 86 109
72 87 111
68 84 108
70 87 112
71 87 111
71 88 113
69 85 108
68 85 110
71 87 112
70 86 110
66 83 108
65 81 106
65 82 106
68 85 110
70 87 113
70 86 110
67 83 107
71 88 113
68 84 109
67 84 109
68 83 106
71 87 112
70 87 113
69 86 111
68 85 109
71 88 113
69 86 111
69 85 109
72 89 114
74 91 116
68 86 112
66 83 107
71 88 114
72 88 113
69 85 110
66 82 106
66 81 105
68 85 109
69 85 109
67 83 108
68 84 108
68 84 110
67 83 107
69 85 110
66 82 106
69 85 110
67 83 108
70 86 110
66 83 108
69 85 110
68 85 109
71 88 112
74 90 114
70 86 111
69 86 111
65 81 105
74 91 118
68 84 108
69 85 109
71 87 111
68 85 111
69 86 111
65 82 106
71 88 113
67 84 109
71 88 113
71 88 114
68 85 111
66 83 108
70 87 111
71 87 111
72 90 115
69 86 110
71 87 112
65 82 106
69 86 111
71 88 115
71 88 113
69 87 112
70 87 113
66 82 107
73 89 114
67 84 109
70 86 111
73 90 116
75 92 118
148 176 219
175 207 255
175 207 255
175 207 255
175 207 255
175 207 255
175 207 255
175 207 255
175 207 255
175 207 255
175 207 255
175 207 255
175 207 255
175 207 255
176 208 255
176 208 255
176 208 255
176 208 255
176 208 255
176 208 255
176 208 255
176 208 255
176 208 255
176 208 255
176 208 255
176 208 255
176 208 255
176 208 255
176 208 255
176 208 255
177 208 255
177 208 255
177 208 255
177 208 255
177 208 255
177 208 255
177 208 255
177 208 255
177 208 255
177 208 255
177 208 255
177 209 255
177 209 255
177 209 255
177 209 255
177 209 255
177 209 255
178 209 255
178 209 255
178 209 255
178 209 255
178 209 255
178 209 255
178 209 255
178 209 255
178 209 255
178 209 255
178 209 255
178 209 255
178 209 255
178 209 255
178 209 255
178 209 255
178 209 255
179 209 255
179 209 255
179 209 255
179 209 255
179 209 255
179 209 255
179 209 255
179 210 255
179 210 255
179 210 255
179 210 255
179 210 255
179 210 255
179 210 255
179 210 255
179 210 255
179 210 255
179 210 255
179 210 255
180 210 255
180 210 255
180 210 255
180 210 255
180 210 255
180 210 255
180 210 255
180 210 255
180 210 255
180 210 255
180 210 255
180 210 255
180 210 255
180 210 255
180 210 255
180 210 255
180 210 255
180 210 255
180 210 255
180 210 255
180 210 255
181 211 255
181 211 255
181 211 255
181 211 255
181 211 255
181 211 255
181 211 255
181 211 255
181 211 255
181 211 255
181 211 255
181 211 255
181 211 255
181 211 255
181 211 255
181 211 255
181 211 255
181 211 255
181 211 255
181 211 255
181 211 255
181 211 255
181 211 255
181 211 255
182 211 255
182 211 255
182 211 255
182 211 255
182 211 255
182 211 255
182 211 255
182 211 255
182 211 255
182 211 255
182 211 255
182 211 255
182 211 255
182 211 255
182 211 255
182 211 255
182 211 255
182 212 255
182 212 255
182 212 255
182 212 255
182 212 255
182 212 255
182 211 255
182 211 255
182 211 255
182 211 255
182 211 255
182 211 255
182 211 255
182 211 255
182 211 255
182 211 255
182 211 255
182 211 255
182 211 255
182 211 255
182 211 255
182 211 255
182 211 255
182 211 255
182 211 255
181 211 255
181 211 255
181 211 255
181 211 255
181 211 255
181 211 255
181 211 255
181 211 255
181 211 255
181 211 255
181 211 255
181 211 255
181 211 255
181 211 255
181 211 255
181 211 255
181 211 255
181 211 255
181 211 255
181 211 255
181 211 255
181 211 255
181 211 255
180 210 255
180 210 255
180 210 255
180 210 255
180 210 255
180 210 255
180 210 255
180 210 255
180 210 255
180 210 255
180 210 255
180 210 255
180 210 255
180 210 255
180 210 255
180 210 255
180 210 255
180 210 255
180 210 255
180 210 255
180 210 255
179 210 255
179 210 255
179 210 255
179 210 255
179 210 255
179 210 255
179 210 255
179 210 255
179 210 255
179 210 255
179 210 255
179 210 255
179 209 255
179 209 255
179 209 255
179 209 255
179 209 255
179 209 255
179 209 255
178 209 255
178 209 255
178 209 255
178 209 255
178 209 255
178 209 255
178 209 255
178 209 255
178 209 255
178 209 255
178 209 255
178 209 255
178 209 255
178 209 255
178 209 255
178 209 255
178 209 255
177 209 255
177 209 255
177 209 255
177 209 255
177 209 255
177 209 255
177 208 255
177 208 255
177 208 255
177 208 255
177 208 255
177 208 255
177 208 255
177 208 255
177 208 255
177 208 255
177 208 255
176 208 255
176 208 255
176 208 255
176 208 255
176 208 255
176 208 255
176 208 255
176 208 255
176 208 255
176 208 255
176 208 255
176 208 255
176 208 255
176 208 255
176 208 255
176 208 255
176 208 255
176 208 255
175 207 255
175 207 255
175 207 255
170 202 248
82 100 126
71 88 113
71 88 113
73 90 115
70 86 110
69 85 109
71 87 113
66 83 108
62 77 100
67 83 106
73 90 116
68 86 111
68 84 108
68 85 110
66 83 109
72 89 113
67 83 108
68 85 110
73 89 114
70 86 110
70 86 111
70 87 111
74 91 117
68 84 107
71 87 111
69 86 111
70 86 111
68 84 107
68 84 109
72 89 113
63 78 101
70 87 112
73 90 117
70 87 111
69 86 110
69 84 108
69 85 110
70 86 110
73 89 113
71 87 111
68 84 108
71 87 110
71 87 110
69 85 110
70 87 111
72 88 113
69 86 111
68 83 107
69 86 111
71 88 114
69 86 112
69 85 109
62 79 103
69 85 109
66 82 106
71 88 112
70 87 113
70 87 113
69 85 110
67 83 107
67 83 106
68 85 110
69 85 109
68 84 108
69 86 110
68 84 108
72 88 113
70 87 112
72 88 112
70 87 112
69 86 110
70 87 113
68 84 109
69 85 110
67 83 107
69 86 110
74 90 114
69 85 110
70 86 110
65 81 104
72 88 113
72 88 112
68 84 109
69 85 110
65 81 105
68 84 108
71 86 110
66 82 106
71 87 111
70 87 113
72 89 113
68 83 107
73 89 113
72 89 113
67 83 108
69 86 111
72 90 115
74 91 117
69 85 109
70 87 112
72 88 112
69 86 111
71 88 113
70 87 112
70 86 111
68 85 111
70 87 112
70 87 112
68 84 110
68 84 109
72 89 115
83 102 131
172 203 250
175 207 255
175 207 255
175 207 255
175 207 255
176 208 255
176 208 255
176 208 255
176 208 255
176 208 255
176 208 255
176 208 255
176 208 255
176 208 255
176 208 255
176 208 255
176 208 255
176 208 255
176 208 255
176 208 255
176 208 255
176 208 255
177 208 255
177 208 255
177 208 255
177 208 255
177 208 255
177 208 255
177 208 255
177 208 255
177 208 255
177 208 255
177 208 255
177 209 255
177 209 255
177 209 255
177 209 255
177 209 255
177 209 255
178 209 255
178 209 255
178 209 255
178 209 255
178 209 255
178 209 255
178 209 255
178 209 255
178 209 255
178 209 255
178 209 255
178 209 255
178 209 255
178 209 255
178 209 255
178 209 255
178 209 255
179 209 255
179 209 255
179 209 255
179 209 255
179 209 255
179 209 255
179 210 255
179 210 255
179 210 255
179 210 255
179 210 255
179 210 255
179 210 255
179 210 255
179 210 255
179 210 255
179 210 255
179 210 255
179 210 255
180 210 255
180 210 255
180 210 255
180 210 255
180 210 255
180 210 255
180 210 255
180 210 255
180 210 255
180 210 255
180 210 255
180 210 255
180 210 255
180 210 255
180 210 255
180 210 255
180 210 255
180 210 255
180 210 255
180 210 255
180 210 255
181 211 255
181 211 255
181 211 255
181 211 255
181 211 255
181 211 255
181 211 255
181 211 255
181 211 255
181 211 255
181 211 255
181 211 255
181 211 255
181 211 255
181 211 255
181 211 255
181 211 255
181 211 255
181 211 255
181 211 255
181 211 255
181 211 255
181 211 255
181 211 255
182 211 255
182 211 255
182 211 255
182 211 255
182 211 255
182 211 255
182 211 255
182 211 255
182 211 255
182 211 255
182 211 255
182 211 255
182 211 255
182 211 255
182 211 255
182 211 255
182 211 255
182 212 255
182 212 255
182 212 255
182 212 255
182 212 255
182 212 255
182 212 255
183 212 255
183 212 255
183 212 255
183 212 255
183 212 255
182 212 255
182 212 255
182 212 255
182 212 255
182 212 255
182 212 255
182 212 255
182 212 255
182 212 255
182 212 255
182 211 255
182 211 255
182 211 255
182 211 255
182 211 255
182 211 255
182 211 255
182 211 255
182 211 255
182 211 255
182 211 255
182 211 255
182 211 255
182 211 255
182 211 255
182 211 255
182 211 255
181 211 255
181 211 255
181 211 255
181 211 255
181 211 255
181 211 255
181 211 255
181 211 255
181 211 255
181 211 255
181 211 255
181 211 255
181 211 255
181 211 255
181 211 255
181 211 255
181 211 255
181 211 255
181 211 255
181 211 255
181 211 255
181 211 255
181 211 255
180 210 255
180 210 255
180 210 255
180 210 255
180 210 255
180 210 255
180 210 255
180 210 255
180 210 255
180 210 255
180 210 255
180 210 255
180 210 255
180 210 255
180 210 255
180 210 255
180 210 255
180 210 255
180 210 255
180 210 255
180 210 255
179 210 255
179 210 255
179 210 255
179 210 255
179 210 255
179 210 255
179 210 255
179 210 255
179 210 255
179 210 255
179 210 255
179 210 255
179 209 255
179 209 255
179 209 255
179 209 255
179 209 255
179 209 255
179 209 255
178 209 255
178 209 255
178 209 255
178 209 255
178 209 255
178 209 255
178 209 255
178 209 255
178 209 255
178 209 255
178 209 255
178 209 255
178 209 255
178 209 255
178 209 255
178 209 255
178 209 255
177 209 255
177 209 255
177 209 255
177 209 255
177 209 255
177 208 255
177 208 255
177 208 255
177 208 255
177 208 255
177 208 255
177 208 255
177 208 255
177 208 255
177 208 255
177 208 255
177 208 255
177 208 255
176 208 255
176 208 255
176 208 255
176 208 255
176 208 255
176 208 255
176 208 255
176 208 255
176 208 255
176 208 255
176 208 255
176 208 255
176 208 255
125 150 188
69 86 111
66 83 107
67 84 108
72 88 113
69 86 111
72 88 113
70 88 114
71 88 113
70 87 113
66 84 110
68 84 107
70 86 111
70 86 110
65 81 104
68 84 109
66 81 105
70 87 113
68 85 110
69 85 110
68 85 109
67 83 107
66 81 105
68 85 110
68 85 110
70 85 109
65 82 106
72 88 112
70 86 110
66 82 106
66 82 106
69 85 110
72 88 112
67 83 106
71 87 111
65 81 106
69 85 110
68 85 110
71 88 113
68 84 109
67 83 107
70 86 110
70 87 111
70 86 110
67 83 107
72 89 113
69 85 109
66 82 106
68 83 105
66 81 105
72 89 113
67 83 107
66 82 106
73 90 115
71 89 115
66 81 104
68 84 109
64 80 103
69 85 110
70 87 112
69 86 110
70 86 111
67 83 105
68 85 110
67 83 106
70 87 113
72 89 114
62 78 101
67 83 107
69 85 108
68 84 109
69 86 111
68 85 110
69 85 110
69 86 111
71 87 113
66 82 106
69 84 108
67 83 108
73 90 115
69 86 112
68 84 108
66 82 105
72 89 115
71 87 111
68 84 108
68 84 108
75 92 117
66 82 105
69 86 111
70 87 111
67 83 107
73 90 115
67 83 108
67 83 106
67 83 107
72 88 112
71 88 113
68 85 110
66 83 107
70 87 112
67 83 107
72 88 112
68 85 110
69 85 110
70 86 110
71 88 113
71 88 114
71 87 112
67 83 108
70 87 113
68 86 112
70 87 112
125 149 186
176 208 255
176 208 255
176 208 255
176 208 255
176 208 255
176 208 255
176 208 255
176 208 255
176 208 255
176 208 255
176 208 255
176 208 255
176 208 255
177 208 255
177 208 255
177 208 255
177 208 255
177 208 255
177 208 255
177 208 255
177 208 255
177 208 255
177 208 255
177 208 255
177 208 255
177 209 255
177 209 255
177 209 255
177 209 255
177 209 255
177 209 255
178 209 255
178 209 255
178 209 255
178 209 255
178 209 255
178 209 255
178 209 255
178 209 255
178 209 255
178 209 255
178 209 255
178 209 255
178 209 255
178 209 255
178 209 255
178 209 255
178 209 255
178 209 255
179 209 255
179 209 255
179 209 255
179 209 255
179 209 255
179 209 255
179 210 255
179 210 255
179 210 255
179 210 255
179 210 255
179 210 255
179 210 255
179 210 255
179 210 255
179 210 255
179 210 255
179 210 255
180 210 255
180 210 255
180 210 255
180 210 255
180 210 255
180 210 255
180 210 255
180 210 255
180 210 255
180 210 255
180 210 255
180 210 255
180 210 255
180 210 255
180 210 255
180 210 255
180 210 255
180 210 255
180 210 255
180 210 255
180 210 255
181 211 255
181 211 255
181 211 255
181 211 255
181 211 255
181 211 255
181 211 255
181 211 255
181 211 255
181 211 255
181 211 255
181 211 255
181 211 255
181 211 255
181 211 255
181 211 255
181 211 255
181 211 255
181 211 255
181 211 255
181 211 255
181 211 255
181 211 255
182 211 255
182 211 255
182 211 255
182 211 255
182 211 255
182 211 255
182 211 255
182 211 255
182 211 255
182 211 255
182 211 255
182 211 255
182 211 255
182 211 255
182 211 255
182 211 255
182 211 255
182 211 255
182 212 255
182 212 255
182 212 255
182 212 255
182 212 255
182 212 255
182 212 255
182 212 255
182 212 255
183 212 255
183 212 255
183 212 255
183 212 255
183 212 255
183 212 255
183 212 255
183 212 255
183 212 255
183 212 255
183 212 255
183 212 255
183 212 255
183 212 255
183 212 255
183 212 255
183 212 255
183 212 255
182 212 255
182 212 255
182 212 255
182 212 255
182 212 255
182 212 255
182 212 255
182 212 255
182 212 255
182 211 255
182 211 255
182 211 255
182 211 255
182 211 255
182 211 255
182 211 255
182 211 255
182 211 255
182 211 255
182 211 255
182 211 255
182 211 255
182 211 255
182 211 255
182 211 255
182 211 255
182 211 255
181 211 255
181 211 255
181 211 255
181 211 255
181 211 255
181 211 255
181 211 255
181 211 255
181 211 255
181 211 255
181 211 255
181 211 255
181 211 255
181 211 255
181 211 255
181 211 255
181 211 255
181 211 255
181 211 255
181 211 255
181 211 255
181 211 255
181 211 255
180 210 255
180 210 255
180 210 255
180 210 255
180 210 255
180 210 255
180 210 255
180 210 255
180 210 255
180 210 255
180 210 255
180 210 255
180 210 255
180 210 255
180 210 255
180 210 255
180 210 255
180 210 255
180 210 255
180 210 255
179 210 255
179 210 255
179 210 255
179 210 255
179 210 255
179 210 255
179 210 255
179 210 255
179 210 255
179 210 255
179 210 255
179 210 255
179 210 255
179 209 255
179 209 255
179 209 255
179 209 255
179 209 255
179 209 255
178 209 255
178 209 255
178 209 255
178 209 255
178 209 255
178 209 255
178 209 255
178 209 255
178 209 255
178 209 255
178 209 255
178 209 255
178 209 255
178 209 255
178 209 255
178 209 255
178 209 255
178 209 255
177 209 255
177 209 255
177 209 255
177 209 255
177 209 255
177 209 255
177 208 255
177 208 255
177 208 255
177 208 255
177 208 255
177 208 255
177 208 255
177 208 255
177 208 255
177 208 255
177 208 255
177 208 255
176 208 255
176 208 255
176 208 255
176 208 255
166 196 241
71 87 112
72 89 114
74 92 119
68 85 110
68 85 110
69 85 110
70 86 111
68 85 110
74 89 113
70 86 111
67 83 107
70 86 110
71 87 111
70 88 113
71 87 112
65 80 103
69 85 110
70 87 112
70 87 112
68 85 110
70 86 109
74 91 116
69 85 109
68 85 111
69 86 111
67 83 107
71 87 112
70 87 112
68 85 109
72 88 113
68 85 110
68 85 110
68 84 108
68 83 107
70 87 112
71 87 112
68 84 108
70 86 109
68 84 110
69 86 111
70 87 111
69 86 112
68 84 108
68 83 107
70 87 112
65 82 107
75 91 115
68 84 110
74 91 117
64 79 102
67 83 107
68 84 108
69 86 111
72 89 115
65 80 103
67 82 105
68 83 105
68 84 108
71 87 111
72 88 113
69 85 109
65 81 104
64 81 106
68 84 108
69 85 109
65 81 104
65 81 105
67 83 107
69 85 108
67 83 108
69 85 109
68 84 106
75 91 117
68 85 110
68 84 107
66 82 106
71 88 114
73 89 113
67 84 108
70 86 111
70 87 111
70 87 113
70 87 111
65 81 104
71 86 110
69 85 108
66 83 108
69 85 108
72 88 113
73 89 114
66 82 107
66 82 107
69 85 110
66 82 106
66 82 106
67 83 108
67 82 106
70 86 112
69 86 110
68 85 111
72 88 113
67 83 108
68 84 108
69 85 108
71 88 113
68 83 106
69 86 111
71 87 111
71 88 113
71 88 113
67 84 110
68 84 108
69 85 110
76 93 119
163 193 238
176 208 255
176 208 255
176 208 255
176 208 255
177 208 255
177 208 255
177 208 255
177 208 255
177 208 255
177 208 255
177 208 255
177 208 255
177 208 255
177 208 255
177 208 255
177 208 255
177 209 255
177 209 255
177 209 255
177 209 255
177 209 255
177 209 255
178 209 255
178 209 255
178 209 255
178 209 255
178 209 255
178 209 255
178 209 255
178 209 255
178 209 255
178 209 255
178 209 255
178 209 255
178 209 255
178 209 255
178 209 255
178 209 255
178 209 255
178 209 255
178 209 255
179 209 255
179 209 255
179 209 255
179 209 255
179 209 255
179 210 255
179 210 255
179 210 255
179 210 255
179 210 255
179 210 255
179 210 255
179 210 255
179 210 255
179 210 255
179 210 255
179 210 255
179 210 255
180 210 255
180 210 255
180 210 255
180 210 255
180 210 255
180 210 255
180 210 255
180 210 255
180 210 255
180 210 255
180 210 255
180 210 255
180 210 255
180 210 255
180 210 255
180 210 255
180 210 255
180 210 255
180 210 255
180 210 255
181 211 255
181 211 255
181 211 255
181 211 255
181 211 255
181 211 255
181 211 255
181 211 255
181 211 255
181 211 255
181 211 255
181 211 255
181 211 255
181 211 255
181 211 255
181 211 255
181 211 255
181 211 255
181 211 255
181 211 255
181 211 255
181 211 255
181 211 255
182 211 255
182 211 255
182 211 255
182 211 255
182 211 255
182 211 255
182 211 255
182 211 255
182 211 255
182 211 255
182 211 255
182 211 255
182 211 255
182 211 255
182 211 255
182 211 255
182 211 255
182 211 255
182 212 255
182 212 255
182 212 255
182 212 255
182 212 255
182 212 255
182 212 255
182 212 255
182 212 255
183 212 255
183 212 255
183 212 255
183 212 255
183 212 255
183 212 255
183 212 255
183 212 255
183 212 255
183 212 255
183 212 255
183 212 255
183 212 255
183 212 255
183 212 255
183 212 255
183 212 255
183 212 255
183 212 255
183 212 255
183 212 255
183 212 255
183 212 255
183 212 255
183 212 255
183 212 255
183 212 255
183 212 255
183 212 255
183 212 255
183 212 255
183 212 255
183 212 255
183 212 255
183 212 255
182 212 255
182 212 255
182 212 255
182 212 255
182 212 255
182 212 255
182 212 255
182 212 255
182 212 255
182 211 255
182 211 255
182 211 255
182 211 255
182 211 255
182 211 255
182 211 255
182 211 255
182 211 255
182 211 255
182 211 255
182 211 255
182 211 255
182 211 255
182 211 255
182 211 255
181 211 255
181 211 255
181 211 255
181 211 255
181 211 255
181 211 255
181 211 255
181 211 255
181 211 255
181 211 255
181 211 255
181 211 255
181 211 255
181 211 255
181 211 255
181 211 255
181 211 255
181 211 255
181 211 255
181 211 255
181 211 255
181 211 255
181 211 255
180 210 255
180 210 255
180 210 255
180 210 255
180 210 255
180 210 255
180 210 255
180 210 255
180 210 255
180 210 255
180 210 255
180 210 255
180 210 255
180 210 255
180 210 255
180 210 255
180 210 255
180 210 255
180 210 255
180 210 255
179 210 255
179 210 255
179 210 255
179 210 255
179 210 255
179 210 255
179 210 255
179 210 255
179 210 255
179 210 255
179 210 255
179 210 255
179 210 255
179 209 255
179 209 255
179 209 255
179 209 255
179 209 255
179 209 255
178 209 255
178 209 255
178 209 255
178 209 255
178 209 255
178 209 255
178 209 255
178 209 255
178 209 255
178 209 255
178 209 255
178 209 255
178 209 255
178 209 255
178 209 255
178 209 255
178 209 255
178 209 255
178 209 255
177 209 255
177 209 255
177 209 255
177 209 255
177 209 255
177 209 255
177 208 255
177 208 255
177 208 255
177 208 255
177 208 255
177 208 255
177 208 255
177 208 255
126 150 187
69 86 111
67 84 110
68 85 109
71 87 112
71 88 112
71 89 116
63 78 101
69 86 111
73 89 114
69 85 110
68 85 110
71 87 111
69 85 109
69 85 109
69 85 109
70 86 110
71 87 111
70 87 112
69 85 108
66 82 107
69 86 111
69 86 111
71 88 112
67 84 108
72 88 112
65 80 103
68 84 108
68 84 108
68 84 108
68 85 109
68 83 107
71 88 112
67 82 106
73 89 113
66 82 107
70 87 111
63 80 104
71 87 112
67 83 108
69 85 108
69 85 109
70 86 110
69 86 110
71 86 110
71 87 112
67 83 106
70 87 111
66 83 107
70 86 110
66 82 106
69 85 110
69 85 108
67 83 106
67 83 107
66 82 107
68 84 108
66 82 106
73 89 112
69 86 111
69 86 111
67 83 107
70 87 112
67 81 103
67 83 107
68 84 107
67 83 107
65 80 104
70 86 110
69 86 110
72 89 115
64 80 103
70 86 110
66 82 105
64 80 103
71 89 114
66 82 104
67 83 106
69 85 109
70 86 111
70 86 111
68 84 108
69 85 110
68 84 108
70 86 111
68 85 110
66 82 105
71 87 112
72 88 113
66 81 104
67 83 108
69 84 108
68 84 108
70 87 111
67 84 109
68 84 108
67 82 106
69 86 110
71 86 110
66 82 105
66 81 104
72 88 111
66 82 106
71 88 113
67 84 109
70 88 115
67 83 107
72 89 114
66 83 107
69 85 108
69 86 113
70 86 109
72 89 115
70 87 113
67 84 109
108 130 163
177 208 255
177 208 255
177 208 255
177 208 255
177 208 255
177 208 255
177 208 255
177 208 255
177 209 255
177 209 255
177 209 255
177 209 255
177 209 255
177 209 255
177 209 255
178 209 255
178 209 255
178 209 255
178 209 255
178 209 255
178 209 255
178 209 255
178 209 255
178 209 255
178 209 255
178 209 255
178 209 255
178 209 255
178 209 255
178 209 255
178 209 255
178 209 255
178 209 255
179 209 255
179 209 255
179 209 255
179 209 255
179 209 255
179 209 255
179 210 255
179 210 255
179 210 255
179 210 255
179 210 255
179 210 255
179 210 255
179 210 255
179 210 255
179 210 255
179 210 255
179 210 255
179 210 255
180 210 255
180 210 255
180 210 255
180 210 255
180 210 255
180 210 255
180 210 255
180 210 255
180 210 255
180 210 255
180 210 255
180 210 255
180 210 255
180 210 255
180 210 255
180 210 255
180 210 255
180 210 255
180 210 255
180 210 255
181 211 255
181 211 255
181 211 255
181 211 255
181 211 255
181 211 255
181 211 255
181 211 255
181 211 255
181 211 255
181 211 255
181 211 255
181 211 255
181 211 255
181 211 255
181 211 255
181 211 255
181 211 255
181 211 255
181 211 255
181 211 255
181 211 255
181 211 255
182 211 255
182 211 255
182 211 255
182 211 255
182 211 255
182 211 255
182 211 255
182 211 255
182 211 255
182 211 255
182 211 255
182 211 255
182 211 255
182 211 255
182 211 255
182 211 255
182 211 255
182 212 255
182 212 255
182 212 255
182 212 255
182 212 255
182 212 255
182 212 255
182 212 255
182 212 255
183 212 255
183 212 255
183 212 255
183 212 255
183 212 255
183 212 255
183 212 255
183 212 255
183 212 255
183 212 255
183 212 255
183 212 255
183 212 255
183 212 255
183 212 255
183 212 255
183 212 255
183 212 255
183 212 255
183 212 255
183 212 255
183 212 255
183 212 255
183 212 255
183 212 255
183 212 255
183 212 255
183 212 255
183 212 255
183 212 255
183 212 255
183 212 255
183 212 255
183 212 255
183 212 255
183 212 255
183 212 255
183 212 255
183 212 255
183 212 255
183 212 255
183 212 255
183 212 255
183 212 255
183 212 255
183 212 255
183 212 255
183 212 255
183 212 255
183 212 255
182 212 255
182 212 255
182 212 255
182 212 255
182 212 255
182 212 255
182 212 255
182 212 255
182 212 255
182 211 255
182 211 255
182 211 255
182 211 255
182 211 255
182 211 255
182 211 255
182 211 255
182 211 255
182 211 255
182 211 255
182 211 255
182 211 255
182 211 255
182 211 255
182 211 255
182 211 255
181 211 255
181 211 255
181 211 255
181 211 255
181 211 255
181 211 255
181 211 255
181 211 255
181 211 255
181 211 255
181 211 255
181 211 255
181 211 255
181 211 255
181 211 255
181 211 255
181 211 255
181 211 255
181 211 255
181 211 255
181 211 255
181 211 255
180 210 255
180 210 255
180 210 255
180 210 255
180 210 255
180 210 255
180 210 255
180 210 255
180 210 255
180 210 255
180 210 255
180 210 255
180 210 255
180 210 255
180 210 255
180 210 255
180 210 255
180 210 255
180 210 255
180 210 255
180 210 255
179 210 255
179 210 255
179 210 255
179 210 255
179 210 255
179 210 255
179 210 255
179 210 255
179 210 255
179 210 255
179 210 255
179 210 255
179 210 255
179 209 255
179 209 255
179 209 255
179 209 255
179 209 255
179 209 255
178 209 255
178 209 255
178 209 255
178 209 255
178 209 255
178 209 255
178 209 255
178 209 255
178 209 255
178 209 255
178 209 255
178 209 255
178 209 255
178 209 255
178 209 255
178 209 255
178 209 255
178 209 255
178 209 255
177 209 255
177 209 255
177 209 255
177 209 255
177 209 255
164 193 237
81 98 125
70 87 112
70 86 110
72 88 112
72 89 113
67 83 106
68 85 109
72 88 112
66 83 108
63 79 103
69 86 112
68 83 107
67 83 106
68 84 109
67 84 110
70 86 111
68 84 109
67 84 108
74 89 113
64 80 103
68 84 108
70 86 110
69 85 109
68 84 108
71 87 111
68 84 108
72 89 113
67 84 110
69 86 111
67 83 108
68 85 109
66 82 105
69 85 109
69 85 110
69 84 108
65 82 107
69 86 111
67 82 105
66 83 108
69 86 111
68 84 108
65 81 106
73 90 115
70 86 111
68 84 107
69 85 109
72 89 116
68 84 108
68 84 108
66 84 110
70 87 112
67 83 106
71 87 111
66 83 108
71 88 113
70 86 111
72 88 112
70 86 111
66 82 106
71 87 111
68 84 108
69 85 108
68 84 108
65 80 104
70 85 108
66 82 105
65 80 104
68 84 108
69 84 107
66 82 106
70 86 110
69 85 109
65 81 105
65 81 104
68 83 107
72 88 113
70 86 111
67 83 107
71 88 114
65 80 102
65 81 105
67 83 107
71 88 112
67 84 110
66 82 106
69 86 110
69 85 109
66 82 105
66 82 106
68 84 108
68 83 106
67 83 107
71 88 113
67 83 107
67 83 107
69 85 109
65 81 104
68 85 109
71 87 111
70 87 112
72 89 114
69 85 109
68 85 109
68 83 107
66 83 108
70 86 111
66 81 105
72 89 113
69 85 110
72 88 113
73 90 116
65 82 107
67 84 110
72 89 113
70 87 112
74 91 117
160 189 232
177 209 255
177 209 255
177 209 255
177 209 255
177 209 255
178 209 255
178 209 255
178 209 255
178 209 255
178 209 255
178 209 255
178 209 255
178 209 255
178 209 255
178 209 255
178 209 255
178 209 255
178 209 255
178 209 255
178 209 255
178 209 255
178 209 255
178 209 255
178 209 255
179 209 255
179 209 255
179 209 255
179 209 255
179 209 255
179 209 255
179 210 255
179 210 255
179 210 255
179 210 255
179 210 255
179 210 255
179 210 255
179 210 255
179 210 255
179 210 255
179 210 255
179 210 255
179 210 255
180 210 255
180 210 255
180 210 255
180 210 255
180 210 255
180 210 255
180 210 255
180 210 255
180 210 255
180 210 255
180 210 255
180 210 255
180 210 255
180 210 255
180 210 255
180 210 255
180 210 255
180 210 255
180 210 255
180 210 255
181 211 255
181 211 255
181 211 255
181 211 255
181 211 255
181 211 255
181 211 255
181 211 255
181 211 255
181 211 255
181 211 255
181 211 255
181 211 255
181 211 255
181 211 255
181 211 255
181 211 255
181 211 255
181 211 255
181 211 255
181 211 255
181 211 255
181 211 255
182 211 255
182 211 255
182 211 255
182 211 255
182 211 255
182 211 255
182 211 255
182 211 255
182 211 255
182 211 255
182 211 255
182 211 255
182 211 255
182 211 255
182 211 255
182 211 255
182 212 255
182 212 255
182 212 255
182 212 255
182 212 255
182 212 255
182 212 255
182 212 255
182 212 255
183 212 255
183 212 255
183 212 255
183 212 255
183 212 255
183 212 255
183 212 255
183 212 255
183 212 255
183 212 255
183 212 255
183 212 255
183 212 255
183 212 255
183 212 255
183 212 255
183 212 255
183 212 255
183 212 255
183 212 255
183 212 255
183 212 255
183 212 255
183 212 255
183 212 255
183 212 255
183 212 255
183 212 255
183 212 255
183 212 255
184 212 255
184 212 255
184 212 255
184 212 255
184 212 255
184 212 255
184 212 255
184 212 255
183 212 255
183 212 255
183 212 255
183 212 255
183 212 255
183 212 255
183 212 255
183 212 255
183 212 255
183 212 255
183 212 255
183 212 255
183 212 255
183 212 255
183 212 255
183 212 255
183 212 255
183 212 255
183 212 255
183 212 255
183 212 255
183 212 255
183 212 255
183 212 255
183 212 255
183 212 255
183 212 255
183 212 255
183 212 255
183 212 255
182 212 255
182 212 255
182 212 255
182 212 255
182 212 255
182 212 255
182 212 255
182 212 255
182 212 255
182 211 255
182 211 255
182 211 255
182 211 255
182 211 255
182 211 255
182 211 255
182 211 255
182 211 255
182 211 255
182 211 255
182 211 255
182 211 255
182 211 255
182 211 255
182 211 255
182 211 255
181 211 255
181 211 255
181 211 255
181 211 255
181 211 255
181 211 255
181 211 255
181 211 255
181 211 255
181 211 255
181 211 255
181 211 255
181 211 255
181 211 255
181 211 255
181 211 255
181 211 255
181 211 255
181 211 255
181 211 255
181 211 255
181 211 255
180 210 255
180 210 255
180 210 255
180 210 255
180 210 255
180 210 255
180 210 255
180 210 255
180 210 255
180 210 255
180 210 255
180 210 255
180 210 255
180 210 255
180 210 255
180 210 255
180 210 255
180 210 255
180 210 255
180 210 255
179 210 255
179 210 255
179 210 255
179 210 255
179 210 255
179 210 255
179 210 255
179 210 255
179 210 255
179 210 255
179 210 255
179 210 255
179 210 255
179 209 255
179 209 255
179 209 255
179 209 255
179 209 255
179 209 255
179 209 255
178 209 255
178 209 255
178 209 255
178 209 255
178 209 255
178 209 255
178 209 255
178 209 255
178 209 255
178 209 255
178 209 255
178 209 255
178 209 255
178 209 255
178 209 255
97 117 148
69 86 111
72 88 113
63 79 102
68 84 108
65 82 107
70 85 109
65 80 103
68 84 108
70 86 110
71 88 114
69 86 112
69 86 110
67 83 108
67 82 106
69 86 111
69 85 108
68 85 110
69 84 107
68 84 109
68 83 106
74 91 116
65 80 103
67 83 106
66 82 106
66 82 107
67 83 108
70 86 111
67 83 106
68 84 108
67 83 107
68 84 108
69 85 110
64 80 103
72 88 113
65 80 103
70 86 110
67 83 106
69 85 110
68 84 107
70 86 112
62 78 102
70 86 110
70 86 112
66 82 107
64 79 102
69 86 111
71 88 112
69 85 109
67 83 106
61 76 98
68 84 107
65 81 104
66 80 102
66 82 105
72 89 114
68 83 106
66 82 106
66 83 107
70 87 111
68 85 110
65 81 104
66 82 106
69 85 109
68 85 109
72 88 112
66 81 103
67 83 106
75 92 118
68 84 109
67 83 107
66 81 104
65 80 103
66 81 105
69 84 107
68 84 108
68 84 108
68 84 107
68 83 106
67 83 107
72 88 112
70 86 111
68 84 108
68 85 109
68 84 107
69 85 108
70 86 110
67 82 106
67 83 106
66 82 105
65 82 106
68 84 108
70 85 108
65 82 106
64 80 103
64 80 103
65 80 102
69 86 112
67 82 106
68 85 110
66 82 105
69 85 109
68 84 108
67 83 107
71 87 111
65 81 105
69 85 110
68 84 107
66 82 106
68 84 108
69 85 110
66 83 107
71 88 114
71 87 111
69 85 110
69 86 111
68 84 109
104 126 159
178 209 255
178 209 255
178 209 255
178 209 255
178 209 255
178 209 255
178 209 255
178 209 255
178 209 255
178 209 255
178 209 255
178 209 255
178 209 255
178 209 255
178 209 255
178 209 255
179 209 255
179 209 255
179 209 255
179 209 255
179 209 255
179 209 255
179 210 255
179 210 255
179 210 255
179 210 255
179 210 255
179 210 255
179 210 255
179 210 255
179 210 255
179 210 255
179 210 255
179 210 255
179 210 255
180 210 255
180 210 255
180 210 255
180 210 255
180 210 255
180 210 255
180 210 255
180 210 255
180 210 255
180 210 255
180 210 255
180 210 255
180 210 255
180 210 255
180 210 255
180 210 255
180 210 255
180 210 255
180 210 255
180 210 255
180 210 255
181 211 255
181 211 255
181 211 255
181 211 255
181 211 255
181 211 255
181 211 255
181 211 255
181 211 255
181 211 255
181 211 255
181 211 255
181 211 255
181 211 255
181 211 255
181 211 255
181 211 255
181 211 255
181 211 255
181 211 255
181 211 255
181 211 255
182 211 255
182 211 255
182 211 255
182 211 255
182 211 255
182 211 255
182 211 255
182 211 255
182 211 255
182 211 255
182 211 255
182 211 255
182 211 255
182 211 255
182 211 255
182 211 255
182 212 255
182 212 255
182 212 255
182 212 255
182 212 255
182 212 255
182 212 255
182 212 255
183 212 255
183 212 255
183 212 255
183 212 255
183 212 255
183 212 255
183 212 255
183 212 255
183 212 255
183 212 255
183 212 255
183 212 255
183 212 255
183 212 255
183 212 255
183 212 255
183 212 255
183 212 255
183 212 255
183 212 255
183 212 255
183 212 255
183 212 255
183 212 255
183 212 255
183 212 255
183 212 255
183 212 255
183 212 255
183 212 255
183 212 255
184 212 255
184 212 255
184 212 255
184 212 255
184 212 255
184 212 255
184 212 255
184 212 255
184 213 255
184 213 255
184 213 255
184 213 255
184 213 255
184 213 255
184 212 255
184 212 255
184 212 255
184 212 255
184 212 255
184 212 255
184 212 255
184 212 255
184 212 255
184 212 255
184 212 255
184 212 255
183 212 255
183 212 255
183 212 255
183 212 255
183 212 255
183 212 255
183 212 255
183 212 255
183 212 255
183 212 255
183 212 255
183 212 255
183 212 255
183 212 255
183 212 255
183 212 255
183 212 255
183 212 255
183 212 255
183 212 255
183 212 255
183 212 255
183 212 255
183 212 255
183 212 255
183 212 255
183 212 255
183 212 255
183 212 255
182 212 255
182 212 255
182 212 255
182 212 255
182 212 255
182 212 255
182 212 255
182 212 255
182 211 255
182 211 255
182 211 255
182 211 255
182 211 255
182 211 255
182 211 255
182 211 255
182 211 255
182 211 255
182 211 255
182 211 255
182 211 255
182 211 255
182 211 255
182 211 255
182 211 255
181 211 255
181 211 255
181 211 255
181 211 255
181 211 255
181 211 255
181 211 255
181 211 255
181 211 255
181 211 255
181 211 255
181 211 255
181 211 255
181 211 255
181 211 255
181 211 255
181 211 255
181 211 255
181 211 255
181 211 255
181 211 255
181 211 255
180 210 255
180 210 255
180 210 255
180 210 255
180 210 255
180 210 255
180 210 255
180 210 255
180 210 255
180 210 255
180 210 255
180 210 255
180 210 255
180 210 255
180 210 255
180 210 255
180 210 255
180 210 255
180 210 255
180 210 255
179 210 255
179 210 255
179 210 255
179 210 255
179 210 255
179 210 255
179 210 255
179 210 255
179 210 255
179 210 255
179 210 255
179 210 255
179 210 255
179 210 255
179 209 255
179 209 255
179 209 255
179 209 255
179 209 255
179 209 255
178 209 255
178 209 255
178 209 255
178 209 255
178 209 255
178 209 255
170 199 244
75 92 118
69 84 106
71 87 111
68 85 109
67 84 108
70 86 111
72 89 113
71 87 111
72 89 113
68 84 108
69 86 110
68 84 108
65 82 107
68 84 109
69 85 109
69 86 111
71 88 113
72 88 111
69 85 108
71 87 112
64 80 103
66 81 104
71 87 111
71 87 111
68 84 106
68 85 110
67 84 108
69 85 110
65 81 104
62 78 101
68 84 109
67 84 108
68 84 108
67 82 105
71 87 111
69 85 110
71 87 110
65 81 105
67 82 104
68 84 107
65 82 106
70 87 111
67 82 105
66 81 105
67 82 105
69 84 107
66 83 107
68 84 107
65 81 105
65 80 104
65 81 105
68 84 108
68 85 109
66 82 106
68 83 106
68 84 108
68 83 106
69 86 111
69 85 108
70 87 112
68 83 105
64 80 104
72 88 112
71 87 110
71 86 110
70 86 110
66 82 106
68 83 107
67 83 108
68 85 109
71 87 111
72 87 111
66 82 105
68 84 108
68 84 109
70 86 111
65 80 103
69 85 109
69 84 108
67 83 108
68 84 108
68 84 108
62 77 101
69 85 110
67 83 107
68 84 108
68 84 108
67 82 105
65 82 106
67 82 106
68 83 107
72 88 111
64 80 104
66 82 105
68 84 107
71 87 111
71 87 111
70 85 108
68 84 108
68 85 110
70 86 111
70 87 112
69 85 108
72 88 113
68 84 108
71 88 113
70 86 111
69 86 111
67 83 108
67 83 107
69 85 110
70 88 113
67 83 108
66 82 106
72 88 113
69 86 112
63 78 101
69 85 110
173 203 248
178 209 255
178 209 255
178 209 255
178 209 255
178 209 255
179 209 255
179 209 255
179 209 255
179 209 255
179 209 255
179 209 255
179 209 255
179 210 255
179 210 255
179 210 255
179 210 255
179 210 255
179 210 255
179 210 255
179 210 255
179 210 255
179 210 255
179 210 255
179 210 255
179 210 255
179 210 255
180 210 255
180 210 255
180 210 255
180 210 255
180 210 255
180 210 255
180 210 255
180 210 255
180 210 255
180 210 255
180 210 255
180 210 255
180 210 255
180 210 255
180 210 255
180 210 255
180 210 255
180 210 255
180 210 255
180 210 255
181 211 255
181 211 255
181 211 255
181 211 255
181 211 255
181 211 255
181 211 255
181 211 255
181 211 255
181 211 255
181 211 255
181 211 255
181 211 255
181 211 255
181 211 255
181 211 255
181 211 255
181 211 255
181 211 255
181 211 255
181 211 255
181 211 255
181 211 255
182 211 255
182 211 255
182 211 255
182 211 255
182 211 255
182 211 255
182 211 255
182 211 255
182 211 255
182 211 255
182 211 255
182 211 255
182 211 255
182 211 255
182 211 255
182 212 255
182 212 255
182 212 255
182 212 255
182 212 255
182 212 255
182 212 255
182 212 255
182 212 255
183 212 255
183 212 255
183 212 255
183 212 255
183 212 255
183 212 255
183 212 255
183 212 255
183 212 255
183 212 255
183 212 255
183 212 255
183 212 255
183 212 255
183 212 255
183 212 255
183 212 255
183 212 255
183 212 255
183 212 255
183 212 255
183 212 255
183 212 255
183 212 255
183 212 255
183 212 255
183 212 255
183 212 255
183 212 255
184 212 255
184 212 255
184 212 255
184 212 255
184 212 255
184 212 255
184 212 255
184 212 255
184 212 255
184 212 255
184 212 255
184 213 255
184 213 255
184 213 255
184 213 255
184 213 255
184 213 255
184 213 255
184 213 255
184 213 255
184 213 255
184 213 255
184 213 255
184 213 255
184 213 255
184 213 255
184 213 255
184 213 255
184 213 255
184 213 255
184 213 255
184 213 255
184 213 255
184 213 255
184 212 255
184 212 255
184 212 255
184 212 255
184 212 255
184 212 255
184 212 255
184 212 255
184 212 255
184 212 255
184 212 255
183 212 255
183 212 255
183 212 255
183 212 255
183 212 255
183 212 255
183 212 255
183 212 255
183 212 255
183 212 255
183 212 255
183 212 255
183 212 255
183 212 255
183 212 255
183 212 255
183 212 255
183 212 255
183 212 255
183 212 255
183 212 255
183 212 255
183 212 255
183 212 255
183 212 255
183 212 255
183 212 255
183 212 255
183 212 255
182 212 255
182 212 255
182 212 255
182 212 255
182 212 255
182 212 255
182 212 255
182 212 255
182 211 255
182 211 255
182 211 255
182 211 255
182 211 255
182 211 255
182 211 255
182 211 255
182 211 255
182 211 255
182 211 255
182 211 255
182 211 255
182 211 255
182 211 255
182 211 255
181 211 255
181 211 255
181 211 255
181 211 255
181 211 255
181 211 255
181 211 255
181 211 255
181 211 255
181 211 255
181 211 255
181 211 255
181 211 255
181 211 255
181 211 255
181 211 255
181 211 255
181 211 255
181 211 255
181 211 255
181 211 255
181 211 255
180 210 255
180 210 255
180 210 255
180 210 255
180 210 255
180 210 255
180 210 255
180 210 255
180 210 255
180 210 255
180 210 255
180 210 255
180 210 255
180 210 255
180 210 255
180 210 255
180 210 255
180 210 255
180 210 255
180 210 255
180 210 255
179 210 255
179 210 255
179 210 255
179 210 255
179 210 255
179 210 255
179 210 255
179 210 255
179 210 255
179 210 255
179 210 255
179 210 255
179 210 255
179 210 255
179 209 255
179 209 255
179 209 255
125 149 184
70 87 112
62 78 101
68 85 110
70 87 111
69 85 110
69 85 109
64 80 103
63 79 102
73 89 112
69 85 109
72 88 113
72 90 115
66 82 107
67 84 108
71 88 113
73 90 116
63 78 101
67 83 107
66 82 105
68 83 106
67 83 107
71 87 111
65 81 105
69 86 111
63 80 104
72 89 114
65 81 106
67 82 106
68 84 108
69 85 109
67 83 107
71 87 112
70 86 110
70 86 110
68 85 110
68 84 107
67 83 108
72 88 113
73 89 113
68 83 106
62 77 101
68 83 106
68 84 108
64 80 104
66 82 105
67 83 107
70 86 110
67 82 105
68 84 108
68 83 106
68 84 107
65 81 105
69 85 109
65 81 105
67 82 105
66 82 105
63 79 102
66 82 105
67 83 107
69 86 111
67 83 106
62 77 99
64 80 104
70 87 112
69 84 108
60 75 98
65 81 105
67 83 106
67 82 105
69 85 110
67 83 107
68 84 108
67 83 108
68 84 108
69 86 111
68 83 107
67 82 105
62 77 100
67 83 107
68 83 106
69 84 108
68 83 107
69 85 111
68 84 108
68 83 106
71 87 111
65 81 106
66 82 105
73 89 113
65 81 105
69 85 108
69 85 108
69 85 108
67 82 105
68 84 109
65 80 103
65 79 101
72 88 113
67 84 108
65 79 101
70 86 111
70 86 110
70 85 109
68 85 109
66 82 106
64 79 102
70 86 111
72 89 114
71 88 114
72 89 114
68 85 111
69 86 111
67 82 105
77 94 120
72 88 113
68 84 108
67 82 105
71 87 112
123 147 182
179 209 255
179 209 255
179 210 255
179 210 255
179 210 255
179 210 255
179 210 255
179 210 255
179 210 255
179 210 255
179 210 255
179 210 255
179 210 255
179 210 255
179 210 255
179 210 255
179 210 255
180 210 255
180 210 255
180 210 255
180 210 255
180 210 255
180 210 255
180 210 255
180 210 255
180 210 255
180 210 255
180 210 255
180 210 255
180 210 255
180 210 255
180 210 255
180 210 255
180 210 255
180 210 255
180 210 255
180 210 255
180 210 255
181 211 255
181 211 255
181 211 255
181 211 255
181 211 255
181 211 255
181 211 255
181 211 255
181 211 255
181 211 255
181 211 255
181 211 255
181 211 255
181 211 255
181 211 255
181 211 255
181 211 255
181 211 255
181 211 255
181 211 255
181 211 255
181 211 255
182 211 255
182 211 255
182 211 255
182 211 255
182 211 255
182 211 255
182 211 255
182 211 255
182 211 255
182 211 255
182 211 255
182 211 255
182 211 255
182 211 255
182 211 255
182 211 255
182 212 255
182 212 255
182 212 255
182 212 255
182 212 255
182 212 255
182 212 255
182 212 255
183 212 255
183 212 255
183 212 255
183 212 255
183 212 255
183 212 255
183 212 255
183 212 255
183 212 255
183 212 255
183 212 255
183 212 255
183 212 255
183 212 255
183 212 255
183 212 255
183 212 255
183 212 255
183 212 255
183 212 255
183 212 255
183 212 255
183 212 255
183 212 255
183 212 255
183 212 255
183 212 255
183 212 255
183 212 255
184 212 255
184 212 255
184 212 255
184 212 255
184 212 255
184 212 255
184 212 255
184 212 255
184 212 255
184 212 255
184 213 255
184 213 255
184 213 255
184 213 255
184 213 255
184 213 255
184 213 255
184 213 255
184 213 255
184 213 255
184 213 255
184 213 255
184 213 255
184 213 255
184 213 255
184 213 255
184 213 255
185 213 255
185 213 255
184 213 255
184 213 255
184 213 255
184 213 255
184 213 255
184 213 255
184 213 255
184 213 255
184 213 255
184 213 255
184 213 255
184 213 255
184 213 255
184 213 255
184 213 255
184 213 255
184 213 255
184 213 255
184 213 255
184 213 255
184 213 255
184 213 255
184 213 255
184 213 255
184 212 255
184 212 255
184 212 255
184 212 255
184 212 255
184 212 255
184 212 255
184 212 255
184 212 255
184 212 255
183 212 255
183 212 255
183 212 255
183 212 255
183 212 255
183 212 255
183 212 255
183 212 255
183 212 255
183 212 255
183 212 255
183 212 255
183 212 255
183 212 255
183 212 255
183 212 255
183 212 255
183 212 255
183 212 255
183 212 255
183 212 255
183 212 255
183 212 255
183 212 255
183 212 255
183 212 255
183 212 255
183 212 255
183 212 255
182 212 255
182 212 255
182 212 255
182 212 255
182 212 255
182 212 255
182 212 255
182 212 255
182 211 255
182 211 255
182 211 255
182 211 255
182 211 255
182 211 255
182 211 255
182 211 255
182 211 255
182 211 255
182 211 255
182 211 255
182 211 255
182 211 255
182 211 255
182 211 255
181 211 255
181 211 255
181 211 255
181 211 255
181 211 255
181 211 255
181 211 255
181 211 255
181 211 255
181 211 255
181 211 255
181 211 255
181 211 255
181 211 255
181 211 255
181 211 255
181 211 255
181 211 255
181 211 255
181 211 255
181 211 255
181 211 255
180 210 255
180 210 255
180 210 255
180 210 255
180 210 255
180 210 255
180 210 255
180 210 255
180 210 255
180 210 255
180 210 255
180 210 255
180 210 255
180 210 255
180 210 255
180 210 255
180 210 255
180 210 255
180 210 255
180 210 255
180 210 255
180 210 255
179 210 255
179 210 255
179 210 255
179 210 255
179 210 255
179 210 255
176 206 252
81 98 125
69 85 110
67 84 108
68 83 107
67 83 107
70 86 111
71 87 111
68 83 107
70 86 110
71 87 111
67 83 107
67 83 106
71 87 112
68 84 109
68 84 109
70 86 111
67 83 107
65 81 104
64 79 102
70 86 110
68 84 107
74 91 117
67 83 105
69 86 111
66 81 103
68 84 108
68 83 107
68 85 110
65 81 104
69 85 108
67 83 108
69 85 109
69 84 107
68 84 108
67 82 106
69 85 110
70 86 110
67 83 107
68 85 109
72 89 113
66 81 104
69 84 108
70 85 108
67 82 106
68 84 108
67 82 106
66 82 104
69 84 107
66 82 105
63 78 100
65 81 106
64 80 104
71 88 112
65 80 103
71 87 110
68 84 108
64 80 103
64 80 103
65 81 105
68 85 110
65 81 103
65 81 103
71 87 111
64 80 105
68 83 105
67 82 106
68 84 107
72 88 112
71 86 109
66 81 104
69 85 110
69 85 110
67 83 107
67 82 106
66 81 104
69 85 109
67 82 104
69 85 109
69 85 108
63 78 100
65 81 103
68 85 110
71 86 110
67 83 108
64 79 101
66 81 103
70 87 112
65 80 103
70 86 111
67 84 109
71 88 114
65 80 104
67 83 108
68 85 110
67 83 108
69 84 108
69 84 106
70 86 111
66 81 103
70 87 112
68 84 109
68 84 107
68 84 108
69 85 109
67 83 106
66 81 104
70 87 112
68 83 106
65 81 104
73 90 115
67 83 108
70 86 110
66 83 108
68 85 110
70 87 112
69 85 110
67 84 108
72 88 113
68 83 107
79 97 123
173 202 247
179 210 255
179 210 255
179 210 255
179 210 255
179 210 255
179 210 255
180 210 255
180 210 255
180 210 255
180 210 255
180 210 255
180 210 255
180 210 255
180 210 255
180 210 255
180 210 255
180 210 255
180 210 255
180 210 255
180 210 255
180 210 255
180 210 255
180 210 255
180 210 255
180 210 255
180 210 255
180 210 255
180 210 255
181 211 255
181 211 255
181 211 255
181 211 255
181 211 255
181 211 255
181 211 255
181 211 255
181 211 255
181 211 255
181 211 255
181 211 255
181 211 255
181 211 255
181 211 255
181 211 255
181 211 255
181 211 255
181 211 255
181 211 255
181 211 255
181 211 255
182 211 255
182 211 255
182 211 255
182 211 255
182 211 255
182 211 255
182 211 255
182 211 255
182 211 255
182 211 255
182 211 255
182 211 255
182 211 255
182 211 255
182 211 255
182 211 255
182 212 255
182 212 255
182 212 255
182 212 255
182 212 255
182 212 255
182 212 255
182 212 255
182 212 255
183 212 255
183 212 255
183 212 255
183 212 255
183 212 255
183 212 255
183 212 255
183 212 255
183 212 255
183 212 255
183 212 255
183 212 255
183 212 255
183 212 255
183 212 255
183 212 255
183 212 255
183 212 255
183 212 255
183 212 255
183 212 255
183 212 255
183 212 255
183 212 255
183 212 255
183 212 255
183 212 255
184 212 255
184 212 255
184 212 255
184 212 255
184 212 255
184 212 255
184 212 255
184 212 255
184 212 255
184 212 255
184 212 255
184 213 255
184 213 255
184 213 255
184 213 255
184 213 255
184 213 255
184 213 255
184 213 255
184 213 255
184 213 255
184 213 255
184 213 255
184 213 255
184 213 255
184 213 255
184 213 255
184 213 255
184 213 255
184 213 255
184 213 255
184 213 255
184 213 255
184 213 255
185 213 255
185 213 255
185 213 255
185 213 255
185 213 255
185 213 255
185 213 255
185 213 255
185 213 255
185 213 255
185 213 255
185 213 255
185 213 255
185 213 255
185 213 255
185 213 255
184 213 255
184 213 255
184 213 255
184 213 255
184 213 255
184 213 255
184 213 255
184 213 255
184 213 255
184 213 255
184 213 255
184 213 255
184 213 255
184 213 255
184 213 255
184 213 255
184 213 255
184 213 255
184 213 255
184 213 255
184 213 255
184 213 255
184 213 255
184 212 255
184 212 255
184 212 255
184 212 255
184 212 255
184 212 255
184 212 255
184 212 255
184 212 255
184 212 255
183 212 255
183 212 255
183 212 255
183 212 255
183 212 255
183 212 255
183 212 255
183 212 255
183 212 255
183 212 255
183 212 255
183 212 255
183 212 255
183 212 255
183 212 255
183 212 255
183 212 255
183 212 255
183 212 255
183 212 255
183 212 255
183 212 255
183 212 255
183 212 255
183 212 255
183 212 255
183 212 255
183 212 255
182 212 255
182 212 255
182 212 255
182 212 255
182 212 255
182 212 255
182 212 255
182 212 255
182 211 255
182 211 255
182 211 255
182 211 255
182 211 255
182 211 255
182 211 255
182 211 255
182 211 255
182 211 255
182 211 255
182 211 255
182 211 255
182 211 255
182 211 255
182 211 255
181 211 255
181 211 255
181 211 255
181 211 255
181 211 255
181 211 255
181 211 255
181 211 255
181 211 255
181 211 255
181 211 255
181 211 255
181 211 255
181 211 255
181 211 255
181 211 255
181 211 255
181 211 255
181 211 255
181 211 255
181 211 255
181 211 255
181 211 255
180 210 255
180 210 255
180 210 255
180 210 255
180 210 255
180 210 255
180 210 255
180 210 255
180 210 255
180 210 255
180 210 255
180 210 255
180 210 255
180 210 255
180 210 255
180 210 255
180 210 255
180 210 255
137 163 201
69 85 109
68 84 108
66 83 107
64 80 103
68 84 109
66 82 107
72 88 111
71 88 113
65 81 105
64 80 104
69 85 110
71 88 113
68 84 107
68 84 108
69 85 108
65 81 104
71 88 113
68 84 108
67 83 108
68 84 108
71 87 112
72 88 112
66 81 104
71 87 111
64 79 103
72 88 112
65 81 104
65 81 105
69 85 110
64 79 102
65 81 105
66 83 107
65 80 104
65 81 106
65 80 103
65 80 104
69 85 108
68 84 109
69 85 108
65 81 104
66 82 107
65 81 104
68 84 108
69 84 108
66 82 105
67 83 106
68 83 106
66 81 104
66 81 104
67 82 104
67 83 106
67 83 107
67 83 107
62 77 100
64 80 103
68 83 107
64 80 104
66 82 106
68 84 107
68 84 107
64 80 104
65 80 103
64 79 103
69 84 107
64 80 103
69 87 112
61 75 96
69 85 109
68 84 107
69 85 109
65 81 105
70 85 108
68 83 107
66 80 103
69 85 108
67 83 107
63 78 102
71 88 113
63 78 101
65 81 104
68 85 109
65 81 104
67 84 108
71 87 111
66 82 106
65 80 102
64 79 103
65 81 104
66 82 106
68 84 109
64 79 103
66 81 104
69 85 109
69 85 109
68 83 106
67 82 105
69 85 108
67 83 106
66 82 105
72 89 114
70 85 108
70 86 111
70 87 111
68 85 111
64 79 103
69 86 112
68 84 109
65 80 103
66 82 105
67 83 107
60 75 97
70 86 110
70 86 111
69 84 108
67 83 107
65 80 103
66 82 106
70 87 111
71 88 113
68 85 110
137 161 199
180 210 255
180 210 255
180 210 255
180 210 255
180 210 255
180 210 255
180 210 255
180 210 255
180 210 255
180 210 255
180 210 255
180 210 255
180 210 255
180 210 255
180 210 255
180 210 255
180 210 255
180 210 255
181 211 255
181 211 255
181 211 255
181 211 255
181 211 255
181 211 255
181 211 255
181 211 255
181 211 255
181 211 255
181 211 255
181 211 255
181 211 255
181 211 255
181 211 255
181 211 255
181 211 255
181 211 255
181 211 255
181 211 255
181 211 255
181 211 255
181 211 255
182 211 255
182 211 255
182 211 255
182 211 255
182 211 255
182 211 255
182 211 255
182 211 255
182 211 255
182 211 255
182 211 255
182 211 255
182 211 255
182 211 255
182 211 255
182 211 255
182 212 255
182 212 255
182 212 255
182 212 255
182 212 255
182 212 255
182 212 255
182 212 255
183 212 255
183 212 255
183 212 255
183 212 255
183 212 255
183 212 255
183 212 255
183 212 255
183 212 255
183 212 255
183 212 255
183 212 255
183 212 255
183 212 255
183 212 255
183 212 255
183 212 255
183 212 255
183 212 255
183 212 255
183 212 255
183 212 255
183 212 255
183 212 255
183 212 255
183 212 255
183 212 255
183 212 255
184 212 255
184 212 255
184 212 255
184 212 255
184 212 255
184 212 255
184 212 255
184 212 255
184 212 255
184 212 255
184 213 255
184 213 255
184 213 255
184 213 255
184 213 255
184 213 255
184 213 255
184 213 255
184 213 255
184 213 255
184 213 255
184 213 255
184 213 255
184 213 255
184 213 255
184 213 255
184 213 255
184 213 255
184 213 255
184 213 255
184 213 255
184 213 255
184 213 255
185 213 255
185 213 255
185 213 255
185 213 255
185 213 255
185 213 255
185 213 255
185 213 255
185 213 255
185 213 255
185 213 255
185 213 255
185 213 255
185 213 255
185 213 255
185 213 255
185 213 255
185 213 255
185 213 255
185 213 255
185 213 255
185 213 255
185 213 255
185 213 255
185 213 255
185 213 255
185 213 255
185 213 255
185 213 255
185 213 255
185 213 255
185 213 255
185 213 255
185 213 255
185 213 255
185 213 255
184 213 255
184 213 255
184 213 255
184 213 255
184 213 255
184 213 255
184 213 255
184 213 255
184 213 255
184 213 255
184 213 255
184 213 255
184 213 255
184 213 255
184 213 255
184 213 255
184 213 255
184 213 255
184 213 255
184 213 255
184 213 255
184 213 255
184 213 255
184 212 255
184 212 255
184 212 255
184 212 255
184 212 255
184 212 255
184 212 255
184 212 255
184 212 255
184 212 255
183 212 255
183 212 255
183 212 255
183 212 255
183 212 255
183 212 255
183 212 255
183 212 255
183 212 255
183 212 255
183 212 255
183 212 255
183 212 255
183 212 255
183 212 255
183 212 255
183 212 255
183 212 255
183 212 255
183 212 255
183 212 255
183 212 255
183 212 255
183 212 255
183 212 255
183 212 255
183 212 255
183 212 255
182 212 255
182 212 255
182 212 255
182 212 255
182 212 255
182 212 255
182 212 255
182 212 255
182 211 255
182 211 255
182 211 255
182 211 255
182 211 255
182 211 255
182 211 255
182 211 255
182 211 255
182 211 255
182 211 255
182 211 255
182 211 255
182 211 255
182 211 255
182 211 255
181 211 255
181 211 255
181 211 255
181 211 255
181 211 255
181 211 255
181 211 255
181 211 255
181 211 255
181 211 255
181 211 255
181 211 255
181 211 255
181 211 255
181 211 255
181 211 255
181 211 255
181 211 255
181 211 255
181 211 255
181 211 255
181 211 255
181 211 255
181 211 255
180 210 255
180 210 255
180 210 255
180 210 255
180 210 255
180 210 255
180 210 255
94 114 143
72 88 111
69 85 110
70 86 111
64 80 102
69 87 114
66 82 104
67 84 109
65 81 105
67 83 106
70 87 111
62 78 100
68 84 107
67 83 106
66 81 104
69 86 111
70 86 109
67 83 107
67 82 106
69 85 109
66 82 105
70 86 110
66 82 105
69 85 109
68 85 110
66 83 108
66 82 105
67 83 108
67 82 105
66 81 103
69 86 111
67 84 110
70 85 108
70 87 112
69 85 109
67 83 108
67 82 105
68 84 108
67 82 106
64 79 101
68 84 108
67 83 108
67 83 107
64 79 102
68 83 107
71 87 111
62 78 101
69 85 110
66 81 104
64 79 102
68 83 105
68 84 109
65 81 105
68 85 110
67 83 105
66 81 104
68 83 107
68 83 107
65 81 105
65 80 103
70 85 107
70 86 110
61 77 100
67 82 105
63 79 103
67 82 105
64 79 101
68 84 107
73 90 115
62 76 97
68 83 105
69 86 112
66 81 104
69 85 109
67 83 108
71 87 112
70 86 110
70 86 110
66 81 104
68 84 107
66 81 105
63 78 101
68 84 109
65 80 103
68 83 105
64 79 102
64 79 101
64 80 103
65 81 104
62 77 98
68 83 106
68 85 109
70 86 110
68 84 108
68 85 110
69 85 109
63 78 100
69 85 108
69 85 110
72 89 114
67 83 107
67 82 104
68 84 109
67 82 104
69 85 108
66 81 105
69 84 106
68 83 106
67 82 105
69 84 108
66 82 107
71 87 111
67 82 106
72 88 113
65 81 104
64 79 101
70 86 111
67 83 107
67 84 108
68 85 110
68 85 110
98 119 150
180 210 255
180 210 255
180 210 255
180 210 255
180 210 255
180 210 255
180 210 255
180 210 255
181 211 255
181 211 255
181 211 255
181 211 255
181 211 255
181 211 255
181 211 255
181 211 255
181 211 255
181 211 255
181 211 255
181 211 255
181 211 255
181 211 255
181 211 255
181 211 255
181 211 255
181 211 255
181 211 255
181 211 255
181 211 255
181 211 255
181 211 255
182 211 255
182 211 255
182 211 255
182 211 255
182 211 255
182 211 255
182 211 255
182 211 255
182 211 255
182 211 255
182 211 255
182 211 255
182 211 255
182 211 255
182 211 255
182 211 255
182 212 255
182 212 255
182 212 255
182 212 255
182 212 255
182 212 255
182 212 255
182 212 255
182 212 255
183 212 255
183 212 255
183 212 255
183 212 255
183 212 255
183 212 255
183 212 255
183 212 255
183 212 255
183 212 255
183 212 255
183 212 255
183 212 255
183 212 255
183 212 255
183 212 255
183 212 255
183 212 255
183 212 255
183 212 255
183 212 255
183 212 255
183 212 255
183 212 255
183 212 255
183 212 255
183 212 255
184 212 255
184 212 255
184 212 255
184 212 255
184 212 255
184 212 255
184 212 255
184 212 255
184 212 255
184 212 255
184 213 255
184 213 255
184 213 255
184 213 255
184 213 255
184 213 255
184 213 255
184 213 255
184 213 255
184 213 255
184 213 255
184 213 255
184 213 255
184 213 255
184 213 255
184 213 255
184 213 255
184 213 255
184 213 255
184 213 255
184 213 255
184 213 255
185 213 255
185 213 255
185 213 255
185 213 255
185 213 255
185 213 255
185 213 255
185 213 255
185 213 255
185 213 255
185 213 255
185 213 255
185 213 255
185 213 255
185 213 255
185 213 255
185 213 255
185 213 255
185 213 255
185 213 255
185 213 255
185 213 255
185 213 255
185 213 255
185 213 255
185 213 255
185 213 255
185 213 255
185 213 255
185 213 255
185 213 255
185 213 255
185 213 255
185 213 255
185 213 255
185 213 255
185 213 255
185 213 255
185 213 255
185 213 255
185 213 255
185 213 255
185 213 255
185 213 255
185 213 255
185 213 255
185 213 255
185 213 255
185 213 255
185 213 255
185 213 255
185 213 255
185 213 255
185 213 255
185 213 255
185 213 255
185 213 255
185 213 255
185 213 255
184 213 255
184 213 255
184 213 255
184 213 255
184 213 255
184 213 255
184 213 255
184 213 255
184 213 255
184 213 255
184 213 255
184 213 255
184 213 255
184 213 255
184 213 255
184 213 255
184 213 255
184 213 255
184 213 255
184 213 255
184 213 255
184 212 255
184 212 255
184 212 255
184 212 255
184 212 255
184 212 255
184 212 255
184 212 255
184 212 255
184 212 255
184 212 255
183 212 255
183 212 255
183 212 255
183 212 255
183 212 255
183 212 255
183 212 255
183 212 255
183 212 255
183 212 255
183 212 255
183 212 255
183 212 255
183 212 255
183 212 255
183 212 255
183 212 255
183 212 255
183 212 255
183 212 255
183 212 255
183 212 255
183 212 255
183 212 255
183 212 255
183 212 255
182 212 255
182 212 255
182 212 255
182 212 255
182 212 255
182 212 255
182 212 255
182 212 255
182 211 255
182 211 255
182 211 255
182 211 255
182 211 255
182 211 255
182 211 255
182 211 255
182 211 255
182 211 255
182 211 255
182 211 255
182 211 255
182 211 255
182 211 255
182 211 255
182 211 255
181 211 255
181 211 255
181 211 255
181 211 255
181 211 255
181 211 255
181 211 255
181 211 255
181 211 255
181 211 255
181 211 255
181 211 255
181 211 255
181 211 255
181 211 255
181 211 255
181 211 255
181 211 255
181 211 255
181 211 255
170 198 241
73 90 116
70 87 112
68 84 108
69 86 111
69 85 111
67 82 105
69 85 109
65 81 104
66 83 107
68 84 107
69 85 108
67 84 109
65 80 103
70 87 111
66 82 106
69 86 110
71 88 113
66 83 107
67 82 105
63 78 101
64 80 103
66 82 105
70 86 110
66 80 102
65 80 104
67 82 106
66 82 106
69 85 109
69 85 110
66 81 104
69 85 109
65 81 104
69 85 109
66 82 105
67 83 107
66 81 104
68 84 108
66 81 103
69 86 110
69 84 107
71 87 111
70 86 110
65 80 103
69 85 110
67 82 105
65 80 104
69 85 110
67 84 109
64 79 103
67 82 104
62 77 99
70 86 111
68 83 107
65 80 101
70 86 111
67 83 107
67 82 105
66 81 105
66 82 106
66 82 105
71 87 111
69 84 108
67 83 107
69 84 108
64 78 100
65 80 103
65 81 104
68 85 110
69 85 109
63 78 101
66 81 104
61 76 98
63 78 100
72 89 113
65 81 104
66 82 105
69 84 108
64 80 103
68 84 106
65 80 102
66 80 103
69 84 107
62 77 101
70 86 109
65 80 103
63 78 101
68 84 108
65 81 104
71 86 109
65 81 105
64 80 104
65 80 104
67 82 105
66 82 106
70 86 110
67 83 107
67 82 105
63 78 101
65 80 102
67 82 105
67 83 108
65 81 105
69 85 109
69 84 108
68 84 108
65 81 104
67 84 109
70 85 109
70 86 110
66 82 105
66 81 105
66 82 106
65 80 104
65 82 106
69 86 110
65 80 103
64 80 104
67 84 108
67 83 107
69 85 109
68 84 108
74 91 116
169 198 241
181 211 255
181 211 255
181 211 255
181 211 255
181 211 255
181 211 255
181 211 255
181 211 255
181 211 255
181 211 255
181 211 255
181 211 255
181 211 255
181 211 255
181 211 255
181 211 255
181 211 255
181 211 255
181 211 255
181 211 255
182 211 255
182 211 255
182 211 255
182 211 255
182 211 255
182 211 255
182 211 255
182 211 255
182 211 255
182 211 255
182 211 255
182 211 255
182 211 255
182 211 255
182 211 255
182 211 255
182 212 255
182 212 255
182 212 255
182 212 255
182 212 255
182 212 255
182 212 255
182 212 255
183 212 255
183 212 255
183 212 255
183 212 255
183 212 255
183 212 255
183 212 255
183 212 255
183 212 255
183 212 255
183 212 255
183 212 255
183 212 255
183 212 255
183 212 255
183 212 255
183 212 255
183 212 255
183 212 255
183 212 255
183 212 255
183 212 255
183 212 255
183 212 255
183 212 255
183 212 255
183 212 255
184 212 255
184 212 255
184 212 255
184 212 255
184 212 255
184 212 255
184 212 255
184 212 255
184 212 255
184 212 255
184 212 255
184 213 255
184 213 255
184 213 255
184 213 255
184 213 255
184 213 255
184 213 255
184 213 255
184 213 255
184 213 255
184 213 255
184 213 255
184 213 255
184 213 255
184 213 255
184 213 255
184 213 255
184 213 255
184 213 255
184 213 255
184 213 255
185 213 255
185 213 255
185 213 255
185 213 255
185 213 255
185 213 255
185 213 255
185 213 255
185 213 255
185 213 255
185 213 255
185 213 255
185 213 255
185 213 255
185 213 255
185 213 255
185 213 255
185 213 255
185 213 255
185 213 255
185 213 255
185 213 255
185 213 255
185 213 255
185 213 255
185 213 255
185 213 255
185 213 255
185 213 255
185 213 255
185 213 255
185 213 255
185 213 255
185 213 255
185 213 255
186 214 255
186 214 255
186 214 255
186 214 255
186 214 255
186 214 255
186 214 255
185 213 255
185 213 255
185 213 255
185 213 255
185 213 255
185 213 255
185 213 255
185 213 255
185 213 255
185 213 255
185 213 255
185 213 255
185 213 255
185 213 255
185 213 255
185 213 255
185 213 255
185 213 255
185 213 255
185 213 255
185 213 255
185 213 255
185 213 255
185 213 255
185 213 255
185 213 255
185 213 255
185 213 255
185 213 255
185 213 255
185 213 255
185 213 255
185 213 255
185 213 255
185 213 255
185 213 255
185 213 255
185 213 255
185 213 255
184 213 255
184 213 255
184 213 255
184 213 255
184 213 255
184 213 255
184 213 255
184 213 255
184 213 255
184 213 255
184 213 255
184 213 255
184 213 255
184 213 255
184 213 255
184 213 255
184 213 255
184 213 255
184 213 255
184 213 255
184 213 255
184 212 255
184 212 255
184 212 255
184 212 255
184 212 255
184 212 255
184 212 255
184 212 255
184 212 255
184 212 255
183 212 255
183 212 255
183 212 255
183 212 255
183 212 255
183 212 255
183 212 255
183 212 255
183 212 255
183 212 255
183 212 255
183 212 255
183 212 255
183 212 255
183 212 255
183 212 255
183 212 255
183 212 255
183 212 255
183 212 255
183 212 255
183 212 255
183 212 255
183 212 255
183 212 255
183 212 255
183 212 255
182 212 255
182 212 255
182 212 255
182 212 255
182 212 255
182 212 255
182 212 255
182 212 255
182 212 255
182 211 255
182 211 255
182 211 255
182 211 255
182 211 255
182 211 255
182 211 255
182 211 255
182 211 255
182 211 255
182 211 255
182 211 255
182 211 255
182 211 255
182 211 255
182 211 255
181 211 255
181 211 255
181 211 255
181 211 255
181 211 255
181 211 255
181 211 255
181 211 255
181 211 255
133 157 193
70 86 111
72 88 112
68 85 109
73 90 114
68 84 108
69 84 107
66 82 106
65 80 103
70 85 109
67 82 105
66 82 105
68 84 106
68 84 107
68 84 108
67 83 107
68 83 106
63 79 102
69 85 108
69 85 110
62 77 99
70 85 108
64 79 102
67 82 104
67 83 106
70 87 111
66 82 105
66 82 105
66 82 106
68 84 108
69 85 107
67 83 106
65 80 102
71 86 109
66 82 104
66 82 106
68 84 108
66 83 107
69 85 108
66 82 107
70 86 110
67 82 106
67 83 107
69 84 107
67 83 106
66 83 107
65 80 103
66 80 102
71 87 110
60 75 97
66 81 105
66 82 105
68 83 106
69 84 107
62 77 100
66 81 105
65 81 106
64 79 101
66 81 103
65 81 105
68 84 107
67 82 105
65 81 104
70 86 109
66 82 105
71 86 109
70 86 110
66 80 102
67 83 106
67 82 104
66 81 104
68 82 104
65 80 102
69 85 109
68 84 108
69 85 110
64 80 103
63 78 101
66 81 104
67 83 106
65 81 104
65 81 104
68 83 106
71 87 111
69 85 109
67 83 106
65 81 104
68 84 108
68 84 107
64 80 104
69 84 107
63 79 102
69 86 111
63 78 100
68 83 107
69 86 110
64 79 101
69 85 109
66 81 104
67 84 108
67 82 106
64 79 101
64 79 101
67 82 104
66 81 103
65 81 106
68 85 110
66 82 105
66 81 105
68 83 107
70 86 108
65 82 107
69 85 109
64 79 101
68 84 108
67 83 107
64 79 102
67 84 110
64 80 103
65 82 106
69 84 107
72 89 114
65 82 107
131 155 190
181 211 255
181 211 255
181 211 255
181 211 255
181 211 255
181 211 255
181 211 255
181 211 255
181 211 255
182 211 255
182 211 255
182 211 255
182 211 255
182 211 255
182 211 255
182 211 255
182 211 255
182 211 255
182 211 255
182 211 255
182 211 255
182 211 255
182 211 255
182 211 255
182 211 255
182 212 255
182 212 255
182 212 255
182 212 255
182 212 255
182 212 255
182 212 255
182 212 255
182 212 255
183 212 255
183 212 255
183 212 255
183 212 255
183 212 255
183 212 255
183 212 255
183 212 255
183 212 255
183 212 255
183 212 255
183 212 255
183 212 255
183 212 255
183 212 255
183 212 255
183 212 255
183 212 255
183 212 255
183 212 255
183 212 255
183 212 255
183 212 255
183 212 255
183 212 255
183 212 255
183 212 255
184 212 255
184 212 255
184 212 255
184 212 255
184 212 255
184 212 255
184 212 255
184 212 255
184 212 255
184 212 255
184 213 255
184 213 255
184 213 255
184 213 255
184 213 255
184 213 255
184 213 255
184 213 255
184 213 255
184 213 255
184 213 255
184 213 255
184 213 255
184 213 255
184 213 255
184 213 255
184 213 255
184 213 255
184 213 255
184 213 255
184 213 255
185 213 255
185 213 255
185 213 255
185 213 255
185 213 255
185 213 255
185 213 255
185 213 255
185 213 255
185 213 255
185 213 255
185 213 255
185 213 255
185 213 255
185 213 255
185 213 255
185 213 255
185 213 255
185 213 255
185 213 255
185 213 255
185 213 255
185 213 255
185 213 255
185 213 255
185 213 255
185 213 255
185 213 255
185 213 255
185 213 255
185 213 255
185 213 255
185 213 255
185 213 255
185 213 255
185 213 255
185 213 255
185 213 255
185 213 255
186 214 255
186 214 255
186 214 255
186 214 255
186 214 255
186 214 255
186 214 255
186 214 255
186 214 255
186 214 255
186 214 255
186 214 255
186 214 255
186 214 255
186 214 255
186 214 255
186 214 255
186 214 255
186 214 255
186 214 255
186 214 255
186 214 255
186 214 255
186 214 255
186 214 255
186 214 255
186 214 255
185 213 255
185 213 255
185 213 255
185 213 255
185 213 255
185 213 255
185 213 255
185 213 255
185 213 255
185 213 255
185 213 255
185 213 255
185 213 255
185 213 255
185 213 255
185 213 255
185 213 255
185 213 255
185 213 255
185 213 255
185 213 255
185 213 255
185 213 255
185 213 255
185 213 255
185 213 255
185 213 255
185 213 255
185 213 255
185 213 255
185 213 255
185 213 255
185 213 255
185 213 255
185 213 255
185 213 255
185 213 255
185 213 255
184 213 255
184 213 255
184 213 255
184 213 255
184 213 255
184 213 255
184 213 255
184 213 255
184 213 255
184 213 255
184 213 255
184 213 255
184 213 255
184 213 255
184 213 255
184 213 255
184 213 255
184 213 255
184 213 255
184 213 255
184 212 255
184 212 255
184 212 255
184 212 255
184 212 255
184 212 255
184 212 255
184 212 255
184 212 255
184 212 255
183 212 255
183 212 255
183 212 255
183 212 255
183 212 255
183 212 255
183 212 255
183 212 255
183 212 255
183 212 255
183 212 255
183 212 255
183 212 255
183 212 255
183 212 255
183 212 255
183 212 255
183 212 255
183 212 255
183 212 255
183 212 255
183 212 255
183 212 255
183 212 255
183 212 255
183 212 255
183 212 255
182 212 255
182 212 255
182 212 255
182 212 255
182 212 255
182 212 255
182 212 255
182 212 255
182 212 255
182 211 255
182 211 255
182 211 255
182 211 255
182 211 255
182 211 255
182 211 255
182 211 255
182 211 255
182 211 255
182 211 255
182 211 255
182 211 255
182 211 255
88 106 133
66 83 108
66 82 105
67 83 108
69 85 110
70 86 110
66 81 103
65 82 106
66 82 105
65 81 105
66 81 104
67 83 108
69 85 110
64 79 102
67 83 107
66 81 103
65 80 103
66 80 102
67 81 103
72 88 113
63 77 99
68 84 108
68 85 109
71 88 112
68 83 106
72 88 111
70 87 111
69 85 110
72 87 110
71 86 110
67 82 105
66 81 104
67 82 106
65 81 103
67 83 107
69 86 111
69 84 107
71 87 109
66 82 105
65 80 102
67 82 106
66 81 104
64 79 101
66 82 105
67 83 107
64 79 101
67 83 106
66 81 105
68 83 106
67 82 106
65 81 103
62 76 98
66 82 105
72 87 109
62 77 99
62 77 99
63 79 103
64 79 102
70 86 110
68 83 105
68 84 107
64 80 103
70 85 108
63 79 102
66 81 105
65 80 103
64 79 102
67 83 108
66 81 103
62 77 99
68 84 108
66 81 103
65 80 102
65 80 104
71 87 112
69 85 110
67 83 107
67 83 106
69 85 110
66 81 104
64 80 103
68 82 104
67 84 108
67 82 104
62 77 101
64 78 101
65 80 103
67 83 106
69 86 110
68 84 108
69 84 108
66 81 105
63 77 99
68 83 106
65 80 103
67 82 105
68 84 108
63 78 100
64 79 101
67 83 108
70 87 111
63 78 101
66 81 104
65 81 104
63 79 104
61 75 97
70 85 109
66 81 104
68 84 108
66 82 105
67 83 108
69 86 111
65 80 101
69 86 110
69 85 110
66 81 105
67 83 106
68 83 107
66 82 106
69 84 108
66 82 105
68 84 107
70 86 110
91 109 137
182 211 255
182 211 255
182 211 255
182 211 255
182 211 255
182 211 255
182 211 255
182 211 255
182 211 255
182 211 255
182 211 255
182 211 255
182 211 255
182 211 255
182 212 255
182 212 255
182 212 255
182 212 255
182 212 255
182 212 255
182 212 255
182 212 255
182 212 255
183 212 255
183 212 255
183 212 255
183 212 255
183 212 255
183 212 255
183 212 255
183 212 255
183 212 255
183 212 255
183 212 255
183 212 255
183 212 255
183 212 255
183 212 255
183 212 255
183 212 255
183 212 255
183 212 255
183 212 255
183 212 255
183 212 255
183 212 255
183 212 255
183 212 255
183 212 255
184 212 255
184 212 255
184 212 255
184 212 255
184 212 255
184 212 255
184 212 255
184 212 255
184 212 255
184 212 255
184 212 255
184 213 255
184 213 255
184 213 255
184 213 255
184 213 255
184 213 255
184 213 255
184 213 255
184 213 255
184 213 255
184 213 255
184 213 255
184 213 255
184 213 255
184 213 255
184 213 255
184 213 255
184 213 255
184 213 255
184 213 255
185 213 255
185 213 255
185 213 255
185 213 255
185 213 255
185 213 255
185 213 255
185 213 255
185 213 255
185 213 255
185 213 255
185 213 255
185 213 255
185 213 255
185 213 255
185 213 255
185 213 255
185 213 255
185 213 255
185 213 255
185 213 255
185 213 255
185 213 255
185 213 255
185 213 255
185 213 255
185 213 255
185 213 255
185 213 255
185 213 255
185 213 255
185 213 255
185 213 255
185 213 255
185 213 255
185 213 255
185 213 255
185 213 255
186 214 255
186 214 255
186 214 255
186 214 255
186 214 255
186 214 255
186 214 255
186 214 255
186 214 255
186 214 255
186 214 255
186 214 255
186 214 255
186 214 255
186 214 255
186 214 255
186 214 255
186 214 255
186 214 255
186 214 255
186 214 255
186 214 255
186 214 255
186 214 255
186 214 255
186 214 255
186 214 255
186 214 255
186 214 255
186 214 255
186 214 255
186 214 255
186 214 255
186 214 255
186 214 255
186 214 255
186 214 255
186 214 255
186 214 255
186 214 255
186 214 255
186 214 255
186 214 255
186 214 255
186 214 255
186 214 255
186 214 255
186 214 255
186 214 255
186 214 255
186 214 255
185 213 255
185 213 255
185 213 255
185 213 255
185 213 255
185 213 255
185 213 255
185 213 255
185 213 255
185 213 255
185 213 255
185 213 255
185 213 255
185 213 255
185 213 255
185 213 255
185 213 255
185 213 255
185 213 255
185 213 255
185 213 255
185 213 255
185 213 255
185 213 255
185 213 255
185 213 255
185 213 255
185 213 255
185 213 255
185 213 255
185 213 255
185 213 255
185 213 255
185 213 255
185 213 255
185 213 255
185 213 255
184 213 255
184 213 255
184 213 255
184 213 255
184 213 255
184 213 255
184 213 255
184 213 255
184 213 255
184 213 255
184 213 255
184 213 255
184 213 255
184 213 255
184 213 255
184 213 255
184 213 255
184 213 255
184 213 255
184 213 255
184 213 255
184 213 255
184 212 255
184 212 255
184 212 255
184 212 255
184 212 255
184 212 255
184 212 255
184 212 255
184 212 255
183 212 255
183 212 255
183 212 255
183 212 255
183 212 255
183 212 255
183 212 255
183 212 255
183 212 255
183 212 255
183 212 255
183 212 255
183 212 255
183 212 255
183 212 255
183 212 255
183 212 255
183 212 255
183 212 255
183 212 255
183 212 255
183 212 255
183 212 255
183 212 255
183 212 255
183 212 255
183 212 255
183 212 255
183 212 255
182 212 255
182 212 255
182 212 255
182 212 255
182 212 255
182 212 255
182 212 255
182 212 255
182 212 255
170 198 239
67 82 105
64 80 103
68 83 105
71 87 111
69 85 109
65 81 104
66 83 107
68 84 108
62 77 99
66 82 105
69 84 108
67 83 105
68 84 107
69 85 109
68 83 106
68 83 107
69 85 109
69 85 108
67 83 106
69 85 110
65 80 103
67 82 105
64 79 102
67 82 105
66 82 107
67 82 105
69 84 108
71 86 110
64 79 101
68 83 105
71 87 111
67 82 106
62 77 99
62 77 100
66 82 105
70 86 111
66 82 105
70 85 108
66 81 103
65 80 103
66 82 105
66 81 103
67 84 108
69 84 108
66 82 105
65 81 105
64 79 102
65 80 103
65 80 103
69 85 109
64 78 100
66 82 105
71 87 111
68 83 105
68 84 108
65 81 104
63 78 100
69 84 106
64 79 101
65 81 103
65 80 101
64 78 101
67 82 104
65 82 106
67 82 104
67 83 107
65 80 104
65 81 104
62 77 98
67 82 105
65 81 104
66 81 103
62 76 97
70 85 109
67 83 106
65 80 102
65 81 103
67 82 104
67 82 106
65 81 104
64 78 100
69 84 107
67 82 105
66 82 105
66 82 105
70 87 111
68 84 107
61 76 99
66 81 104
69 85 109
68 83 106
68 84 107
71 86 110
69 84 107
64 80 103
63 78 101
68 84 109
68 84 108
66 81 104
67 83 106
64 79 102
68 83 106
64 80 103
65 81 104
67 83 107
68 85 110
67 82 105
63 78 101
62 77 99
71 87 110
65 80 102
65 80 102
64 79 103
63 78 101
67 82 104
72 89 113
70 86 111
66 81 103
66 82 106
69 85 110
64 80 105
64 78 100
71 88 113
68 84 109
170 198 239
182 212 255
182 212 255
182 212 255
182 212 255
182 212 255
182 212 255
182 212 255
182 212 255
182 212 255
182 212 255
183 212 255
183 212 255
183 212 255
183 212 255
183 212 255
183 212 255
183 212 255
183 212 255
183 212 255
183 212 255
183 212 255
183 212 255
183 212 255
183 212 255
183 212 255
183 212 255
183 212 255
183 212 255
183 212 255
183 212 255
183 212 255
183 212 255
183 212 255
183 212 255
183 212 255
183 212 255
183 212 255
184 212 255
184 212 255
184 212 255
184 212 255
184 212 255
184 212 255
184 212 255
184 212 255
184 212 255
184 212 255
184 213 255
184 213 255
184 213 255
184 213 255
184 213 255
184 213 255
184 213 255
184 213 255
184 213 255
184 213 255
184 213 255
184 213 255
184 213 255
184 213 255
184 213 255
184 213 255
184 213 255
184 213 255
184 213 255
184 213 255
184 213 255
185 213 255
185 213 255
185 213 255
185 213 255
185 213 255
185 213 255
185 213 255
185 213 255
185 213 255
185 213 255
185 213 255
185 213 255
185 213 255
185 213 255
185 213 255
185 213 255
185 213 255
185 213 255
185 213 255
185 213 255
185 213 255
185 213 255
185 213 255
185 213 255
185 213 255
185 213 255
185 213 255
185 213 255
185 213 255
185 213 255
185 213 255
185 213 255
185 213 255
185 213 255
185 213 255
185 213 255
185 213 255
186 214 255
186 214 255
186 214 255
186 214 255
186 214 255
186 214 255
186 214 255
186 214 255
186 214 255
186 214 255
186 214 255
186 214 255
186 214 255
186 214 255
186 214 255
186 214 255
186 214 255
186 214 255
186 214 255
186 214 255
186 214 255
186 214 255
186 214 255
186 214 255
186 214 255
186 214 255
186 214 255
186 214 255
186 214 255
186 214 255
186 214 255
186 214 255
186 214 255
186 214 255
186 214 255
186 214 255
186 214 255
186 214 255
186 214 255
186 214 255
186 214 255
186 214 255
186 214 255
186 214 255
186 214 255
186 214 255
186 214 255
186 214 255
186 214 255
186 214 255
186 214 255
186 214 255
186 214 255
186 214 255
186 214 255
186 214 255
186 214 255
186 214 255
186 214 255
186 214 255
186 214 255
186 214 255
186 214 255
186 214 255
186 214 255
186 214 255
186 214 255
186 214 255
186 214 255
186 214 255
186 214 255
186 214 255
186 214 255
186 214 255
186 214 255
186 214 255
186 214 255
186 214 255
185 213 255
185 213 255
185 213 255
185 213 255
185 213 255
185 213 255
185 213 255
185 213 255
185 213 255
185 213 255
185 213 255
185 213 255
185 213 255
185 213 255
185 213 255
185 213 255
185 213 255
185 213 255
185 213 255
185 213 255
185 213 255
185 213 255
185 213 255
185 213 255
185 213 255
185 213 255
185 213 255
185 213 255
185 213 255
185 213 255
185 213 255
185 213 255
185 213 255
185 213 255
185 213 255
184 213 255
184 213 255
184 213 255
184 213 255
184 213 255
184 213 255
184 213 255
184 213 255
184 213 255
184 213 255
184 213 255
184 213 255
184 213 255
184 213 255
184 213 255
184 213 255
184 213 255
184 213 255
184 213 255
184 213 255
184 213 255
184 212 255
184 212 255
184 212 255
184 212 255
184 212 255
184 212 255
184 212 255
184 212 255
184 212 255
184 212 255
184 212 255
183 212 255
183 212 255
183 212 255
183 212 255
183 212 255
183 212 255
183 212 255
183 212 255
183 212 255
183 212 255
183 212 255
183 212 255
183 212 255
183 212 255
183 212 255
183 212 255
183 212 255
183 212 255
183 212 255
183 212 255
183 212 255
183 212 255
183 212 255
183 212 255
141 165 201
67 83 107
66 82 105
72 88 112
69 85 109
66 81 105
63 78 101
68 84 107
67 82 106
69 85 110
65 80 103
74 90 115
68 84 106
68 83 106
70 86 111
65 80 103
66 82 106
69 85 109
64 79 102
66 82 106
66 82 105
66 81 103
66 81 103
67 83 108
63 78 100
66 83 107
64 78 101
71 86 110
65 79 101
68 84 108
65 79 101
66 81 105
65 80 103
64 79 103
63 79 101
66 82 105
70 86 109
68 83 106
71 86 109
69 84 107
68 84 108
68 83 105
68 83 106
67 82 104
70 85 108
69 84 106
67 82 105
64 79 103
65 80 102
64 80 103
68 83 105
67 82 104
67 82 106
68 83 106
65 81 104
67 82 105
65 81 103
69 85 109
66 82 105
63 77 99
69 84 106
66 82 105
68 84 108
70 85 108
64 80 103
67 83 107
66 81 103
70 86 110
68 84 108
66 81 105
65 80 103
64 78 99
66 81 103
69 84 107
68 85 110
66 82 106
67 83 107
66 81 103
62 77 100
67 82 105
67 83 108
71 87 110
65 80 103
65 80 102
65 80 103
65 80 103
69 85 108
67 82 105
66 80 102
68 84 108
64 80 103
68 83 106
70 86 108
66 83 107
69 85 109
69 84 107
67 82 105
68 82 104
69 85 109
67 82 104
69 84 106
67 82 104
70 86 111
66 82 105
66 82 105
67 82 105
72 88 112
67 82 105
64 80 105
63 79 102
67 83 106
69 84 108
69 85 110
66 81 104
70 85 108
67 83 106
69 85 109
65 80 103
68 83 107
61 76 98
67 83 107
67 83 108
67 82 105
67 83 106
68 83 106
133 157 193
183 212 255
183 212 255
183 212 255
183 212 255
183 212 255
183 212 255
183 212 255
183 212 255
183 212 255
183 212 255
183 212 255
183 212 255
183 212 255
183 212 255
183 212 255
183 212 255
183 212 255
183 212 255
183 212 255
183 212 255
183 212 255
183 212 255
183 212 255
183 212 255
183 212 255
184 212 255
184 212 255
184 212 255
184 212 255
184 212 255
184 212 255
184 212 255
184 212 255
184 212 255
184 212 255
184 213 255
184 213 255
184 213 255
184 213 255
184 213 255
184 213 255
184 213 255
184 213 255
184 213 255
184 213 255
184 213 255
184 213 255
184 213 255
184 213 255
184 213 255
184 213 255
184 213 255
184 213 255
184 213 255
184 213 255
184 213 255
185 213 255
185 213 255
185 213 255
185 213 255
185 213 255
185 213 255
185 213 255
185 213 255
185 213 255
185 213 255
185 213 255
185 213 255
185 213 255
185 213 255
185 213 255
185 213 255
185 213 255
185 213 255
185 213 255
185 213 255
185 213 255
185 213 255
185 213 255
185 213 255
185 213 255
185 213 255
185 213 255
185 213 255
185 213 255
185 213 255
185 213 255
185 213 255
185 213 255
185 213 255
185 213 255
186 214 255
186 214 255
186 214 255
186 214 255
186 214 255
186 214 255
186 214 255
186 214 255
186 214 255
186 214 255
186 214 255
186 214 255
186 214 255
186 214 255
186 214 255
186 214 255
186 214 255
186 214 255
186 214 255
186 214 255
186 214 255
186 214 255
186 214 255
186 214 255
186 214 255
186 214 255
186 214 255
186 214 255
186 214 255
186 214 255
186 214 255
186 214 255
186 214 255
186 214 255
186 214 255
186 214 255
186 214 255
186 214 255
186 214 255
186 214 255
186 214 255
186 214 255
186 214 255
186 214 255
186 214 255
186 214 255
187 214 255
187 214 255
187 214 255
187 214 255
187 214 255
187 214 255
187 214 255
187 214 255
187 214 255
187 214 255
187 214 255
187 214 255
187 214 255
187 214 255
187 214 255
186 214 255
186 214 255
186 214 255
186 214 255
186 214 255
186 214 255
186 214 255
186 214 255
186 214 255
186 214 255
186 214 255
186 214 255
186 214 255
186 214 255
186 214 255
186 214 255
186 214 255
186 214 255
186 214 255
186 214 255
186 214 255
186 214 255
186 214 255
186 214 255
186 214 255
186 214 255
186 214 255
186 214 255
186 214 255
186 214 255
186 214 255
186 214 255
186 214 255
186 214 255
186 214 255
186 214 255
186 214 255
186 214 255
186 214 255
186 214 255
186 214 255
186 214 255
186 214 255
186 214 255
185 213 255
185 213 255
185 213 255
185 213 255
185 213 255
185 213 255
185 213 255
185 213 255
185 213 255
185 213 255
185 213 255
185 213 255
185 213 255
185 213 255
185 213 255
185 213 255
185 213 255
185 213 255
185 213 255
185 213 255
185 213 255
185 213 255
185 213 255
185 213 255
185 213 255
185 213 255
185 213 255
185 213 255
185 213 255
185 213 255
185 213 255
185 213 255
185 213 255
185 213 255
185 213 255
184 213 255
184 213 255
184 213 255
184 213 255
184 213 255
184 213 255
184 213 255
184 213 255
184 213 255
184 213 255
184 213 255
184 213 255
184 213 255
184 213 255
184 213 255
184 213 255
184 213 255
184 213 255
184 213 255
184 213 255
184 213 255
184 212 255
184 212 255
184 212 255
184 212 255
184 212 255
184 212 255
184 212 255
184 212 255
184 212 255
184 212 255
184 212 255
183 212 255
183 212 255
183 212 255
183 212 255
183 212 255
183 212 255
183 212 255
183 212 255
183 212 255
183 212 255
183 212 255
99 119 148
64 80 104
67 82 105
69 84 107
69 85 108
64 80 104
71 86 110
67 83 107
64 78 100
66 80 103
63 79 102
65 81 105
63 78 100
66 82 105
64 79 102
65 80 103
62 77 100
67 83 107
70 86 110
66 82 105
69 85 109
67 82 104
69 85 109
68 84 107
71 87 111
68 83 106
67 83 107
66 82 105
68 83 106
68 83 106
67 82 106
68 83 107
68 84 107
64 80 103
65 80 102
65 79 101
63 77 98
64 79 101
65 80 103
67 83 105
68 84 108
69 85 108
67 82 105
68 84 107
63 78 100
62 77 100
66 82 105
67 81 103
65 80 102
65 80 103
63 77 99
68 84 108
65 80 102
62 77 100
66 82 106
69 84 107
64 80 103
68 84 108
64 79 101
71 87 112
68 83 105
63 78 100
71 86 110
66 80 102
64 80 103
66 81 105
66 81 104
66 82 106
68 84 108
67 82 105
65 80 103
70 85 107
69 84 107
71 86 108
69 84 108
66 81 104
65 79 101
66 81 103
68 83 106
70 86 110
64 79 102
68 84 108
66 81 104
65 80 102
66 81 104
65 80 103
67 83 106
71 87 111
70 86 111
70 85 108
63 78 101
65 81 103
63 77 99
66 82 105
65 80 104
65 80 103
68 83 107
69 85 108
61 75 97
67 81 104
65 80 102
71 88 112
65 80 103
66 81 105
67 83 106
69 85 109
65 80 102
67 83 107
63 78 101
61 76 98
64 79 100
65 81 104
69 85 108
68 83 106
65 80 103
65 80 103
65 80 103
64 80 103
61 77 100
66 81 102
68 84 108
66 81 104
65 81 106
64 79 102
65 80 103
106 126 156
183 212 255
183 212 255
183 212 255
183 212 255
183 212 255
183 212 255
183 212 255
183 212 255
183 212 255
183 212 255
183 212 255
184 212 255
184 212 255
184 212 255
184 212 255
184 212 255
184 212 255
184 212 255
184 212 255
184 212 255
184 212 255
184 212 255
184 213 255
184 213 255
184 213 255
184 213 255
184 213 255
184 213 255
184 213 255
184 213 255
184 213 255
184 213 255
184 213 255
184 213 255
184 213 255
184 213 255
184 213 255
184 213 255
184 213 255
184 213 255
184 213 255
184 213 255
184 213 255
185 213 255
185 213 255
185 213 255
185 213 255
185 213 255
185 213 255
185 213 255
185 213 255
185 213 255
185 213 255
185 213 255
185 213 255
185 213 255
185 213 255
185 213 255
185 213 255
185 213 255
185 213 255
185 213 255
185 213 255
185 213 255
185 213 255
185 213 255
185 213 255
185 213 255
185 213 255
185 213 255
185 213 255
185 213 255
185 213 255
185 213 255
185 213 255
185 213 255
185 213 255
185 213 255
185 213 255
186 214 255
186 214 255
186 214 255
186 214 255
186 214 255
186 214 255
186 214 255
186 214 255
186 214 255
186 214 255
186 214 255
186 214 255
186 214 255
186 214 255
186 214 255
186 214 255
186 214 255
186 214 255
186 214 255
186 214 255
186 214 255
186 214 255
186 214 255
186 214 255
186 214 255
186 214 255
186 214 255
186 214 255
186 214 255
186 214 255
186 214 255
186 214 255
186 214 255
186 214 255
186 214 255
186 214 255
186 214 255
186 214 255
186 214 255
186 214 255
186 214 255
186 214 255
186 214 255
186 214 255
187 214 255
187 214 255
187 214 255
187 214 255
187 214 255
187 214 255
187 214 255
187 214 255
187 214 255
187 214 255
187 214 255
187 214 255
187 214 255
187 214 255
187 214 255
187 214 255
187 214 255
187 214 255
187 214 255
187 214 255
187 214 255
187 214 255
187 214 255
187 214 255
187 214 255
187 214 255
187 214 255
187 214 255
187 214 255
187 214 255
187 214 255
187 214 255
187 214 255
187 214 255
187 214 255
187 214 255
187 214 255
187 214 255
187 214 255
187 214 255
187 214 255
187 214 255
187 214 255
187 214 255
186 214 255
186 214 255
186 214 255
186 214 255
186 214 255
186 214 255
186 214 255
186 214 255
186 214 255
186 214 255
186 214 255
186 214 255
186 214 255
186 214 255
186 214 255
186 214 255
186 214 255
186 214 255
186 214 255
186 214 255
186 214 255
186 214 255
186 214 255
186 214 255
186 214 255
186 214 255
186 214 255
186 214 255
186 214 255
186 214 255
186 214 255
186 214 255
186 214 255
186 214 255
186 214 255
186 214 255
186 214 255
186 214 255
186 214 255
186 214 255
186 214 255
186 214 255
186 213 255
185 213 255
185 213 255
185 213 255
185 213 255
185 213 255
185 213 255
185 213 255
185 213 255
185 213 255
185 213 255
185 213 255
185 213 255
185 213 255
185 213 255
185 213 255
185 213 255
185 213 255
185 213 255
185 213 255
185 213 255
185 213 255
185 213 255
185 213 255
185 213 255
185 213 255
185 213 255
185 213 255
185 213 255
185 213 255
185 213 255
185 213 255
185 213 255
185 213 255
185 213 255
185 213 255
184 213 255
184 213 255
184 213 255
184 213 255
184 213 255
184 213 255
184 213 255
184 213 255
184 213 255
184 213 255
184 213 255
184 213 255
184 213 255
184 213 255
184 213 255
184 213 255
184 213 255
184 213 255
184 213 255
184 213 255
184 213 255
184 213 255
184 213 255
184 212 255
184 212 255
184 212 255
184 212 255
184 212 255
180 209 251
80 97 122
66 81 104
70 85 108
68 83 107
64 78 101
67 83 105
70 86 109
68 83 107
70 85 108
67 82 105
66 82 105
70 86 111
68 83 105
68 83 105
67 83 106
67 83 106
67 82 105
65 80 102
67 83 106
69 85 108
65 80 102
67 82 105
62 77 99
65 80 103
64 79 101
70 86 110
64 80 103
67 82 105
66 82 105
63 77 99
65 80 103
65 80 103
69 86 111
63 77 98
63 78 99
65 81 105
62 77 100
69 84 106
70 85 109
62 77 99
64 79 101
64 79 103
62 77 99
66 81 105
67 83 106
67 83 106
68 83 106
64 79 101
64 79 101
65 80 103
66 82 105
62 77 99
67 83 107
69 85 109
68 84 107
68 84 108
66 82 104
65 80 103
68 83 105
62 77 99
64 79 100
61 76 98
67 82 105
69 84 108
60 75 98
64 80 103
67 82 104
62 77 99
64 79 102
64 79 102
66 80 102
66 82 106
62 77 98
68 84 108
66 82 105
61 76 98
66 82 106
69 84 107
68 83 107
65 80 102
66 82 105
71 87 110
72 87 109
66 81 104
68 82 103
64 80 103
65 80 102
66 83 107
69 85 109
68 84 107
65 81 104
65 80 104
67 83 106
65 79 100
67 82 105
70 85 108
64 78 99
69 85 108
62 77 100
63 78 100
69 86 110
66 82 106
63 78 101
65 80 103
62 77 99
70 86 109
66 81 104
64 78 101
68 84 108
68 84 108
69 84 108
66 81 105
64 80 103
68 84 109
68 84 108
64 80 103
64 79 103
69 86 110
65 81 105
67 83 105
65 80 102
68 84 107
62 77 99
65 80 103
64 79 101
77 95 120
183 211 254
184 212 255
184 212 255
184 212 255
184 212 255
184 212 255
184 212 255
184 212 255
184 213 255
184 213 255
184 213 255
184 213 255
184 213 255
184 213 255
184 213 255
184 213 255
184 213 255
184 213 255
184 213 255
184 213 255
184 213 255
184 213 255
184 213 255
184 213 255
184 213 255
184 213 255
184 213 255
184 213 255
184 213 255
184 213 255
185 213 255
185 213 255
185 213 255
185 213 255
185 213 255
185 213 255
185 213 255
185 213 255
185 213 255
185 213 255
185 213 255
185 213 255
185 213 255
185 213 255
185 213 255
185 213 255
185 213 255
185 213 255
185 213 255
185 213 255
185 213 255
185 213 255
185 213 255
185 213 255
185 213 255
185 213 255
185 213 255
185 213 255
185 213 255
185 213 255
185 213 255
185 213 255
185 213 255
185 213 255
186 214 255
186 214 255
186 214 255
186 214 255
186 214 255
186 214 255
186 214 255
186 214 255
186 214 255
186 214 255
186 214 255
186 214 255
186 214 255
186 214 255
186 214 255
186 214 255
186 214 255
186 214 255
186 214 255
186 214 255
186 214 255
186 214 255
186 214 255
186 214 255
186 214 255
186 214 255
186 214 255
186 214 255
186 214 255
186 214 255
186 214 255
186 214 255
186 214 255
186 214 255
186 214 255
186 214 255
186 214 255
186 214 255
186 214 255
186 214 255
186 214 255
186 214 255
186 214 255
186 214 255
187 214 255
187 214 255
187 214 255
187 214 255
187 214 255
187 214 255
187 214 255
187 214 255
187 214 255
187 214 255
187 214 255
187 214 255
187 214 255
187 214 255
187 214 255
187 214 255
187 214 255
187 214 255
187 214 255
187 214 255
187 214 255
187 214 255
187 214 255
187 214 255
187 214 255
187 214 255
187 214 255
187 214 255
187 214 255
187 215 255
187 215 255
187 215 255
187 215 255
187 215 255
187 215 255
187 215 255
187 215 255
187 215 255
187 215 255
187 214 255
187 214 255
187 214 255
187 214 255
187 214 255
187 214 255
187 214 255
187 214 255
187 214 255
187 214 255
187 214 255
187 214 255
187 214 255
187 214 255
187 214 255
187 214 255
187 214 255
187 214 255
187 214 255
187 214 255
187 214 255
187 214 255
187 214 255
187 214 255
187 214 255
187 214 255
187 214 255
187 214 255
187 214 255
187 214 255
187 214 255
187 214 255
187 214 255
187 214 255
187 214 255
187 214 255
186 214 255
186 214 255
186 214 255
186 214 255
186 214 255
186 214 255
186 214 255
186 214 255
186 214 255
186 214 255
186 214 255
186 214 255
186 214 255
186 214 255
186 214 255
186 214 255
186 214 255
186 214 255
186 214 255
186 214 255
186 214 255
186 214 255
186 214 255
186 214 255
186 214 255
186 214 255
186 214 255
186 214 255
186 214 255
186 214 255
186 214 255
186 214 255
186 214 255
186 214 255
186 214 255
186 214 255
186 214 255
186 214 255
186 214 255
186 214 255
186 214 255
185 213 255
185 213 255
185 213 255
185 213 255
185 213 255
185 213 255
185 213 255
185 213 255
185 213 255
185 213 255
185 213 255
185 213 255
185 213 255
185 213 255
185 213 255
185 213 255
185 213 255
185 213 255
185 213 255
185 213 255
185 213 255
185 213 255
185 213 255
185 213 255
185 213 255
185 213 255
185 213 255
185 213 255
185 213 255
185 213 255
185 213 255
185 213 255
185 213 255
185 213 255
185 213 255
185 213 255
184 213 255
184 213 255
184 213 255
184 213 255
184 213 255
184 213 255
184 213 255
184 213 255
184 213 255
184 213 255
184 213 255
184 213 255
184 213 255
169 195 236
63 79 103
66 81 104
66 80 101
67 83 106
62 77 99
68 83 106
64 79 102
63 78 100
63 77 100
63 78 101
64 79 101
64 79 101
69 85 109
65 80 103
66 82 106
70 85 108
65 80 103
64 78 100
67 82 106
61 76 99
66 81 103
68 83 106
67 83 106
63 79 102
68 83 106
62 77 100
66 82 105
64 79 101
67 82 105
65 81 104
62 77 99
64 79 101
66 81 105
62 77 99
68 83 106
64 80 103
64 79 103
66 80 101
65 79 101
66 81 103
67 83 106
62 77 99
72 87 110
67 82 104
70 85 108
64 78 100
66 81 104
70 85 109
67 82 105
66 81 104
62 77 99
66 80 102
63 78 101
69 84 107
63 79 102
67 82 104
67 83 107
65 80 103
69 84 108
63 79 101
62 76 98
66 82 105
67 82 105
69 86 110
68 84 107
64 80 103
61 76 99
66 82 105
70 86 110
67 82 105
69 84 107
62 76 97
66 82 105
63 78 101
66 81 103
63 78 101
61 75 96
66 82 105
60 74 96
65 80 102
66 81 104
65 81 103
67 83 106
65 79 101
64 79 102
69 85 108
68 83 106
67 83 107
62 76 96
65 80 102
67 83 106
62 77 100
66 81 103
63 77 99
67 83 107
67 83 105
64 79 102
65 81 104
64 79 102
66 82 105
65 80 103
68 84 107
65 80 102
70 86 110
68 83 105
61 76 99
65 80 103
63 78 101
69 85 108
63 77 98
63 78 101
67 82 104
66 80 102
68 83 106
68 84 108
67 83 107
64 80 103
65 79 101
66 82 107
67 83 106
67 83 106
67 82 105
69 85 108
65 79 102
69 84 107
69 84 108
170 197 237
184 213 255
184 213 255
184 213 255
184 213 255
184 213 255
184 213 255
184 213 255
184 213 255
184 213 255
184 213 255
184 213 255
184 213 255
184 213 255
184 213 255
185 213 255
185 213 255
185 213 255
185 213 255
185 213 255
185 213 255
185 213 255
185 213 255
185 213 255
185 213 255
185 213 255
185 213 255
185 213 255
185 213 255
185 213 255
185 213 255
185 213 255
185 213 255
185 213 255
185 213 255
185 213 255
185 213 255
185 213 255
185 213 255
185 213 255
185 213 255
185 213 255
185 213 255
185 213 255
185 213 255
185 213 255
185 213 255
185 213 255
185 213 255
185 213 255
186 214 255
186 214 255
186 214 255
186 214 255
186 214 255
186 214 255
186 214 255
186 214 255
186 214 255
186 214 255
186 214 255
186 214 255
186 214 255
186 214 255
186 214 255
186 214 255
186 214 255
186 214 255
186 214 255
186 214 255
186 214 255
186 214 255
186 214 255
186 214 255
186 214 255
186 214 255
186 214 255
186 214 255
186 214 255
186 214 255
186 214 255
186 214 255
186 214 255
186 214 255
186 214 255
186 214 255
186 214 255
186 214 255
186 214 255
186 214 255
186 214 255
186 214 255
186 214 255
187 214 255
187 214 255
187 214 255
187 214 255
187 214 255
187 214 255
187 214 255
187 214 255
187 214 255
187 214 255
187 214 255
187 214 255
187 214 255
187 214 255
187 214 255
187 214 255
187 214 255
187 214 255
187 214 255
187 214 255
187 214 255
187 214 255
187 214 255
187 214 255
187 214 255
187 214 255
187 214 255
187 214 255
187 214 255
187 214 255
187 214 255
187 214 255
187 214 255
187 214 255
187 214 255
187 215 255
187 215 255
187 215 255
187 215 255
187 215 255
187 215 255
187 215 255
187 215 255
187 215 255
188 215 255
188 215 255
188 215 255
188 215 255
188 215 255
188 215 255
188 215 255
188 215 255
187 215 255
187 215 255
187 215 255
187 215 255
187 215 255
187 215 255
187 215 255
187 215 255
187 215 255
187 215 255
187 215 255
187 215 255
187 215 255
187 215 255
187 215 255
187 215 255
187 215 255
187 215 255
187 214 255
187 214 255
187 214 255
187 214 255
187 214 255
187 214 255
187 214 255
187 214 255
187 214 255
187 214 255
187 214 255
187 214 255
187 214 255
187 214 255
187 214 255
187 214 255
187 214 255
187 214 255
187 214 255
187 214 255
187 214 255
187 214 255
187 214 255
187 214 255
187 214 255
187 214 255
187 214 255
187 214 255
187 214 255
187 214 255
187 214 255
187 214 255
187 214 255
187 214 255
187 214 255
187 214 255
186 214 255
186 214 255
186 214 255
186 214 255
186 214 255
186 214 255
186 214 255
186 214 255
186 214 255
186 214 255
186 214 255
186 214 255
186 214 255
186 214 255
186 214 255
186 214 255
186 214 255
186 214 255
186 214 255
186 214 255
186 214 255
186 214 255
186 214 255
186 214 255
186 214 255
186 214 255
186 214 255
186 214 255
186 214 255
186 214 255
186 214 255
186 214 255
186 214 255
186 214 255
186 214 255
186 214 255
186 214 255
186 214 255
186 214 255
186 214 255
185 213 255
185 213 255
185 213 255
185 213 255
185 213 255
185 213 255
185 213 255
185 213 255
185 213 255
185 213 255
185 213 255
185 213 255
185 213 255
185 213 255
185 213 255
185 213 255
185 213 255
185 213 255
185 213 255
185 213 255
185 213 255
185 213 255
185 213 255
185 213 255
185 213 255
185 213 255
185 213 255
185 213 255
185 213 255
185 213 255
185 213 255
185 213 255
185 213 255
185 213 255
140 163 199
66 82 106
70 85 108
63 77 99
68 83 106
68 83 106
65 81 105
67 82 104
69 85 109
68 83 106
61 75 97
67 82 104
66 80 101
61 76 98
67 83 106
65 80 103
62 78 101
67 83 106
67 82 105
69 85 108
66 80 103
68 83 106
66 82 107
70 86 109
66 80 103
64 78 100
65 79 100
68 83 106
67 83 107
60 75 97
64 78 100
63 78 100
66 81 103
61 76 99
61 76 98
63 77 99
66 80 103
63 79 101
64 79 102
66 81 104
64 79 102
66 81 104
64 80 103
67 83 106
66 81 104
72 87 110
67 82 103
66 82 105
70 86 110
64 79 101
65 81 104
69 85 108
64 79 103
63 78 101
68 83 106
68 84 107
70 85 108
69 84 107
64 79 101
61 76 98
67 82 105
67 83 107
64 80 104
66 81 102
65 80 103
64 78 100
65 81 104
63 78 99
68 82 105
60 74 96
62 77 100
65 80 103
63 77 100
68 83 106
65 80 104
67 83 107
67 83 106
67 83 106
64 79 103
65 79 101
65 79 100
66 81 104
62 77 98
71 88 113
66 82 106
70 86 110
64 79 101
64 80 103
67 81 104
66 81 103
70 85 107
71 86 110
69 84 107
62 77 100
68 83 105
67 82 104
68 84 106
66 81 103
66 82 105
65 81 106
61 77 100
65 80 102
68 83 107
68 84 107
64 80 103
69 84 106
60 74 96
68 83 106
65 80 103
65 80 102
67 81 103
65 80 103
63 78 101
65 81 104
69 83 106
69 86 111
64 80 103
61 77 100
65 80 102
65 80 103
68 84 108
68 83 106
66 81 103
65 81 104
68 83 107
66 82 105
65 81 105
128 151 185
185 213 255
185 213 255
185 213 255
185 213 255
185 213 255
185 213 255
185 213 255
185 213 255
185 213 255
185 213 255
185 213 255
185 213 255
185 213 255
185 213 255
185 213 255
185 213 255
185 213 255
185 213 255
185 213 255
185 213 255
185 213 255
185 213 255
185 213 255
185 213 255
185 213 255
185 213 255
185 213 255
185 213 255
185 213 255
185 213 255
185 213 255
185 213 255
185 213 255
186 213 255
186 214 255
186 214 255
186 214 255
186 214 255
186 214 255
186 214 255
186 214 255
186 214 255
186 214 255
186 214 255
186 214 255
186 214 255
186 214 255
186 214 255
186 214 255
186 214 255
186 214 255
186 214 255
186 214 255
186 214 255
186 214 255
186 214 255
186 214 255
186 214 255
186 214 255
186 214 255
186 214 255
186 214 255
186 214 255
186 214 255
186 214 255
186 214 255
186 214 255
186 214 255
186 214 255
186 214 255
186 214 255
186 214 255
186 214 255
186 214 255
186 214 255
187 214 255
187 214 255
187 214 255
187 214 255
187 214 255
187 214 255
187 214 255
187 214 255
187 214 255
187 214 255
187 214 255
187 214 255
187 214 255
187 214 255
187 214 255
187 214 255
187 214 255
187 214 255
187 214 255
187 214 255
187 214 255
187 214 255
187 214 255
187 214 255
187 214 255
187 214 255
187 214 255
187 214 255
187 214 255
187 214 255
187 214 255
187 214 255
187 214 255
187 214 255
187 215 255
187 215 255
187 215 255
187 215 255
187 215 255
187 215 255
187 215 255
187 215 255
187 215 255
187 215 255
187 215 255
187 215 255
187 215 255
187 215 255
187 215 255
187 215 255
187 215 255
187 215 255
187 215 255
187 215 255
188 215 255
188 215 255
188 215 255
188 215 255
188 215 255
188 215 255
188 215 255
188 215 255
188 215 255
188 215 255
188 215 255
188 215 255
188 215 255
188 215 255
188 215 255
188 215 255
188 215 255
188 215 255
188 215 255
188 215 255
188 215 255
188 215 255
188 215 255
188 215 255
188 215 255
188 215 255
188 215 255
188 215 255
188 215 255
188 215 255
188 215 255
188 215 255
187 215 255
187 215 255
187 215 255
187 215 255
187 215 255
187 215 255
187 215 255
187 215 255
187 215 255
187 215 255
187 215 255
187 215 255
187 215 255
187 215 255
187 215 255
187 215 255
187 215 255
187 215 255
187 215 255
187 215 255
187 214 255
187 214 255
187 214 255
187 214 255
187 214 255
187 214 255
187 214 255
187 214 255
187 214 255
187 214 255
187 214 255
187 214 255
187 214 255
187 214 255
187 214 255
187 214 255
187 214 255
187 214 255
187 214 255
187 214 255
187 214 255
187 214 255
187 214 255
187 214 255
187 214 255
187 214 255
187 214 255
187 214 255
187 214 255
187 214 255
187 214 255
187 214 255
187 214 255
187 214 255
186 214 255
186 214 255
186 214 255
186 214 255
186 214 255
186 214 255
186 214 255
186 214 255
186 214 255
186 214 255
186 214 255
186 214 255
186 214 255
186 214 255
186 214 255
186 214 255
186 214 255
186 214 255
186 214 255
186 214 255
186 214 255
186 214 255
186 214 255
186 214 255
186 214 255
186 214 255
186 214 255
186 214 255
186 214 255
186 214 255
186 214 255
186 214 255
186 214 255
186 214 255
186 214 255
186 214 255
186 214 255
186 214 255
186 214 255
186 214 255
186 214 255
185 213 255
185 213 255
185 213 255
185 213 255
185 213 255
185 213 255
185 213 255
185 213 255
185 213 255
185 213 255
185 213 255
185 213 255
185 213 255
185 213 255
185 213 255
185 213 255
112 132 163
65 81 104
62 76 98
63 78 100
67 82 105
68 82 105
69 84 106
70 85 109
68 84 107
66 81 103
63 78 100
66 82 105
67 82 105
69 84 107
62 77 99
63 78 101
62 77 100
70 86 110
68 83 106
62 76 98
67 83 107
67 83 106
62 77 98
64 79 102
68 84 107
69 85 108
69 85 108
65 80 103
64 79 101
67 82 105
66 82 105
63 78 101
63 78 100
63 77 99
69 85 109
62 77 100
69 84 107
74 89 113
63 78 100
66 81 103
63 77 99
68 84 107
62 77 98
66 81 103
66 81 105
63 78 100
68 83 106
67 83 106
67 82 105
66 81 104
67 82 104
66 81 104
68 83 106
66 81 104
63 78 99
61 76 98
60 75 96
64 78 100
64 79 102
63 78 100
59 73 95
69 84 107
66 81 104
65 79 100
63 78 101
66 80 101
66 81 103
67 82 105
64 78 101
66 81 103
62 76 97
67 81 104
68 83 106
61 76 99
65 80 103
60 74 96
67 82 105
66 81 104
67 82 104
68 83 106
67 83 108
63 78 102
64 80 103
61 75 97
67 83 106
64 79 101
70 86 110
68 83 106
63 78 101
62 78 102
64 79 102
66 81 103
67 81 104
69 85 108
63 78 101
61 75 97
64 79 101
65 80 103
65 80 102
68 83 106
68 83 106
66 80 102
65 80 103
64 78 100
66 82 105
70 85 107
64 79 102
62 77 99
64 79 101
60 75 97
69 85 108
69 84 106
67 83 107
68 83 106
67 83 106
67 83 106
66 81 102
65 81 104
65 80 103
68 84 106
66 82 106
69 84 107
68 84 107
61 76 98
59 74 96
61 76 98
66 81 104
119 140 172
185 213 255
185 213 255
185 213 255
185 213 255
185 213 255
185 213 255
185 213 255
185 213 255
185 213 255
185 213 255
185 213 255
185 213 255
185 213 255
185 213 255
185 213 255
185 213 255
186 214 255
186 214 255
186 214 255
186 214 255
186 214 255
186 214 255
186 214 255
186 214 255
186 214 255
186 214 255
186 214 255
186 214 255
186 214 255
186 214 255
186 214 255
186 214 255
186 214 255
186 214 255
186 214 255
186 214 255
186 214 255
186 214 255
186 214 255
186 214 255
186 214 255
186 214 255
186 214 255
186 214 255
186 214 255
186 214 255
186 214 255
186 214 255
186 214 255
186 214 255
186 214 255
186 214 255
186 214 255
186 214 255
186 214 255
186 214 255
186 214 255
187 214 255
187 214 255
187 214 255
187 214 255
187 214 255
187 214 255
187 214 255
187 214 255
187 214 255
187 214 255
187 214 255
187 214 255
187 214 255
187 214 255
187 214 255
187 214 255
187 214 255
187 214 255
187 214 255
187 214 255
187 214 255
187 214 255
187 214 255
187 214 255
187 214 255
187 214 255
187 214 255
187 214 255
187 214 255
187 214 255
187 214 255
187 214 255
187 214 255
187 214 255
187 215 255
187 215 255
187 215 255
187 215 255
187 215 255
187 215 255
187 215 255
187 215 255
187 215 255
187 215 255
187 215 255
187 215 255
187 215 255
187 215 255
187 215 255
187 215 255
187 215 255
187 215 255
187 215 255
188 215 255
188 215 255
188 215 255
188 215 255
188 215 255
188 215 255
188 215 255
188 215 255
188 215 255
188 215 255
188 215 255
188 215 255
188 215 255
188 215 255
188 215 255
188 215 255
188 215 255
188 215 255
188 215 255
188 215 255
188 215 255
188 215 255
188 215 255
188 215 255
188 215 255
188 215 255
188 215 255
188 215 255
188 215 255
188 215 255
188 215 255
188 215 255
188 215 255
188 215 255
188 215 255
188 215 255
188 215 255
188 215 255
188 215 255
188 215 255
188 215 255
188 215 255
188 215 255
188 215 255
188 215 255
188 215 255
188 215 255
188 215 255
188 215 255
188 215 255
188 215 255
188 215 255
188 215 255
188 215 255
188 215 255
188 215 255
188 215 255
188 215 255
188 215 255
188 215 255
188 215 255
188 215 255
188 215 255
188 215 255
188 215 255
188 215 255
188 215 255
188 215 255
188 215 255
188 215 255
188 215 255
187 215 255
187 215 255
187 215 255
187 215 255
187 215 255
187 215 255
187 215 255
187 215 255
187 215 255
187 215 255
187 215 255
187 215 255
187 215 255
187 215 255
187 215 255
187 215 255
187 215 255
187 215 255
187 215 255
187 214 255
187 214 255
187 214 255
187 214 255
187 214 255
187 214 255
187 214 255
187 214 255
187 214 255
187 214 255
187 214 255
187 214 255
187 214 255
187 214 255
187 214 255
187 214 255
187 214 255
187 214 255
187 214 255
187 214 255
187 214 255
187 214 255
187 214 255
187 214 255
187 214 255
187 214 255
187 214 255
187 214 255
187 214 255
187 214 255
187 214 255
187 214 255
186 214 255
186 214 255
186 214 255
186 214 255
186 214 255
186 214 255
186 214 255
186 214 255
186 214 255
186 214 255
186 214 255
186 214 255
186 214 255
186 214 255
186 214 255
186 214 255
186 214 255
186 214 255
186 214 255
186 214 255
186 214 255
186 214 255
186 214 255
186 214 255
186 214 255
186 214 255
186 214 255
186 214 255
186 214 255
186 214 255
186 214 255
186 214 255
186 214 255
186 214 255
186 214 255
186 214 255
186 214 255
186 214 255
186 214 255
186 214 255
93 112 139
64 79 102
65 80 102
68 82 105
66 81 103
69 85 108
69 85 108
67 83 107
67 82 105
68 83 107
69 85 109
65 80 104
64 79 101
65 80 102
61 75 96
62 77 99
63 77 97
64 79 102
64 79 100
70 85 107
68 84 108
60 75 97
64 79 102
66 80 102
65 80 102
66 81 104
70 86 110
64 80 103
59 73 95
64 79 101
67 82 104
65 80 103
71 86 108
67 82 105
68 82 105
61 76 98
63 78 99
68 83 105
60 75 96
63 77 99
70 85 108
63 78 100
64 79 101
64 79 101
65 81 103
63 79 103
68 83 106
65 80 103
64 79 102
67 82 105
65 80 102
68 83 105
63 78 100
70 85 109
64 80 103
61 75 96
61 75 97
66 81 103
70 85 108
65 80 103
66 82 105
61 75 96
66 82 105
64 79 102
63 78 101
68 84 108
65 80 104
67 82 104
69 84 107
62 76 97
64 80 103
65 79 101
65 80 102
65 79 101
66 80 103
67 82 105
63 77 99
62 77 100
64 79 102
67 82 105
63 76 97
65 80 102
66 82 106
67 82 106
67 82 106
64 79 102
64 78 100
69 84 107
63 78 100
62 77 99
68 83 106
63 78 101
65 80 103
65 80 102
61 76 98
64 79 102
67 82 106
62 77 100
61 76 98
66 82 105
65 80 103
66 81 103
63 78 100
67 82 106
67 83 106
62 77 100
67 82 105
67 82 104
62 77 99
68 83 106
66 82 106
65 79 101
61 76 98
65 80 103
66 81 104
67 82 104
63 78 100
65 80 103
66 81 104
63 77 99
63 79 103
66 82 104
69 84 107
65 80 103
66 82 104
67 83 106
68 84 107
83 101 127
186 214 255
186 214 255
186 214 255
186 214 255
186 214 255
186 214 255
186 214 255
186 214 255
186 214 255
186 214 255
186 214 255
186 214 255
186 214 255
186 214 255
186 214 255
186 214 255
186 214 255
186 214 255
186 214 255
186 214 255
186 214 255
186 214 255
186 214 255
186 214 255
186 214 255
186 214 255
186 214 255
186 214 255
186 214 255
186 214 255
186 214 255
186 214 255
186 214 255
186 214 255
186 214 255
186 214 255
186 214 255
186 214 255
186 214 255
186 214 255
186 214 255
187 214 255
187 214 255
187 214 255
187 214 255
187 214 255
187 214 255
187 214 255
187 214 255
187 214 255
187 214 255
187 214 255
187 214 255
187 214 255
187 214 255
187 214 255
187 214 255
187 214 255
187 214 255
187 214 255
187 214 255
187 214 255
187 214 255
187 214 255
187 214 255
187 214 255
187 214 255
187 214 255
187 214 255
187 214 255
187 214 255
187 214 255
187 215 255
187 215 255
187 215 255
187 215 255
187 215 255
187 215 255
187 215 255
187 215 255
187 215 255
187 215 255
187 215 255
187 215 255
187 215 255
187 215 255
187 215 255
187 215 255
187 215 255
187 215 255
187 215 255
187 215 255
188 215 255
188 215 255
188 215 255
188 215 255
188 215 255
188 215 255
188 215 255
188 215 255
188 215 255
188 215 255
188 215 255
188 215 255
188 215 255
188 215 255
188 215 255
188 215 255
188 215 255
188 215 255
188 215 255
188 215 255
188 215 255
188 215 255
188 215 255
188 215 255
188 215 255
188 215 255
188 215 255
188 215 255
188 215 255
188 215 255
188 215 255
188 215 255
188 215 255
188 215 255
188 215 255
188 215 255
188 215 255
188 215 255
188 215 255
188 215 255
188 215 255
188 215 255
188 215 255
188 215 255
188 215 255
188 215 255
188 215 255
188 215 255
188 215 255
188 215 255
188 215 255
188 215 255
188 215 255
188 215 255
188 215 255
188 215 255
188 215 255
188 215 255
188 215 255
188 215 255
188 215 255
188 215 255
188 215 255
188 215 255
188 215 255
188 215 255
188 215 255
188 215 255
188 215 255
188 215 255
188 215 255
188 215 255
188 215 255
188 215 255
188 215 255
188 215 255
188 215 255
188 215 255
188 215 255
188 215 255
188 215 255
188 215 255
188 215 255
188 215 255
188 215 255
188 215 255
188 215 255
188 215 255
188 215 255
188 215 255
188 215 255
188 215 255
188 215 255
188 215 255
188 215 255
188 215 255
188 215 255
188 215 255
188 215 255
188 215 255
188 215 255
188 215 255
188 215 255
188 215 255
188 215 255
188 215 255
188 215 255
188 215 255
188 215 255
187 215 255
187 215 255
187 215 255
187 215 255
187 215 255
187 215 255
187 215 255
187 215 255
187 215 255
187 215 255
187 215 255
187 215 255
187 215 255
187 215 255
187 215 255
187 215 255
187 215 255
187 215 255
187 214 255
187 214 255
187 214 255
187 214 255
187 214 255
187 214 255
187 214 255
187 214 255
187 214 255
187 214 255
187 214 255
187 214 255
187 214 255
187 214 255
187 214 255
187 214 255
187 214 255
187 214 255
187 214 255
187 214 255
187 214 255
187 214 255
187 214 255
187 214 255
187 214 255
187 214 255
187 214 255
187 214 255
187 214 255
187 214 255
187 214 255
187 214 255
187 214 255
186 214 255
186 214 255
186 214 255
186 214 255
186 214 255
186 214 255
186 214 255
186 214 255
186 214 255
186 214 255
186 214 255
186 214 255
186 214 255
186 214 255
186 214 255
186 214 255
186 214 255
186 214 255
186 214 255
181 208 248
68 84 109
65 80 102
67 83 107
70 85 109
66 81 104
66 81 104
73 89 113
63 77 99
69 84 106
67 82 105
65 79 100
64 80 103
64 79 102
64 79 102
70 85 108
64 79 102
59 73 94
65 80 103
67 82 105
62 77 99
66 81 105
66 81 104
63 78 101
63 77 99
70 85 109
68 83 106
61 76 97
62 76 98
64 79 101
66 82 106
67 82 106
69 85 109
63 78 100
70 85 108
60 75 96
62 77 99
62 77 100
62 77 99
60 75 97
65 80 103
68 84 107
65 80 102
63 79 102
67 82 106
67 81 103
63 78 100
62 76 97
67 81 103
68 84 107
69 85 107
58 73 94
64 78 100
66 80 101
68 83 105
64 80 104
65 80 103
67 83 107
66 81 104
63 78 101
65 80 102
69 84 107
64 80 103
65 80 102
65 80 102
63 78 100
70 85 107
63 78 101
66 81 104
63 78 101
63 78 101
64 79 103
67 83 106
64 79 101
67 82 104
64 78 100
64 79 101
64 79 101
64 79 102
63 78 100
63 78 100
69 85 108
65 80 103
67 81 103
65 79 101
63 78 101
64 79 101
68 83 106
61 75 97
63 78 100
63 78 99
62 78 100
64 80 104
66 81 104
62 78 101
67 83 107
65 80 101
63 79 102
64 79 102
68 83 106
61 76 99
66 81 103
65 81 104
68 83 106
64 79 101
63 78 101
67 82 104
66 81 104
63 78 100
66 81 104
65 80 102
67 82 105
65 81 104
64 79 101
67 83 106
65 80 103
66 81 103
64 80 103
66 81 103
66 81 104
62 75 95
65 80 104
64 79 100
65 80 102
66 82 105
70 86 110
66 82 105
68 83 105
63 78 101
185 213 254
186 214 255
186 214 255
186 214 255
186 214 255
186 214 255
186 214 255
186 214 255
186 214 255
186 214 255
186 214 255
186 214 255
186 214 255
186 214 255
186 214 255
186 214 255
186 214 255
186 214 255
186 214 255
186 214 255
187 214 255
187 214 255
187 214 255
187 214 255
187 214 255
187 214 255
187 214 255
187 214 255
187 214 255
187 214 255
187 214 255
187 214 255
187 214 255
187 214 255
187 214 255
187 214 255
187 214 255
187 214 255
187 214 255
187 214 255
187 214 255
187 214 255
187 214 255
187 214 255
187 214 255
187 214 255
187 214 255
187 214 255
187 214 255
187 214 255
187 214 255
187 214 255
187 214 255
187 214 255
187 215 255
187 215 255
187 215 255
187 215 255
187 215 255
187 215 255
187 215 255
187 215 255
187 215 255
187 215 255
187 215 255
187 215 255
187 215 255
187 215 255
187 215 255
187 215 255
187 215 255
188 215 255
188 215 255
188 215 255
188 215 255
188 215 255
188 215 255
188 215 255
188 215 255
188 215 255
188 215 255
188 215 255
188 215 255
188 215 255
188 215 255
188 215 255
188 215 255
188 215 255
188 215 255
188 215 255
188 215 255
188 215 255
188 215 255
188 215 255
188 215 255
188 215 255
188 215 255
188 215 255
188 215 255
188 215 255
188 215 255
188 215 255
188 215 255
188 215 255
188 215 255
188 215 255
188 215 255
188 215 255
188 215 255
188 215 255
188 215 255
188 215 255
188 215 255
188 215 255
188 215 255
188 215 255
188 215 255
188 215 255
188 215 255
188 215 255
188 215 255
188 215 255
188 215 255
188 215 255
188 215 255
188 215 255
188 215 255
188 215 255
188 215 255
188 215 255
188 215 255
188 215 255
188 215 255
188 215 255
188 215 255
188 215 255
189 215 255
189 215 255
189 215 255
189 215 255
189 215 255
189 215 255
189 215 255
189 215 255
189 215 255
189 215 255
189 215 255
189 215 255
189 215 255
189 215 255
189 215 255
189 215 255
189 215 255
189 215 255
189 215 255
188 215 255
188 215 255
188 215 255
188 215 255
188 215 255
188 215 255
188 215 255
188 215 255
188 215 255
188 215 255
188 215 255
188 215 255
188 215 255
188 215 255
188 215 255
188 215 255
188 215 255
188 215 255
188 215 255
188 215 255
188 215 255
188 215 255
188 215 255
188 215 255
188 215 255
188 215 255
188 215 255
188 215 255
188 215 255
188 215 255
188 215 255
188 215 255
188 215 255
188 215 255
188 215 255
188 215 255
188 215 255
188 215 255
188 215 255
188 215 255
188 215 255
188 215 255
188 215 255
188 215 255
188 215 255
188 215 255
188 215 255
188 215 255
188 215 255
188 215 255
188 215 255
188 215 255
188 215 255
188 215 255
188 215 255
188 215 255
188 215 255
188 215 255
188 215 255
188 215 255
188 215 255
188 215 255
188 215 255
188 215 255
188 215 255
188 215 255
188 215 255
188 215 255
187 215 255
187 215 255
187 215 255
187 215 255
187 215 255
187 215 255
187 215 255
187 215 255
187 215 255
187 215 255
187 215 255
187 215 255
187 215 255
187 215 255
187 215 255
187 215 255
187 215 255
187 215 255
187 214 255
187 214 255
187 214 255
187 214 255
187 214 255
187 214 255
187 214 255
187 214 255
187 214 255
187 214 255
187 214 255
187 214 255
187 214 255
187 214 255
187 214 255
187 214 255
187 214 255
187 214 255
187 214 255
187 214 255
187 214 255
187 214 255
187 214 255
187 214 255
187 214 255
187 214 255
187 214 255
187 214 255
187 214 255
187 214 255
155 180 216
69 86 110
66 82 105
66 80 102
65 81 104
65 79 100
65 80 103
63 77 99
67 82 105
62 78 101
67 81 104
62 77 99
65 82 106
67 82 105
66 80 103
65 80 101
67 83 106
67 82 105
64 79 102
68 83 106
67 82 105
68 83 106
64 79 103
70 85 108
63 77 99
67 82 105
65 81 104
65 80 102
61 76 98
67 82 105
63 78 101
61 76 98
65 79 101
65 80 102
62 77 99
63 78 100
64 78 99
71 86 109
66 81 103
64 79 101
60 75 96
65 81 104
64 80 102
70 86 110
64 79 101
65 80 102
60 74 97
66 80 102
63 79 102
64 79 100
64 79 102
66 81 103
66 81 103
61 76 98
63 78 99
66 81 104
66 82 105
61 75 96
66 81 103
64 78 100
65 80 103
63 78 101
62 77 99
66 80 102
64 78 101
62 77 99
68 83 107
67 82 105
64 79 101
62 77 100
64 79 102
63 77 99
64 79 102
65 81 104
66 81 104
68 83 106
67 83 106
64 79 100
63 77 99
62 77 99
65 79 101
70 85 106
61 75 96
63 78 101
63 79 101
66 81 103
62 76 99
63 78 101
65 80 102
68 84 108
66 81 104
65 81 105
69 84 106
64 79 102
62 77 99
67 82 105
64 79 100
64 78 100
69 85 109
65 80 104
60 74 95
65 79 100
69 83 105
68 83 106
63 79 103
64 79 102
66 82 106
70 86 110
69 84 108
66 81 104
65 80 102
63 77 98
69 85 108
61 76 98
65 79 101
64 79 102
68 83 106
65 81 104
62 77 99
66 82 105
64 79 103
63 78 99
62 77 100
64 79 101
62 77 99
63 77 98
63 77 98
68 84 108
63 78 100
167 192 231
187 214 255
187 214 255
187 214 255
187 214 255
187 214 255
187 214 255
187 214 255
187 214 255
187 214 255
187 214 255
187 214 255
187 214 255
187 214 255
187 214 255
187 214 255
187 214 255
187 214 255
187 214 255
187 214 255
187 214 255
187 214 255
187 214 255
187 214 255
187 214 255
187 214 255
187 214 255
187 214 255
187 214 255
187 214 255
187 214 255
187 215 255
187 215 255
187 215 255
187 215 255
187 215 255
187 215 255
187 215 255
187 215 255
187 215 255
187 215 255
187 215 255
187 215 255
187 215 255
187 215 255
187 215 255
187 215 255
187 215 255
187 215 255
188 215 255
188 215 255
188 215 255
188 215 255
188 215 255
188 215 255
188 215 255
188 215 255
188 215 255
188 215 255
188 215 255
188 215 255
188 215 255
188 215 255
188 215 255
188 215 255
188 215 255
188 215 255
188 215 255
188 215 255
188 215 255
188 215 255
188 215 255
188 215 255
188 215 255
188 215 255
188 215 255
188 215 255
188 215 255
188 215 255
188 215 255
188 215 255
188 215 255
188 215 255
188 215 255
188 215 255
188 215 255
188 215 255
188 215 255
188 215 255
188 215 255
188 215 255
188 215 255
188 215 255
188 215 255
188 215 255
188 215 255
188 215 255
188 215 255
188 215 255
188 215 255
188 215 255
188 215 255
188 215 255
188 215 255
188 215 255
188 215 255
188 215 255
188 215 255
188 215 255
188 215 255
188 215 255
188 215 255
188 215 255
188 215 255
188 215 255
188 215 255
188 215 255
189 215 255
189 215 255
189 215 255
189 215 255
189 215 255
189 215 255
189 215 255
189 215 255
189 215 255
189 215 255
189 215 255
189 215 255
189 215 255
189 215 255
189 215 255
189 215 255
189 215 255
189 215 255
189 215 255
189 216 255
189 216 255
189 216 255
189 216 255
189 216 255
189 216 255
189 216 255
189 216 255
189 216 255
189 216 255
189 216 255
189 216 255
189 216 255
189 216 255
189 216 255
189 216 255
189 215 255
189 215 255
189 215 255
189 215 255
189 215 255
189 215 255
189 215 255
189 215 255
189 215 255
189 215 255
189 215 255
189 215 255
189 215 255
189 215 255
189 215 255
189 215 255
189 215 255
189 215 255
189 215 255
189 215 255
189 215 255
189 215 255
189 215 255
189 215 255
189 215 255
189 215 255
189 215 255
189 215 255
188 215 255
188 215 255
188 215 255
188 215 255
188 215 255
188 215 255
188 215 255
188 215 255
188 215 255
188 215 255
188 215 255
188 215 255
188 215 255
188 215 255
188 215 255
188 215 255
188 215 255
188 215 255
188 215 255
188 215 255
188 215 255
188 215 255
188 215 255
188 215 255
188 215 255
188 215 255
188 215 255
188 215 255
188 215 255
188 215 255
188 215 255
188 215 255
188 215 255
188 215 255
188 215 255
188 215 255
188 215 255
188 215 255
188 215 255
188 215 255
188 215 255
188 215 255
188 215 255
188 215 255
188 215 255
188 215 255
188 215 255
188 215 255
188 215 255
188 215 255
188 215 255
188 215 255
188 215 255
188 215 255
188 215 255
188 215 255
188 215 255
188 215 255
188 215 255
188 215 255
188 215 255
188 215 255
188 215 255
188 215 255
188 215 255
188 215 255
187 215 255
187 215 255
187 215 255
187 215 255
187 215 255
187 215 255
187 215 255
187 215 255
187 215 255
187 215 255
187 215 255
187 215 255
187 215 255
187 215 255
187 215 255
187 215 255
187 215 255
187 215 255
187 215 255
187 215 255
187 214 255
187 214 255
187 214 255
187 214 255
187 214 255
150 174 208
64 79 101
67 82 104
64 78 99
67 82 104
58 72 94
67 82 104
64 79 101
64 78 100
65 79 101
67 82 105
62 77 99
67 81 102
64 79 102
61 76 98
63 78 100
63 78 100
64 79 101
62 77 99
66 82 105
69 84 106
64 79 102
61 77 100
65 80 103
64 80 103
65 79 101
65 80 101
67 82 104
61 76 98
65 80 103
63 78 100
68 83 106
64 78 99
59 74 96
62 77 100
62 77 99
62 77 99
60 74 95
62 77 99
63 78 100
70 85 108
61 76 98
63 78 100
68 83 106
65 81 104
66 81 104
61 75 96
62 76 98
66 82 106
61 76 98
63 79 101
63 79 101
66 80 101
64 79 102
62 76 98
62 76 97
65 80 102
64 79 103
61 76 98
65 80 104
66 81 104
62 77 99
66 82 105
61 76 99
70 86 108
62 77 99
64 79 101
62 77 99
61 76 98
60 73 94
66 81 104
63 78 100
65 80 103
67 82 105
64 79 100
65 80 102
63 77 98
63 78 100
63 77 99
64 79 100
65 80 101
67 82 104
65 80 103
66 81 104
63 78 100
67 82 106
65 80 102
66 82 105
71 86 110
67 83 106
62 76 98
70 85 107
62 77 99
66 81 103
67 82 105
64 79 102
66 81 103
67 82 104
61 76 98
65 80 103
62 76 98
66 81 103
62 77 99
68 83 107
59 73 95
65 80 103
65 80 103
68 82 105
64 79 101
63 78 100
64 80 103
64 78 100
62 76 98
64 79 101
66 81 103
60 73 94
63 78 100
61 75 97
65 79 101
64 79 102
66 81 103
62 77 99
64 78 100
67 82 105
65 79 101
62 77 99
60 74 95
70 85 108
63 78 100
138 160 193
187 214 255
187 214 255
187 214 255
187 214 255
187 215 255
187 215 255
187 215 255
187 215 255
187 215 255
187 215 255
187 215 255
187 215 255
187 215 255
187 215 255
187 215 255
187 215 255
187 215 255
187 215 255
187 215 255
187 215 255
187 215 255
187 215 255
187 215 255
187 215 255
188 215 255
187 215 255
188 215 255
188 215 255
188 215 255
188 215 255
188 215 255
188 215 255
188 215 255
188 215 255
188 215 255
188 215 255
188 215 255
188 215 255
188 215 255
188 215 255
188 215 255
188 215 255
188 215 255
188 215 255
188 215 255
188 215 255
188 215 255
188 215 255
188 215 255
188 215 255
188 215 255
188 215 255
188 215 255
188 215 255
188 215 255
188 215 255
188 215 255
188 215 255
188 215 255
188 215 255
188 215 255
188 215 255
188 215 255
188 215 255
188 215 255
188 215 255
188 215 255
188 215 255
188 215 255
188 215 255
188 215 255
188 215 255
188 215 255
188 215 255
188 215 255
188 215 255
188 215 255
188 215 255
188 215 255
188 215 255
188 215 255
188 215 255
188 215 255
188 215 255
188 215 255
188 215 255
188 215 255
188 215 255
188 215 255
188 215 255
189 215 255
189 215 255
189 215 255
189 215 255
189 215 255
189 215 255
189 215 255
189 215 255
189 215 255
189 215 255
189 215 255
189 215 255
189 215 255
189 215 255
189 215 255
189 215 255
189 215 255
189 215 255
189 215 255
189 215 255
189 215 255
189 215 255
189 215 255
189 215 255
189 215 255
189 215 255
189 215 255
189 215 255
189 215 255
189 215 255
189 216 255
189 216 255
189 216 255
189 216 255
189 216 255
189 216 255
189 216 255
189 216 255
189 216 255
189 216 255
189 216 255
189 216 255
189 216 255
189 216 255
189 216 255
189 216 255
189 216 255
189 216 255
189 216 255
189 216 255
189 216 255
189 216 255
189 216 255
189 216 255
189 216 255
189 216 255
189 216 255
189 216 255
189 216 255
189 216 255
189 216 255
189 216 255
189 216 255
189 216 255
189 216 255
189 216 255
189 216 255
189 216 255
189 216 255
189 216 255
189 216 255
189 216 255
189 216 255
189 216 255
189 216 255
189 216 255
189 216 255
189 216 255
189 216 255
189 216 255
189 216 255
189 216 255
189 216 255
189 216 255
189 216 255
189 216 255
189 216 255
189 216 255
189 216 255
189 216 255
189 216 255
189 215 255
189 215 255
189 215 255
189 215 255
189 215 255
189 215 255
189 215 255
189 215 255
189 215 255
189 215 255
189 215 255
189 215 255
189 215 255
189 215 255
189 215 255
189 215 255
189 215 255
189 215 255
189 215 255
189 215 255
189 215 255
189 215 255
189 215 255
189 215 255
189 215 255
189 215 255
188 215 255
188 215 255
188 215 255
188 215 255
188 215 255
188 215 255
188 215 255
188 215 255
188 215 255
188 215 255
188 215 255
188 215 255
188 215 255
188 215 255
188 215 255
188 215 255
188 215 255
188 215 255
188 215 255
188 215 255
188 215 255
188 215 255
188 215 255
188 215 255
188 215 255
188 215 255
188 215 255
188 215 255
188 215 255
188 215 255
188 215 255
188 215 255
188 215 255
188 215 255
188 215 255
188 215 255
188 215 255
188 215 255
188 215 255
188 215 255
188 215 255
188 215 255
188 215 255
188 215 255
188 215 255
188 215 255
188 215 255
188 215 255
188 215 255
188 215 255
188 215 255
188 215 255
188 215 255
188 215 255
188 215 255
188 215 255
188 215 255
188 215 255
188 215 255
188 215 255
188 215 255
188 215 255
188 215 255
133 155 187
67 81 103
66 80 103
65 81 105
62 77 99
63 78 100
68 84 107
64 78 100
66 81 103
67 81 103
67 82 104
67 83 105
66 82 105
65 81 103
66 81 104
57 71 92
65 80 101
63 78 100
59 74 97
62 77 100
65 80 103
65 80 102
64 78 99
64 79 101
64 79 102
62 76 97
64 79 102
63 77 99
68 82 104
69 84 107
59 73 95
66 81 104
70 85 109
59 73 94
62 77 99
67 82 105
66 80 102
69 85 108
64 78 101
65 81 104
64 80 103
63 78 100
64 78 100
60 74 96
65 81 105
65 80 103
62 76 97
63 79 101
61 76 97
60 75 97
67 82 105
63 77 98
62 76 98
62 76 98
66 81 104
69 85 108
64 79 102
67 82 103
67 82 105
65 80 103
65 80 103
63 77 98
62 77 99
61 76 99
60 74 95
61 76 98
65 80 103
62 76 98
62 76 97
64 78 99
71 87 110
61 76 99
69 83 105
64 78 99
59 74 95
66 81 103
64 79 100
67 82 104
67 82 106
62 76 98
64 79 102
63 77 98
65 80 103
60 75 96
71 87 111
64 78 100
63 78 101
70 85 108
59 73 94
70 85 108
63 78 101
67 82 104
63 77 98
62 76 98
65 79 102
61 75 96
62 77 99
64 78 100
63 77 99
64 79 101
61 76 98
65 80 102
66 81 103
64 79 101
63 77 100
67 82 106
68 83 107
64 79 101
69 85 107
65 80 102
66 81 103
62 78 102
68 84 107
66 81 104
66 81 104
66 81 103
67 82 105
66 80 102
65 80 103
68 83 105
70 86 110
63 77 99
68 84 107
61 75 97
63 77 98
65 80 102
66 80 101
67 82 105
64 80 103
135 157 190
188 215 255
188 215 255
188 215 255
188 215 255
188 215 255
188 215 255
188 215 255
188 215 255
188 215 255
188 215 255
188 215 255
188 215 255
188 215 255
188 215 255
188 215 255
188 215 255
188 215 255
188 215 255
188 215 255
188 215 255
188 215 255
188 215 255
188 215 255
188 215 255
188 215 255
188 215 255
188 215 255
188 215 255
188 215 255
188 215 255
188 215 255
188 215 255
188 215 255
188 215 255
188 215 255
188 215 255
188 215 255
188 215 255
188 215 255
188 215 255
188 215 255
188 215 255
188 215 255
188 215 255
188 215 255
188 215 255
188 215 255
188 215 255
188 215 255
188 215 255
188 215 255
188 215 255
188 215 255
188 215 255
188 215 255
188 215 255
188 215 255
188 215 255
188 215 255
188 215 255
188 215 255
188 215 255
188 215 255
188 215 255
189 215 255
189 215 255
189 215 255
189 215 255
189 215 255
189 215 255
189 215 255
189 215 255
189 215 255
189 215 255
189 215 255
189 215 255
189 215 255
189 215 255
189 215 255
189 215 255
189 215 255
189 215 255
189 215 255
189 215 255
189 215 255
189 215 255
189 215 255
189 215 255
189 215 255
189 215 255
189 215 255
189 216 255
189 216 255
189 216 255
189 216 255
189 216 255
189 216 255
189 216 255
189 216 255
189 216 255
189 216 255
189 216 255
189 216 255
189 216 255
189 216 255
189 216 255
189 216 255
189 216 255
189 216 255
189 216 255
189 216 255
189 216 255
189 216 255
189 216 255
189 216 255
189 216 255
189 216 255
189 216 255
189 216 255
189 216 255
189 216 255
189 216 255
189 216 255
189 216 255
189 216 255
189 216 255
189 216 255
189 216 255
189 216 255
189 216 255
189 216 255
189 216 255
189 216 255
189 216 255
189 216 255
190 216 255
190 216 255
190 216 255
190 216 255
190 216 255
190 216 255
189 216 255
189 216 255
189 216 255
189 216 255
189 216 255
189 216 255
189 216 255
189 216 255
189 216 255
189 216 255
189 216 255
189 216 255
189 216 255
189 216 255
189 216 255
189 216 255
189 216 255
189 216 255
189 216 255
189 216 255
189 216 255
189 216 255
189 216 255
189 216 255
189 216 255
189 216 255
189 216 255
189 216 255
189 216 255
189 216 255
189 216 255
189 216 255
189 216 255
189 216 255
189 216 255
189 216 255
189 216 255
189 216 255
189 216 255
189 216 255
189 216 255
189 216 255
189 216 255
189 216 255
189 216 255
189 216 255
189 216 255
189 216 255
189 216 255
189 216 255
189 216 255
189 216 255
189 216 255
189 216 255
189 216 255
189 216 255
189 216 255
189 216 255
189 216 255
189 216 255
189 216 255
189 216 255
189 216 255
189 216 255
189 216 255
189 216 255
189 216 255
189 216 255
189 216 255
189 216 255
189 215 255
189 215 255
189 215 255
189 215 255
189 215 255
189 215 255
189 215 255
189 215 255
189 215 255
189 215 255
189 215 255
189 215 255
189 215 255
189 215 255
189 215 255
189 215 255
189 215 255
189 215 255
189 215 255
189 215 255
189 215 255
189 215 255
189 215 255
189 215 255
189 215 255
189 215 255
188 215 255
188 215 255
188 215 255
188 215 255
188 215 255
188 215 255
188 215 255
188 215 255
188 215 255
188 215 255
188 215 255
188 215 255
188 215 255
188 215 255
188 215 255
188 215 255
188 215 255
188 215 255
188 215 255
188 215 255
188 215 255
188 215 255
188 215 255
188 215 255
188 215 255
188 215 255
188 215 255
188 215 255
188 215 255
188 215 255
188 215 255
188 215 255
188 215 255
107 126 154
66 81 104
66 81 104
65 80 102
66 81 105
69 84 107
61 76 97
61 75 97
63 78 100
67 82 104
64 79 100
67 83 106
61 76 97
65 79 101
65 81 104
64 78 100
62 78 101
60 75 97
60 74 95
62 76 97
64 79 102
61 76 99
66 80 103
62 77 99
64 79 100
60 74 96
66 80 101
62 77 99
66 81 103
65 80 103
63 78 100
61 76 98
63 77 98
65 80 103
62 76 98
66 81 103
63 78 100
70 84 106
64 79 100
66 81 103
64 79 101
63 78 99
64 78 101
63 78 100
62 76 97
63 78 102
58 73 95
64 78 100
69 84 106
66 82 104
66 80 102
62 76 97
67 82 104
65 81 103
66 81 104
64 79 102
63 78 100
66 81 103
60 75 97
67 83 106
62 75 96
63 78 100
60 74 95
67 82 104
64 79 101
65 80 102
65 80 102
62 76 98
64 79 100
63 78 100
65 79 102
62 77 99
64 79 101
64 80 102
62 76 99
66 81 102
59 74 95
64 79 101
59 73 94
68 83 106
65 80 102
64 79 103
65 79 101
63 78 100
65 79 99
66 81 102
61 75 97
63 77 98
62 76 98
65 80 103
67 82 104
70 86 110
65 80 103
65 80 103
62 76 99
63 78 100
68 83 107
65 80 102
65 79 100
61 75 97
64 79 100
64 78 100
63 78 100
63 78 99
63 78 99
63 78 99
63 78 100
63 77 98
60 74 95
70 86 109
63 78 100
64 79 101
64 78 99
64 79 101
64 79 101
63 78 99
65 80 101
64 78 100
62 77 99
67 82 105
64 79 101
67 83 105
66 81 103
68 83 104
64 78 101
64 79 101
63 77 99
65 79 100
67 83 106
120 141 172
188 215 255
188 215 255
188 215 255
188 215 255
188 215 255
188 215 255
188 215 255
188 215 255
188 215 255
188 215 255
188 215 255
188 215 255
188 215 255
188 215 255
188 215 255
188 215 255
188 215 255
188 215 255
188 215 255
188 215 255
188 215 255
188 215 255
188 215 255
188 215 255
188 215 255
188 215 255
188 215 255
188 215 255
188 215 255
188 215 255
188 215 255
188 215 255
189 215 255
188 215 255
188 215 255
189 215 255
189 215 255
189 215 255
189 215 255
189 215 255
189 215 255
189 215 255
189 215 255
189 215 255
189 215 255
189 215 255
189 215 255
189 215 255
189 215 255
189 215 255
189 215 255
189 215 255
189 215 255
189 215 255
189 215 255
189 215 255
189 215 255
189 215 255
189 215 255
189 216 255
189 215 255
189 216 255
189 216 255
189 216 255
189 216 255
189 216 255
189 216 255
189 216 255
189 216 255
189 216 255
189 216 255
189 216 255
189 216 255
189 216 255
189 216 255
189 216 255
189 216 255
189 216 255
189 216 255
189 216 255
189 216 255
189 216 255
189 216 255
189 216 255
189 216 255
189 216 255
189 216 255
189 216 255
189 216 255
189 216 255
189 216 255
189 216 255
189 216 255
189 216 255
189 216 255
189 216 255
189 216 255
189 216 255
189 216 255
189 216 255
189 216 255
189 216 255
189 216 255
189 216 255
189 216 255
189 216 255
189 216 255
189 216 255
189 216 255
189 216 255
189 216 255
189 216 255
189 216 255
189 216 255
189 216 255
189 216 255
189 216 255
189 216 255
189 216 255
189 216 255
189 216 255
189 216 255
189 216 255
189 216 255
189 216 255
189 216 255
189 216 255
189 216 255
190 216 255
189 216 255
190 216 255
190 216 255
190 216 255
190 216 255
190 216 255
190 216 255
190 216 255
190 216 255
190 216 255
190 216 255
190 216 255
190 216 255
190 216 255
190 216 255
190 216 255
190 216 255
190 216 255
190 216 255
190 216 255
190 216 255
190 216 255
190 216 255
190 216 255
190 216 255
190 216 255
190 216 255
190 216 255
190 216 255
190 216 255
190 216 255
190 216 255
190 216 255
190 216 255
190 216 255
190 216 255
190 216 255
190 216 255
190 216 255
190 216 255
190 216 255
190 216 255
190 216 255
190 216 255
190 216 255
190 216 255
190 216 255
190 216 255
190 216 255
190 216 255
190 216 255
189 216 255
189 216 255
189 216 255
189 216 255
189 216 255
189 216 255
189 216 255
189 216 255
189 216 255
189 216 255
189 216 255
189 216 255
189 216 255
189 216 255
189 216 255
189 216 255
189 216 255
189 216 255
189 216 255
189 216 255
189 216 255
189 216 255
189 216 255
189 216 255
189 216 255
189 216 255
189 216 255
189 216 255
189 216 255
189 216 255
189 216 255
189 216 255
189 216 255
189 216 255
189 216 255
189 216 255
189 216 255
189 216 255
189 216 255
189 216 255
189 216 255
189 216 255
189 216 255
189 216 255
189 216 255
189 216 255
189 216 255
189 216 255
189 216 255
189 216 255
189 216 255
189 216 255
189 216 255
189 216 255
189 216 255
189 216 255
189 216 255
189 216 255
189 216 255
189 216 255
189 216 255
189 216 255
189 216 255
189 216 255
189 216 255
189 215 255
189 215 255
189 215 255
189 215 255
189 215 255
189 215 255
189 215 255
189 215 255
189 215 255
189 215 255
189 215 255
189 215 255
189 215 255
189 215 255
189 215 255
189 215 255
189 215 255
189 215 255
189 215 255
189 215 255
189 215 255
189 215 255
189 215 255
189 215 255
189 215 255
112 132 161
60 74 95
66 81 104
63 78 99
60 74 96
67 82 104
62 76 97
63 77 98
60 75 97
64 78 100
64 79 103
65 80 103
64 79 101
69 84 106
64 79 101
59 73 95
63 78 101
63 78 100
63 77 99
65 80 103
61 76 97
68 83 105
66 80 102
61 75 96
66 80 101
65 81 104
67 81 103
62 76 98
65 80 102
66 80 102
58 72 93
63 77 99
64 80 102
66 80 102
58 72 92
63 78 100
63 78 101
62 77 99
63 77 98
61 75 96
62 77 100
60 74 95
63 77 98
61 76 97
67 81 103
63 78 100
64 78 99
69 84 107
59 72 92
65 80 102
62 76 98
63 78 100
68 83 106
63 78 99
60 74 96
65 80 102
68 83 106
62 77 100
64 78 100
67 82 105
63 78 99
68 84 107
61 74 94
66 80 102
61 76 99
64 78 99
65 79 100
58 71 92
63 78 99
65 80 101
66 81 103
65 81 104
59 73 94
66 81 103
67 82 105
64 79 100
63 78 99
65 80 102
62 77 99
67 82 104
64 78 99
66 80 102
63 77 98
63 77 99
64 79 101
66 81 103
62 76 98
55 69 90
66 81 103
66 80 102
64 78 101
63 78 100
66 80 100
66 80 103
59 74 96
61 75 96
65 79 101
61 77 99
64 79 102
65 79 102
63 78 100
60 75 96
68 82 104
66 81 103
64 78 100
63 78 99
65 79 102
64 79 102
69 85 109
62 76 97
63 78 100
68 82 104
60 74 95
60 74 96
64 79 101
66 81 103
63 77 99
68 83 106
64 79 100
62 76 96
66 81 104
65 80 102
64 79 102
64 79 100
69 84 106
65 80 103
61 76 97
68 83 105
64 80 103
101 120 147
189 215 255
189 215 255
189 215 255
189 215 255
189 215 255
189 215 255
189 215 255
189 215 255
189 215 255
189 215 255
189 215 255
189 215 255
189 215 255
189 215 255
189 215 255
189 215 255
189 215 255
189 215 255
189 215 255
189 215 255
189 215 255
189 215 255
189 215 255
189 215 255
189 215 255
189 216 255
189 216 255
189 216 255
189 216 255
189 216 255
189 216 255
189 216 255
189 216 255
189 216 255
189 216 255
189 216 255
189 216 255
189 216 255
189 216 255
189 216 255
189 216 255
189 216 255
189 216 255
189 216 255
189 216 255
189 216 255
189 216 255
189 216 255
189 216 255
189 216 255
189 216 255
189 216 255
189 216 255
189 216 255
189 216 255
189 216 255
189 216 255
189 216 255
189 216 255
189 216 255
189 216 255
189 216 255
189 216 255
189 216 255
189 216 255
189 216 255
189 216 255
189 216 255
189 216 255
189 216 255
189 216 255
189 216 255
189 216 255
189 216 255
189 216 255
189 216 255
189 216 255
189 216 255
189 216 255
189 216 255
189 216 255
189 216 255
189 216 255
189 216 255
189 216 255
189 216 255
189 216 255
189 216 255
189 216 255
189 216 255
189 216 255
190 216 255
190 216 255
190 216 255
190 216 255
190 216 255
190 216 255
190 216 255
190 216 255
190 216 255
190 216 255
190 216 255
190 216 255
190 216 255
190 216 255
190 216 255
190 216 255
190 216 255
190 216 255
190 216 255
190 216 255
190 216 255
190 216 255
190 216 255
190 216 255
190 216 255
190 216 255
190 216 255
190 216 255
190 216 255
190 216 255
190 216 255
190 216 255
190 216 255
190 216 255
190 216 255
190 216 255
190 216 255
190 216 255
190 216 255
190 216 255
190 216 255
190 216 255
190 216 255
190 216 255
190 216 255
190 216 255
190 216 255
190 216 255
190 216 255
190 216 255
190 216 255
190 216 255
190 216 255
190 216 255
190 216 255
190 216 255
190 216 255
190 216 255
190 216 255
190 216 255
190 216 255
190 216 255
190 216 255
190 216 255
190 216 255
190 216 255
190 216 255
190 216 255
190 216 255
190 216 255
190 216 255
190 216 255
190 216 255
190 216 255
190 216 255
190 216 255
190 216 255
190 216 255
190 216 255
190 216 255
190 216 255
190 216 255
190 216 255
190 216 255
190 216 255
190 216 255
190 216 255
190 216 255
190 216 255
190 216 255
190 216 255
190 216 255
190 216 255
190 216 255
190 216 255
190 216 255
190 216 255
190 216 255
190 216 255
190 216 255
190 216 255
190 216 255
190 216 255
190 216 255
190 216 255
190 216 255
190 216 255
190 216 255
190 216 255
190 216 255
190 216 255
190 216 255
190 216 255
190 216 255
190 216 255
190 216 255
190 216 255
190 216 255
190 216 255
190 216 255
190 216 255
190 216 255
190 216 255
190 216 255
190 216 255
190 216 255
190 216 255
190 216 255
190 216 255
190 216 255
189 216 255
189 216 255
189 216 255
189 216 255
189 216 255
189 216 255
189 216 255
189 216 255
189 216 255
189 216 255
189 216 255
189 216 255
189 216 255
189 216 255
189 216 255
189 216 255
189 216 255
189 216 255
189 216 255
189 216 255
189 216 255
189 216 255
189 216 255
189 216 255
189 216 255
189 216 255
189 216 255
189 216 255
189 216 255
189 216 255
189 216 255
189 216 255
189 216 255
189 216 255
189 216 255
189 216 255
189 216 255
189 216 255
189 216 255
189 216 255
189 216 255
189 216 255
189 216 255
189 216 255
189 216 255
189 216 255
189 216 255
189 216 255
189 216 255
95 112 139
68 83 105
59 73 94
66 80 101
66 80 102
67 83 105
64 79 102
67 82 104
65 80 102
61 75 97
64 78 100
68 83 105
59 73 94
63 78 100
64 80 103
66 82 105
66 81 104
58 72 93
66 82 105
65 79 102
63 78 100
60 75 96
64 79 102
62 77 99
61 76 97
63 78 99
63 78 99
61 76 97
65 80 102
65 79 101
66 80 101
66 80 102
66 81 103
65 80 102
65 81 105
65 79 102
68 83 106
61 75 96
63 77 98
66 81 104
64 79 102
60 74 95
64 79 102
63 78 100
65 80 102
64 79 101
64 78 100
69 83 105
60 74 96
64 79 100
61 75 96
66 81 104
64 79 100
60 75 96
65 80 103
67 82 104
67 82 105
66 80 101
67 82 105
64 79 102
62 77 99
60 75 96
64 79 101
66 81 103
67 81 103
64 78 99
62 76 98
60 74 95
67 82 105
62 76 98
64 79 100
63 77 98
64 78 100
62 77 98
57 70 90
65 79 101
67 81 103
62 76 98
59 73 93
60 74 95
65 79 101
64 79 100
65 80 102
59 74 95
63 79 102
66 80 102
66 81 103
65 80 102
64 78 100
61 75 97
64 79 101
64 79 101
67 82 103
63 78 100
66 81 104
59 74 97
65 80 103
64 79 102
63 78 99
67 81 103
66 81 103
63 77 100
64 78 100
68 84 107
63 78 102
61 75 96
65 79 101
59 74 96
65 80 102
64 79 102
60 75 97
66 81 103
63 77 99
61 75 96
64 78 99
62 76 98
63 77 97
63 76 97
65 79 101
66 80 102
66 81 103
67 81 102
65 80 102
69 85 107
64 79 101
61 77 100
65 81 104
64 79 101
64 79 102
93 110 137
189 216 255
189 216 255
189 216 255
189 216 255
189 216 255
189 216 255
189 216 255
189 216 255
189 216 255
189 216 255
189 216 255
189 216 255
189 216 255
189 216 255
189 216 255
189 216 255
189 216 255
189 216 255
189 216 255
189 216 255
189 216 255
189 216 255
189 216 255
189 216 255
189 216 255
189 216 255
189 216 255
189 216 255
189 216 255
189 216 255
189 216 255
189 216 255
189 216 255
189 216 255
189 216 255
189 216 255
189 216 255
189 216 255
189 216 255
189 216 255
189 216 255
189 216 255
189 216 255
189 216 255
189 216 255
189 216 255
189 216 255
189 216 255
190 216 255
190 216 255
190 216 255
190 216 255
190 216 255
190 216 255
190 216 255
190 216 255
190 216 255
190 216 255
190 216 255
190 216 255
190 216 255
190 216 255
190 216 255
190 216 255
190 216 255
190 216 255
190 216 255
190 216 255
190 216 255
190 216 255
190 216 255
190 216 255
190 216 255
190 216 255
190 216 255
190 216 255
190 216 255
190 216 255
190 216 255
190 216 255
190 216 255
190 216 255
190 216 255
190 216 255
190 216 255
190 216 255
190 216 255
190 216 255
190 216 255
190 216 255
190 216 255
190 216 255
190 216 255
190 216 255
190 216 255
190 216 255
190 216 255
190 216 255
190 216 255
190 216 255
190 216 255
190 216 255
190 216 255
190 216 255
190 216 255
190 216 255
190 216 255
190 216 255
190 216 255
190 216 255
190 216 255
190 216 255
190 216 255
190 216 255
190 216 255
190 216 255
190 216 255
190 216 255
190 216 255
190 216 255
190 216 255
190 216 255
190 216 255
190 216 255
190 216 255
190 216 255
190 216 255
190 216 255
190 216 255
190 216 255
190 216 255
190 216 255
190 216 255
190 216 255
190 216 255
190 216 255
190 216 255
190 216 255
190 216 255
190 216 255
190 216 255
190 216 255
190 216 255
190 216 255
190 216 255
190 216 255
190 216 255
190 216 255
190 216 255
190 216 255
190 216 255
190 216 255
190 216 255
190 216 255
190 216 255
190 216 255
190 216 255
190 216 255
190 216 255
190 216 255
190 216 255
190 216 255
190 216 255
190 216 255
190 216 255
190 216 255
190 216 255
190 216 255
190 216 255
190 216 255
190 216 255
190 216 255
190 216 255
190 216 255
190 216 255
190 216 255
190 216 255
190 216 255
190 216 255
190 216 255
190 216 255
190 216 255
190 216 255
190 216 255
190 216 255
190 216 255
190 216 255
190 216 255
190 216 255
190 216 255
190 216 255
190 216 255
190 216 255
190 216 255
190 216 255
190 216 255
190 216 255
190 216 255
190 216 255
190 216 255
190 216 255
190 216 255
190 216 255
190 216 255
190 216 255
190 216 255
190 216 255
190 216 255
190 216 255
190 216 255
190 216 255
190 216 255
190 216 255
190 216 255
190 216 255
190 216 255
190 216 255
190 216 255
190 216 255
190 216 255
190 216 255
190 216 255
190 216 255
190 216 255
190 216 255
190 216 255
190 216 255
190 216 255
190 216 255
190 216 255
190 216 255
190 216 255
190 216 255
190 216 255
190 216 255
190 216 255
190 216 255
190 216 255
190 216 255
190 216 255
190 216 255
190 216 255
190 216 255
190 216 255
190 216 255
190 216 255
190 216 255
190 216 255
190 216 255
190 216 255
190 216 255
190 216 255
190 216 255
190 216 255
190 216 255
190 216 255
190 216 255
190 216 255
190 216 255
190 216 255
190 216 255
190 216 255
190 216 255
190 216 255
190 216 255
190 216 255
190 216 255
190 216 255
190 216 255
190 216 255
79 94 118
62 76 97
64 79 102
60 74 95
69 84 106
61 75 96
59 73 93
70 85 107
62 77 98
67 81 102
61 76 98
62 76 97
68 83 106
66 81 103
66 81 103
62 76 98
60 74 96
64 79 100
63 77 99
63 77 99
60 74 96
65 79 101
58 72 93
65 80 102
63 77 99
68 82 104
64 78 99
64 78 99
60 73 93
66 80 103
62 77 98
62 76 97
64 78 99
59 73 94
63 78 100
63 78 101
63 78 100
64 79 101
62 76 98
66 80 102
62 77 98
64 78 100
64 78 100
68 83 106
64 78 99
62 76 98
65 80 102
63 77 98
68 83 107
66 81 103
61 76 99
64 78 100
62 76 98
67 82 105
63 78 101
59 73 94
65 79 101
68 84 107
63 78 100
67 82 106
60 75 98
65 80 103
65 80 103
62 76 98
61 75 97
64 77 98
65 78 99
60 74 96
63 78 100
63 77 99
64 79 101
61 76 98
66 81 104
65 80 101
56 70 91
68 83 105
65 80 102
64 78 100
65 80 102
63 78 100
60 75 97
60 74 94
64 78 99
66 81 104
66 80 102
66 81 104
65 79 100
63 76 97
62 77 99
59 73 95
67 82 105
62 76 98
67 82 104
64 80 103
61 76 98
66 80 102
64 79 102
63 77 98
61 75 96
64 79 101
64 78 101
63 78 100
64 79 100
65 80 102
56 70 91
60 75 96
64 79 101
66 79 100
64 78 100
66 81 103
63 77 99
62 76 96
62 77 98
66 81 103
60 74 95
68 83 106
63 78 100
67 82 104
64 79 101
61 75 97
59 73 95
62 76 98
60 74 95
64 79 101
66 80 102
67 83 107
65 79 101
60 75 97
64 79 100
86 103 128
190 216 255
190 216 255
190 216 255
190 216 255
190 216 255
190 216 255
190 216 255
190 216 255
190 216 255
190 216 255
190 216 255
190 216 255
190 216 255
190 216 255
190 216 255
190 216 255
190 216 255
190 216 255
190 216 255
190 216 255
190 216 255
190 216 255
190 216 255
190 216 255
190 216 255
190 216 255
190 216 255
190 216 255
190 216 255
190 216 255
190 216 255
190 216 255
190 216 255
190 216 255
190 216 255
190 216 255
190 216 255
190 216 255
190 216 255
190 216 255
190 216 255
190 216 255
190 216 255
190 216 255
190 216 255
190 216 255
190 216 255
190 216 255
190 216 255
190 216 255
190 216 255
190 216 255
190 216 255
190 216 255
190 216 255
190 216 255
190 216 255
190 216 255
190 216 255
190 216 255
190 216 255
190 216 255
190 216 255
190 216 255
190 216 255
190 216 255
190 216 255
190 216 255
190 216 255
190 216 255
190 216 255
190 216 255
190 216 255
190 216 255
190 216 255
190 216 255
190 216 255
190 216 255
190 216 255
190 216 255
190 216 255
190 216 255
190 216 255
190 216 255
190 216 255
190 216 255
190 216 255
190 216 255
190 216 255
190 216 255
190 216 255
190 216 255
190 216 255
190 216 255
190 216 255
190 216 255
190 216 255
190 216 255
190 216 255
190 216 255
190 216 255
190 216 255
190 216 255
190 216 255
190 216 255
190 216 255
190 216 255
190 216 255
190 216 255
190 216 255
190 216 255
190 216 255
190 216 255
190 216 255
190 216 255
190 216 255
190 216 255
190 216 255
190 216 255
190 216 255
190 216 255
190 216 255
190 216 255
190 216 255
190 216 255
190 216 255
190 216 255
190 216 255
190 216 255
190 216 255
190 216 255
190 216 255
190 216 255
190 216 255
190 216 255
191 217 255
191 217 255
191 217 255
191 217 255
191 217 255
191 217 255
191 217 255
191 217 255
191 217 255
191 217 255
191 217 255
191 217 255
191 217 255
191 217 255
191 217 255
191 217 255
191 217 255
191 217 255
191 217 255
191 217 255
191 217 255
191 217 255
191 217 255
191 217 255
191 217 255
191 217 255
191 217 255
191 217 255
191 217 255
191 217 255
191 217 255
191 217 255
191 217 255
191 217 255
191 217 255
191 217 255
191 217 255
191 217 255
191 217 255
191 217 255
191 217 255
191 217 255
191 217 255
190 216 255
191 217 255
190 216 255
191 216 255
190 216 255
190 216 255
190 216 255
190 216 255
190 216 255
190 216 255
190 216 255
190 216 255
190 216 255
190 216 255
190 216 255
190 216 255
190 216 255
190 216 255
190 216 255
190 216 255
190 216 255
190 216 255
190 216 255
190 216 255
190 216 255
190 216 255
190 216 255
190 216 255
190 216 255
190 216 255
190 216 255
190 216 255
190 216 255
190 216 255
190 216 255
190 216 255
190 216 255
190 216 255
190 216 255
190 216 255
190 216 255
190 216 255
190 216 255
190 216 255
190 216 255
190 216 255
190 216 255
190 216 255
190 216 255
190 216 255
190 216 255
190 216 255
190 216 255
190 216 255
190 216 255
190 216 255
190 216 255
190 216 255
190 216 255
190 216 255
190 216 255
190 216 255
190 216 255
190 216 255
190 216 255
190 216 255
190 216 255
190 216 255
190 216 255
190 216 255
190 216 255
190 216 255
190 216 255
190 216 255
190 216 255
190 216 255
190 216 255
190 216 255
190 216 255
190 216 255
190 216 255
190 216 255
190 216 255
190 216 255
190 216 255
190 216 255
190 216 255
190 216 255
190 216 255
190 216 255
190 216 255
190 216 255
78 93 116
65 80 104
64 78 99
65 80 103
64 80 103
63 77 100
61 74 94
59 72 92
65 80 103
60 75 96
61 75 97
63 77 99
60 73 94
63 77 99
62 75 96
67 81 103
63 78 101
65 79 100
56 69 90
64 78 99
64 78 100
67 82 104
64 79 102
64 79 102
63 77 98
60 74 95
66 81 103
64 79 103
61 74 95
67 83 106
63 78 100
61 75 96
63 77 99
60 75 98
65 81 103
60 74 95
63 77 99
66 80 101
61 76 97
63 77 99
66 81 103
61 76 99
66 81 104
65 80 102
69 83 106
61 75 96
66 81 105
64 79 101
63 77 97
62 77 99
61 76 97
66 81 103
62 76 98
62 76 98
62 77 99
63 78 100
64 79 100
65 81 104
65 79 100
62 76 98
68 82 104
65 80 102
63 77 98
64 78 99
64 78 100
66 80 102
67 82 105
65 80 102
67 81 103
64 79 101
61 76 99
63 78 99
65 81 104
67 82 104
63 78 100
67 82 104
64 78 100
59 74 95
69 84 106
62 75 96
62 76 96
62 77 100
66 81 102
65 79 101
62 76 97
59 74 96
63 77 99
61 75 96
66 81 103
66 80 102
65 79 101
65 79 101
60 74 96
60 75 97
62 76 97
64 78 99
65 80 102
65 79 101
62 77 98
65 80 102
60 75 97
63 77 98
68 83 106
64 79 101
59 73 94
66 81 104
67 82 104
68 83 106
59 73 94
64 79 100
67 82 105
61 75 96
65 80 102
68 82 104
68 84 107
59 73 94
62 77 98
61 75 96
65 80 102
63 78 100
65 81 104
67 82 104
62 76 97
65 80 103
62 77 100
66 81 104
63 77 97
67 82 104
64 79 100
77 94 118
190 216 255
190 216 255
190 216 255
190 216 255
190 216 255
190 216 255
190 216 255
190 216 255
190 216 255
190 216 255
190 216 255
190 216 255
190 216 255
190 216 255
190 216 255
190 216 255
190 216 255
190 216 255
190 216 255
190 216 255
190 216 255
190 216 255
190 216 255
190 216 255
190 216 255
190 216 255
190 216 255
190 216 255
190 216 255
190 216 255
190 216 255
190 216 255
190 216 255
190 216 255
190 216 255
190 216 255
190 216 255
190 216 255
190 216 255
190 216 255
190 216 255
190 216 255
190 216 255
190 216 255
190 216 255
190 216 255
190 216 255
190 216 255
190 216 255
190 216 255
190 216 255
190 216 255
190 216 255
190 216 255
190 216 255
190 216 255
190 216 255
190 216 255
190 216 255
190 216 255
190 216 255
190 216 255
190 216 255
190 216 255
190 216 255
190 216 255
190 216 255
190 216 255
190 216 255
190 216 255
190 216 255
190 216 255
190 216 255
190 216 255
190 216 255
190 216 255
190 216 255
190 216 255
190 216 255
190 216 255
190 216 255
190 216 255
190 216 255
190 216 255
190 216 255
190 216 255
190 216 255
190 216 255
190 216 255
190 216 255
190 216 255
190 216 255
191 217 255
191 216 255
191 217 255
191 217 255
191 217 255
191 217 255
191 217 255
191 217 255
191 217 255
191 217 255
191 217 255
191 217 255
191 217 255
191 217 255
191 217 255
191 217 255
191 217 255
191 217 255
191 217 255
191 217 255
191 217 255
191 217 255
191 217 255
191 217 255
191 217 255
191 217 255
191 217 255
191 217 255
191 217 255
191 217 255
191 217 255
191 217 255
191 217 255
191 217 255
191 217 255
191 217 255
191 217 255
191 217 255
191 217 255
191 217 255
191 217 255
191 217 255
191 217 255
191 217 255
191 217 255
191 217 255
191 217 255
191 217 255
191 217 255
191 217 255
191 217 255
191 217 255
191 217 255
191 217 255
191 217 255
191 217 255
191 217 255
191 217 255
191 217 255
191 217 255
191 217 255
191 217 255
191 217 255
191 217 255
191 217 255
191 217 255
191 217 255
191 217 255
191 217 255
191 217 255
191 217 255
191 217 255
191 217 255
191 217 255
191 217 255
191 217 255
191 217 255
191 217 255
191 217 255
191 217 255
191 217 255
191 217 255
191 217 255
191 217 255
191 217 255
191 217 255
191 217 255
191 217 255
191 217 255
191 217 255
191 217 255
191 217 255
191 217 255
191 217 255
191 217 255
191 217 255
191 217 255
191 217 255
191 217 255
191 217 255
191 217 255
191 217 255
191 217 255
191 217 255
191 217 255
191 217 255
191 217 255
191 217 255
191 217 255
191 217 255
191 217 255
191 217 255
191 217 255
191 217 255
191 217 255
191 217 255
191 217 255
191 217 255
191 217 255
191 217 255
191 217 255
191 217 255
191 217 255
191 217 255
191 217 255
191 217 255
191 217 255
191 217 255
191 217 255
191 217 255
191 217 255
191 217 255
191 217 255
191 217 255
191 217 255
191 217 255
191 217 255
191 217 255
191 217 255
191 217 255
191 217 255
191 217 255
191 217 255
191 217 255
191 217 255
191 217 255
191 217 255
191 217 255
191 217 255
191 217 255
191 217 255
191 217 255
191 217 255
191 217 255
191 217 255
191 217 255
191 217 255
191 217 255
191 217 255
191 217 255
191 217 255
191 217 255
191 217 255
191 217 255
191 217 255
191 217 255
191 217 255
191 217 255
191 217 255
191 217 255
191 217 255
191 217 255
191 217 255
191 217 255
191 217 255
191 217 255
191 217 255
190 216 255
72 87 109
63 77 99
66 80 102
64 79 100
62 77 99
59 73 93
57 70 90
61 75 96
66 80 102
66 80 102
63 78 100
66 80 102
64 79 101
69 85 109
60 74 95
65 80 102
64 79 102
62 76 98
64 78 100
64 78 99
63 76 97
59 73 95
64 79 100
67 82 105
65 79 101
62 76 98
64 78 99
64 78 99
66 81 103
61 76 98
65 79 101
64 80 102
65 80 101
66 81 103
62 76 98
64 79 101
63 78 99
63 77 99
64 78 99
62 76 98
59 73 95
62 76 98
64 79 101
66 80 102
58 71 92
66 82 105
62 76 97
67 82 104
63 78 100
63 78 99
65 79 99
67 82 104
63 78 101
62 77 99
61 75 95
63 77 97
59 74 96
57 71 91
64 79 101
60 74 94
63 78 99
64 79 101
63 78 100
64 79 101
69 84 106
68 83 105
62 77 99
62 77 98
61 76 98
69 84 106
62 76 97
68 84 106
67 82 103
61 74 95
63 77 99
64 78 99
66 81 103
64 79 102
66 81 104
60 75 97
62 76 98
59 73 93
64 78 99
57 71 92
62 76 98
64 78 100
62 76 96
65 80 103
63 78 99
62 76 98
62 77 98
66 80 103
68 82 104
64 79 101
62 76 97
61 75 97
61 76 98
64 79 101
66 81 104
60 74 95
65 79 101
59 73 94
67 82 105
63 77 99
55 68 89
67 82 104
65 80 103
67 82 105
64 78 99
60 75 97
64 79 101
60 75 96
63 77 98
64 79 101
63 77 99
67 81 103
62 76 97
59 74 95
62 76 99
62 77 98
60 74 94
65 80 102
66 80 102
65 80 103
62 76 98
62 77 100
60 75 97
64 79 102
65 81 103
76 91 113
191 217 255
191 217 255
191 217 255
191 217 255
191 217 255
191 217 255
191 217 255
191 217 255
191 217 255
191 217 255
191 217 255
191 217 255
191 217 255
191 217 255
191 217 255
191 217 255
191 217 255
191 217 255
191 217 255
191 217 255
191 217 255
191 217 255
191 217 255
191 217 255
191 217 255
191 217 255
191 217 255
191 217 255
191 217 255
191 217 255
191 217 255
191 217 255
191 217 255
191 217 255
191 217 255
191 217 255
191 217 255
191 217 255
191 217 255
191 217 255
191 217 255
191 217 255
191 217 255
191 217 255
191 217 255
191 217 255
191 217 255
191 217 255
191 217 255
191 217 255
191 217 255
191 217 255
191 217 255
191 217 255
191 217 255
191 217 255
191 217 255
191 217 255
191 217 255
191 217 255
191 217 255
191 217 255
191 217 255
191 217 255
191 217 255
191 217 255
191 217 255
191 217 255
191 217 255
191 217 255
191 217 255
191 217 255
191 217 255
191 217 255
191 217 255
191 217 255
191 217 255
191 217 255
191 217 255
191 217 255
191 217 255
191 217 255
191 217 255
191 217 255
191 217 255
191 217 255
191 217 255
191 217 255
191 217 255
191 217 255
191 217 255
191 217 255
191 217 255
191 217 255
191 217 255
191 217 255
191 217 255
191 217 255
191 217 255
191 217 255
191 217 255
191 217 255
191 217 255
191 217 255
191 217 255
191 217 255
191 217 255
191 217 255
191 217 255
191 217 255
191 217 255
191 217 255
191 217 255
191 217 255
191 217 255
191 217 255
191 217 255
191 217 255
191 217 255
191 217 255
191 217 255
191 217 255
191 217 255
191 217 255
191 217 255
191 217 255
191 217 255
191 217 255
191 217 255
191 217 255
191 217 255
191 217 255
191 217 255
191 217 255
191 217 255
191 217 255
191 217 255
191 217 255
191 217 255
191 217 255
191 217 255
191 217 255
191 217 255
191 217 255
191 217 255
191 217 255
191 217 255
191 217 255
191 217 255
191 217 255
191 217 255
191 217 255
191 217 255
191 217 255
191 217 255
191 217 255
191 217 255
191 217 255
191 217 255
191 217 255
191 217 255
191 217 255
191 217 255
191 217 255
191 217 255
191 217 255
191 217 255
191 217 255
191 217 255
191 217 255
191 217 255
191 217 255
191 217 255
191 217 255
191 217 255
191 217 255
191 217 255
191 217 255
191 217 255
191 217 255
191 217 255
191 217 255
191 217 255
191 217 255
191 217 255
191 217 255
191 217 255
191 217 255
191 217 255
191 217 255
191 217 255
191 217 255
191 217 255
191 217 255
191 217 255
191 217 255
191 217 255
191 217 255
191 217 255
191 217 255
191 217 255
191 217 255
191 217 255
191 217 255
191 217 255
191 217 255
191 217 255
191 217 255
191 217 255
191 217 255
191 217 255
191 217 255
191 217 255
191 217 255
191 217 255
191 217 255
191 217 255
191 217 255
191 217 255
191 217 255
191 217 255
191 217 255
191 217 255
191 217 255
191 217 255
191 217 255
191 217 255
191 217 255
191 217 255
191 217 255
191 217 255
191 217 255
191 217 255
191 217 255
191 217 255
191 217 255
191 217 255
191 217 255
191 217 255
191 217 255
191 217 255
191 217 255
191 217 255
191 217 255
191 217 255
191 217 255
191 217 255
191 217 255
191 217 255
191 217 255
191 217 255
191 217 255
191 217 255
191 217 255
191 217 255
191 217 255
191 217 255
191 217 255
191 217 255
191 217 255
191 217 255
191 217 255
191 217 255
191 217 255
191 217 255
191 217 255
191 217 255
191 217 255
191 217 255
191 217 255
71 86 109
69 84 106
64 79 101
62 77 99
62 77 99
62 77 99
68 83 106
66 80 101
60 74 95
67 83 106
59 74 95
62 76 97
63 78 100
66 80 102
64 79 101
62 75 96
61 75 97
60 75 97
61 76 97
65 80 103
61 75 95
62 77 99
61 75 97
60 74 95
63 77 98
63 77 99
60 75 96
63 78 99
59 73 93
67 81 103
61 76 97
63 77 97
62 76 98
63 78 99
62 77 99
66 82 105
61 75 97
63 77 99
64 78 99
60 75 96
64 78 100
63 77 99
66 80 101
65 80 102
61 75 97
65 80 103
62 76 97
59 73 94
64 78 99
65 80 103
63 77 98
64 79 102
62 77 99
62 76 98
64 79 101
67 82 105
60 74 96
65 79 100
66 82 104
66 81 103
61 75 96
62 76 96
59 72 93
65 81 103
62 76 97
61 76 97
71 86 110
64 79 102
65 79 101
62 77 99
65 80 101
63 76 97
62 75 95
63 78 99
64 79 101
63 77 99
61 75 97
63 79 102
69 84 107
64 79 100
59 73 94
63 77 99
65 80 101
63 77 99
61 76 99
69 84 107
63 78 100
63 78 99
64 80 102
60 74 95
64 78 98
63 78 100
62 76 96
57 71 92
58 71 91
64 79 102
62 76 97
63 77 98
62 76 97
66 81 104
65 79 100
64 78 99
63 77 99
66 80 101
64 78 99
62 77 99
61 75 96
63 77 99
65 80 102
70 84 105
65 79 101
66 80 102
56 70 91
64 79 100
66 81 103
67 81 103
61 75 97
59 73 93
65 80 102
68 83 106
60 74 96
63 77 100
65 80 101
58 72 93
62 76 96
63 77 98
61 75 96
68 83 105
68 83 105
71 87 110
191 217 255
191 217 255
191 217 255
191 217 255
191 217 255
191 217 255
191 217 255
191 217 255
191 217 255
191 217 255
191 217 255
191 217 255
191 217 255
191 217 255
191 217 255
191 217 255
191 217 255
191 217 255
191 217 255
191 217 255
191 217 255
191 217 255
191 217 255
191 217 255
191 217 255
191 217 255
191 217 255
191 217 255
191 217 255
191 217 255
191 217 255
191 217 255
191 217 255
191 217 255
191 217 255
191 217 255
191 217 255
191 217 255
191 217 255
191 217 255
191 217 255
191 217 255
191 217 255
191 217 255
191 217 255
191 217 255
191 217 255
191 217 255
191 217 255
191 217 255
191 217 255
191 217 255
191 217 255
191 217 255
191 217 255
191 217 255
191 217 255
191 217 255
191 217 255
191 217 255
191 217 255
191 217 255
191 217 255
191 217 255
191 217 255
191 217 255
191 217 255
191 217 255
191 217 255
191 217 255
191 217 255
191 217 255
191 217 255
191 217 255
191 217 255
191 217 255
191 217 255
191 217 255
191 217 255
191 217 255
191 217 255
191 217 255
191 217 255
191 217 255
191 217 255
191 217 255
191 217 255
191 217 255
191 217 255
191 217 255
191 217 255
191 217 255
191 217 255
191 217 255
191 217 255
191 217 255
191 217 255
191 217 255
191 217 255
191 217 255
191 217 255
191 217 255
191 217 255
191 217 255
191 217 255
191 217 255
191 217 255
191 217 255
191 217 255
191 217 255
191 217 255
191 217 255
191 217 255
191 217 255
191 217 255
191 217 255
191 217 255
191 217 255
191 217 255
191 217 255
191 217 255
191 217 255
191 217 255
191 217 255
191 217 255
191 217 255
191 217 255
191 217 255
191 217 255
191 217 255
191 217 255
191 217 255
191 217 255
191 217 255
191 217 255
192 217 255
192 217 255
192 217 255
191 217 255
192 217 255
191 217 255
192 217 255
191 217 255
191 217 255
191 217 255
191 217 255
191 217 255
191 217 255
191 217 255
192 217 255
192 217 255
192 217 255
191 217 255
191 217 255
191 217 255
192 217 255
191 217 255
191 217 255
192 217 255
192 217 255
192 217 255
191 217 255
192 217 255
191 217 255
192 217 255
192 217 255
191 217 255
191 217 255
192 217 255
191 217 255
191 217 255
191 217 255
191 217 255
191 217 255
191 217 255
192 217 255
192 217 255
191 217 255
191 217 255
192 217 255
192 217 255
191 217 255
192 217 255
192 217 255
192 217 255
191 217 255
191 217 255
191 217 255
192 217 255
191 217 255
192 217 255
191 217 255
192 217 255
192 217 255
191 217 255
192 217 255
191 217 255
192 217 255
191 217 255
191 217 255
192 217 255
192 217 255
192 217 255
192 217 255
191 217 255
191 217 255
192 217 255
191 217 255
191 217 255
192 217 255
192 217 255
191 217 255
191 217 255
191 217 255
191 217 255
191 217 255
192 217 255
191 217 255
191 217 255
191 217 255
191 217 255
191 217 255
192 217 255
191 217 255
192 217 255
191 217 255
191 217 255
192 217 255
192 217 255
191 217 255
192 217 255
191 217 255
192 217 255
191 217 255
191 217 255
192 217 255
192 217 255
192 217 255
192 217 255
192 217 255
191 217 255
192 217 255
192 217 255
191 217 255
192 217 255
191 217 255
191 217 255
192 217 255
192 217 255
191 217 255
191 217 255
191 217 255
192 217 255
192 217 255
191 217 255
191 217 255
191 217 255
191 217 255
192 217 255
191 217 255
191 217 255
191 217 255
191 217 255
192 217 255
191 217 255
191 217 255
191 217 255
191 217 255
191 217 255
192 217 255
68 83 105
63 77 99
66 81 104
58 72 93
62 77 98
63 78 100
62 76 97
66 81 102
63 78 101
69 84 106
67 82 105
63 77 99
67 82 104
61 75 96
60 74 94
59 73 93
63 77 98
62 76 97
59 74 95
66 80 102
56 70 90
63 77 98
63 78 100
58 73 94
61 75 96
63 77 99
64 79 102
59 74 96
59 72 93
66 81 103
64 79 101
61 75 96
65 79 102
63 77 99
60 75 97
62 77 98
63 77 99
57 71 91
67 82 104
60 74 96
61 75 96
61 75 96
66 82 104
63 78 99
62 76 97
58 72 93
59 73 94
62 76 98
60 74 96
62 76 98
66 81 103
66 81 103
61 75 96
63 77 99
59 72 93
67 82 103
66 81 103
65 80 102
65 79 101
64 79 101
64 78 100
64 79 101
64 78 101
67 82 105
58 72 93
62 77 98
62 77 99
64 79 102
61 75 96
62 77 98
65 81 104
67 81 102
64 78 99
64 78 100
63 77 99
66 80 102
64 78 99
63 77 98
63 78 99
64 79 102
64 78 100
65 80 103
61 75 97
62 77 98
62 76 98
58 72 93
60 73 94
64 78 99
64 78 99
66 81 103
64 78 99
61 74 95
62 77 100
61 75 95
65 79 100
57 71 92
63 77 98
62 77 99
61 75 96
64 78 99
69 84 107
62 78 100
65 80 102
70 85 107
68 83 105
58 71 91
64 78 100
62 77 100
67 81 103
65 79 101
62 77 98
61 76 97
62 77 99
59 73 94
62 76 97
64 78 100
64 78 100
63 76 97
63 77 98
61 75 97
64 78 100
65 81 104
61 76 98
62 76 97
68 83 106
65 79 102
66 80 102
66 81 104
61 76 97
69 84 106
192 217 255
192 217 255
192 217 255
191 217 255
191 217 255
191 217 255
192 217 255
191 217 255
191 217 255
191 217 255
191 217 255
192 217 255
192 217 255
192 217 255
191 217 255
191 217 255
191 217 255
191 217 255
192 217 255
192 217 255
191 217 255
191 217 255
191 217 255
191 217 255
191 217 255
192 217 255
192 217 255
191 217 255
191 217 255
192 217 255
192 217 255
191 217 255
192 217 255
191 217 255
192 217 255
191 217 255
192 217 255
191 217 255
192 217 255
192 217 255
191 217 255
191 217 255
191 217 255
191 217 255
192 217 255
191 217 255
191 217 255
191 217 255
191 217 255
192 217 255
191 217 255
192 217 255
191 217 255
192 217 255
191 217 255
192 217 255
191 217 255
192 217 255
192 217 255
192 217 255
191 217 255
191 217 255
192 217 255
191 217 255
191 217 255
191 217 255
191 217 255
192 217 255
192 217 255
192 217 255
191 217 255
191 217 255
192 217 255
192 217 255
192 217 255
192 217 255
191 217 255
192 217 255
191 217 255
192 217 255
191 217 255
192 217 255
192 217 255
191 217 255
191 217 255
191 217 255
191 217 255
191 217 255
192 217 255
192 217 255
192 217 255
191 217 255
192 217 255
192 217 255
192 217 255
191 217 255
191 217 255
191 217 255
191 217 255
191 217 255
192 217 255
191 217 255
192 217 255
191 217 255
192 217 255
191 217 255
191 217 255
191 217 255
192 217 255
192 217 255
192 217 255
192 217 255
191 217 255
191 217 255
191 217 255
191 217 255
191 217 255
191 217 255
191 217 255
192 217 255
192 217 255
192 217 255
191 217 255
192 217 255
191 217 255
191 217 255
191 217 255
192 217 255
191 217 255
191 217 255
191 217 255
191 217 255
192 217 255
192 217 255
192 217 255
192 217 255
192 217 255
192 217 255
192 217 255
192 217 255
192 217 255
192 217 255
192 217 255
192 217 255
192 217 255
192 217 255
192 217 255
192 217 255
192 217 255
192 217 255
192 217 255
192 217 255
192 217 255
192 217 255
192 217 255
192 217 255
192 217 255
192 217 255
192 217 255
192 217 255
192 217 255
192 217 255
192 217 255
192 217 255
192 217 255
192 217 255
192 217 255
192 217 255
192 217 255
192 217 255
192 217 255
192 217 255
192 217 255
192 217 255
192 217 255
192 217 255
192 217 255
192 217 255
192 217 255
192 217 255
192 217 255
192 217 255
192 217 255
192 217 255
192 217 255
192 217 255
192 217 255
192 217 255
192 217 255
192 217 255
192 217 255
192 217 255
192 217 255
192 217 255
192 217 255
192 217 255
192 217 255
192 217 255
192 217 255
192 217 255
192 217 255
192 217 255
192 217 255
192 217 255
192 217 255
192 217 255
192 217 255
192 217 255
192 217 255
192 217 255
192 217 255
192 217 255
192 217 255
192 217 255
192 217 255
192 217 255
192 217 255
192 217 255
192 217 255
192 217 255
192 217 255
192 217 255
192 217 255
192 217 255
192 217 255
192 217 255
192 217 255
192 217 255
192 217 255
192 217 255
192 217 255
192 217 255
192 217 255
192 217 255
192 217 255
192 217 255
192 217 255
192 217 255
192 217 255
192 217 255
192 217 255
192 217 255
192 217 255
192 217 255
192 217 255
192 217 255
192 217 255
192 217 255
192 217 255
192 217 255
192 217 255
192 217 255
192 217 255
192 217 255
192 217 255
192 217 255
192 217 255
192 217 255
192 217 255
192 217 255
192 217 255
192 217 255
192 217 255
192 217 255
192 217 255
192 217 255
192 217 255
192 217 255
192 217 255
192 217 255
81 96 120
62 76 98
65 80 102
64 78 98
61 75 96
60 75 97
58 72 92
63 77 97
63 77 98
60 74 94
61 75 96
63 77 98
65 79 101
63 78 100
66 80 102
63 78 100
65 79 101
62 75 96
66 81 104
64 79 100
60 75 97
62 76 98
65 80 102
64 78 100
59 72 92
59 73 93
61 75 96
59 72 93
63 78 100
67 82 104
62 76 97
60 75 97
67 81 103
60 74 95
57 71 93
58 71 91
61 76 97
61 75 96
61 75 95
64 78 99
59 73 94
64 79 102
60 74 94
65 79 101
63 76 97
64 79 101
63 77 98
63 77 99
64 78 100
65 79 101
61 75 97
65 79 100
63 76 97
58 72 92
61 76 97
60 74 95
60 75 97
58 72 93
65 80 102
66 81 103
65 79 100
58 71 91
59 73 95
64 79 100
62 76 99
59 73 94
59 73 95
61 76 97
61 76 97
61 76 97
62 76 97
65 80 103
63 78 100
58 72 93
62 75 96
59 73 94
61 76 97
64 78 100
61 75 96
61 76 97
60 74 94
61 75 96
58 71 91
65 79 101
67 82 105
63 77 98
66 81 103
61 75 96
61 76 97
60 75 96
64 79 100
63 78 100
59 73 95
63 77 97
63 77 99
65 80 102
64 78 99
60 74 96
65 79 101
60 74 95
64 78 99
62 76 98
59 73 94
65 80 103
62 77 99
62 76 98
63 78 100
63 77 99
62 76 97
63 77 99
63 78 99
64 77 98
60 74 95
61 75 96
64 78 99
62 76 97
63 78 99
62 77 98
67 82 103
63 78 99
61 75 95
61 75 96
63 77 99
60 75 96
63 78 99
66 81 103
64 79 101
62 77 99
63 76 97
71 87 110
192 217 255
192 217 255
192 217 255
192 217 255
192 217 255
192 217 255
192 217 255
192 217 255
192 217 255
192 217 255
192 217 255
192 217 255
192 217 255
192 217 255
192 217 255
192 217 255
192 217 255
192 217 255
192 217 255
192 217 255
192 217 255
192 217 255
192 217 255
192 217 255
192 217 255
192 217 255
192 217 255
192 217 255
192 217 255
192 217 255
192 217 255
192 217 255
192 217 255
192 217 255
192 217 255
192 217 255
192 217 255
192 217 255
192 217 255
192 217 255
192 217 255
192 217 255
192 217 255
192 217 255
192 217 255
192 217 255
192 217 255
192 217 255
192 217 255
192 217 255
192 217 255
192 217 255
192 217 255
192 217 255
192 217 255
192 217 255
192 217 255
192 217 255
192 217 255
192 217 255
192 217 255
192 217 255
192 217 255
192 217 255
192 217 255
192 217 255
192 217 255
192 217 255
192 217 255
192 217 255
192 217 255
192 217 255
192 217 255
192 217 255
192 217 255
192 217 255
192 217 255
192 217 255
192 217 255
192 217 255
192 217 255
192 217 255
192 217 255
192 217 255
192 217 255
192 217 255
192 217 255
192 217 255
192 217 255
192 217 255
192 217 255
192 217 255
192 217 255
192 217 255
192 217 255
192 217 255
192 217 255
192 217 255
192 217 255
192 217 255
192 217 255
192 217 255
192 217 255
192 217 255
192 217 255
192 217 255
192 217 255
192 217 255
192 217 255
192 217 255
192 217 255
192 217 255
192 217 255
192 217 255
192 217 255
192 217 255
192 217 255
192 217 255
192 217 255
192 217 255
192 217 255
192 217 255
192 217 255
192 217 255
192 217 255
192 217 255
192 217 255
192 217 255
192 217 255
192 217 255
192 217 255
192 217 255
192 217 255
192 217 255
192 217 255
192 217 255
192 217 255
192 217 255
192 217 255
192 217 255
192 217 255
192 217 255
192 217 255
192 217 255
192 217 255
192 217 255
192 217 255
192 217 255
192 217 255
192 217 255
192 217 255
192 217 255
192 217 255
192 217 255
192 217 255
192 217 255
192 217 255
192 217 255
192 217 255
192 217 255
192 217 255
192 217 255
192 217 255
192 217 255
192 217 255
192 217 255
192 217 255
192 217 255
192 217 255
192 217 255
192 217 255
192 217 255
192 217 255
192 217 255
192 217 255
192 217 255
192 217 255
192 217 255
192 217 255
192 217 255
192 217 255
192 217 255
192 217 255
192 218 255
192 218 255
192 218 255
192 218 255
192 218 255
192 218 255
192 218 255
192 218 255
192 218 255
192 218 255
192 218 255
192 218 255
192 218 255
192 218 255
192 218 255
192 218 255
192 218 255
192 218 255
192 218 255
192 218 255
192 218 255
192 218 255
192 218 255
192 218 255
192 218 255
192 218 255
192 218 255
192 218 255
192 218 255
192 218 255
192 218 255
192 218 255
192 218 255
192 218 255
192 218 255
192 218 255
192 218 255
192 218 255
192 218 255
192 218 255
192 218 255
192 218 255
192 218 255
192 218 255
192 218 255
192 218 255
192 218 255
192 218 255
192 218 255
192 218 255
192 218 255
192 218 255
192 218 255
192 218 255
192 218 255
192 218 255
192 218 255
192 218 255
192 218 255
192 218 255
192 218 255
192 218 255
192 218 255
192 218 255
192 218 255
192 218 255
192 218 255
192 218 255
192 218 255
192 218 255
192 218 255
192 218 255
192 218 255
192 218 255
192 218 255
192 218 255
192 218 255
192 218 255
192 218 255
192 218 255
192 218 255
192 218 255
192 218 255
192 218 255
192 218 255
192 218 255
192 218 255
74 88 109
65 80 102
59 72 93
65 79 100
64 79 101
63 78 101
69 84 106
61 75 96
61 76 98
65 79 99
60 75 97
60 74 95
63 77 97
65 80 102
58 72 93
62 76 97
60 74 95
63 77 98
63 77 98
65 80 102
59 72 93
61 75 96
62 76 97
64 79 100
67 82 105
63 77 99
68 83 105
64 78 100
60 74 95
64 78 98
64 78 100
58 72 93
61 76 97
67 82 105
63 77 99
62 76 97
60 74 96
63 77 98
65 80 103
60 74 95
63 78 100
59 73 93
59 73 93
61 74 95
61 75 97
66 81 103
61 76 97
62 76 98
60 74 95
61 75 96
62 77 99
61 75 97
64 79 100
65 80 102
54 67 85
62 75 96
59 72 91
64 79 100
62 75 96
58 72 93
61 76 97
60 74 95
65 80 101
62 76 98
63 77 100
64 79 101
59 73 93
67 82 104
64 78 99
64 80 103
59 72 92
64 77 98
64 79 102
64 78 99
65 79 102
62 76 98
58 72 93
60 75 96
65 79 100
62 77 99
61 76 97
61 75 96
66 80 102
60 74 94
60 74 95
63 76 96
62 76 98
59 74 95
62 76 98
63 78 100
64 78 100
61 75 95
65 79 101
67 82 105
67 81 103
65 80 103
62 76 97
61 76 98
60 74 95
63 78 101
65 81 104
62 77 99
63 77 97
63 78 101
63 78 99
68 83 106
60 75 96
65 78 98
61 75 96
64 78 99
62 76 96
62 77 99
67 82 105
64 78 100
62 76 97
59 73 95
67 82 103
57 71 91
65 79 101
58 71 91
67 81 103
56 69 90
59 73 93
61 76 98
63 78 100
68 84 106
61 75 96
63 77 99
67 81 103
72 86 108
192 218 255
192 218 255
192 218 255
192 218 255
192 218 255
192 218 255
192 218 255
192 218 255
192 218 255
192 218 255
192 218 255
192 218 255
192 218 255
192 218 255
192 218 255
192 218 255
192 218 255
192 218 255
192 218 255
192 218 255
192 218 255
192 218 255
192 218 255
192 218 255
192 218 255
192 218 255
192 218 255
192 218 255
192 218 255
192 218 255
192 218 255
192 218 255
192 218 255
192 218 255
192 218 255
192 218 255
192 218 255
192 218 255
192 218 255
192 218 255
192 218 255
192 218 255
192 218 255
192 218 255
192 218 255
192 218 255
192 218 255
192 218 255
192 218 255
192 218 255
192 218 255
192 218 255
192 218 255
192 218 255
192 218 255
192 218 255
192 218 255
192 218 255
192 218 255
192 218 255
192 218 255
192 218 255
192 218 255
192 218 255
192 218 255
192 218 255
192 218 255
192 218 255
192 218 255
192 218 255
192 218 255
192 218 255
192 218 255
192 218 255
192 218 255
192 218 255
192 218 255
192 218 255
192 218 255
192 218 255
192 218 255
192 218 255
192 218 255
192 218 255
192 218 255
192 218 255
192 218 255
192 218 255
192 218 255
192 217 255
192 217 255
192 218 255
192 217 255
192 218 255
192 217 255
192 217 255
192 217 255
192 217 255
192 217 255
192 217 255
192 217 255
192 217 255
192 217 255
192 217 255
192 217 255
192 217 255
192 217 255
192 217 255
192 217 255
192 217 255
192 217 255
192 217 255
192 217 255
192 217 255
192 217 255
192 217 255
192 217 255
192 217 255
192 217 255
192 217 255
192 217 255
192 217 255
192 217 255
192 217 255
192 217 255
192 217 255
192 217 255
192 217 255
192 217 255
192 217 255
192 217 255
192 217 255
192 217 255
192 217 255
192 217 255
192 218 255
192 218 255
192 218 255
192 218 255
192 218 255
192 218 255
192 218 255
192 218 255
192 218 255
192 218 255
192 218 255
192 218 255
192 218 255
192 218 255
192 218 255
192 218 255
192 218 255
192 218 255
192 218 255
192 218 255
192 218 255
192 218 255
192 218 255
192 218 255
192 218 255
192 218 255
192 218 255
192 218 255
192 218 255
192 218 255
192 218 255
192 218 255
192 218 255
192 218 255
192 218 255
192 218 255
192 218 255
192 218 255
192 218 255
192 218 255
192 218 255
192 218 255
193 218 255
192 218 255
192 218 255
193 218 255
193 218 255
193 218 255
193 218 255
193 218 255
193 218 255
193 218 255
193 218 255
193 218 255
193 218 255
193 218 255
193 218 255
193 218 255
193 218 255
193 218 255
193 218 255
193 218 255
193 218 255
193 218 255
193 218 255
193 218 255
193 218 255
193 218 255
193 218 255
193 218 255
193 218 255
193 218 255
193 218 255
193 218 255
193 218 255
193 218 255
193 218 255
193 218 255
193 218 255
193 218 255
193 218 255
193 218 255
193 218 255
193 218 255
193 218 255
193 218 255
193 218 255
193 218 255
193 218 255
193 218 255
193 218 255
193 218 255
193 218 255
193 218 255
193 218 255
193 218 255
193 218 255
193 218 255
193 218 255
193 218 255
193 218 255
193 218 255
193 218 255
193 218 255
193 218 255
193 218 255
193 218 255
193 218 255
193 218 255
193 218 255
193 218 255
193 218 255
193 218 255
193 218 255
193 218 255
193 218 255
193 218 255
193 218 255
193 218 255
193 218 255
193 218 255
193 218 255
193 218 255
193 218 255
193 218 255
193 218 255
193 218 255
193 218 255
193 218 255
193 218 255
193 218 255
193 218 255
193 218 255
193 218 255
193 218 255
82 97 121
60 74 95
63 77 98
60 74 96
65 79 102
64 78 99
66 79 100
60 73 93
67 81 103
65 80 103
60 75 96
60 73 94
64 79 101
63 78 99
59 74 96
62 76 97
61 75 96
62 75 96
59 73 94
64 79 100
67 82 104
61 74 95
61 75 95
63 79 102
64 79 101
62 76 96
59 73 94
60 74 95
57 71 91
64 78 99
61 75 97
60 74 95
63 77 99
63 77 99
63 77 98
62 76 99
61 76 98
61 75 95
63 77 99
66 81 103
61 76 97
59 73 94
63 77 99
59 73 94
61 75 96
68 82 104
64 78 99
63 77 98
60 74 95
61 76 99
58 72 93
61 75 96
59 73 95
62 76 97
61 75 96
60 73 92
64 78 99
63 77 99
62 76 98
65 80 102
61 76 97
64 79 101
64 78 100
61 76 98
53 66 85
64 77 98
61 76 97
63 78 101
62 76 97
63 78 99
64 78 99
62 77 99
58 71 92
60 75 96
63 77 98
61 75 95
64 78 100
64 79 101
61 74 95
62 76 97
65 80 102
62 77 99
60 74 95
61 75 98
66 81 103
64 78 100
61 75 97
61 75 96
63 78 99
65 79 101
63 77 99
62 76 98
60 74 96
57 71 91
61 75 95
65 79 101
65 80 102
60 74 95
59 73 94
63 77 98
61 75 96
67 81 103
61 75 95
61 75 95
57 70 91
63 77 97
64 78 100
60 73 94
62 76 97
60 75 96
60 74 95
63 78 101
63 77 99
59 72 93
58 72 93
62 77 98
65 79 101
61 75 96
59 74 95
61 76 98
62 76 96
62 77 98
61 75 97
61 75 97
58 71 91
61 75 96
66 80 102
67 81 102
58 71 91
78 94 118
193 218 255
193 218 255
193 218 255
193 218 255
193 218 255
193 218 255
193 218 255
193 218 255
193 218 255
193 218 255
193 218 255
193 218 255
193 218 255
193 218 255
193 218 255
193 218 255
193 218 255
193 218 255
193 218 255
193 218 255
193 218 255
193 218 255
193 218 255
193 218 255
193 218 255
193 218 255
193 218 255
193 218 255
193 218 255
193 218 255
193 218 255
193 218 255
193 218 255
193 218 255
193 218 255
193 218 255
193 218 255
193 218 255
193 218 255
193 218 255
193 218 255
193 218 255
193 218 255
193 218 255
193 218 255
193 218 255
193 218 255
193 218 255
193 218 255
193 218 255
193 218 255
193 218 255
193 218 255
193 218 255
193 218 255
193 218 255
193 218 255
193 218 255
193 218 255
193 218 255
193 218 255
193 218 255
193 218 255
193 218 255
193 218 255
193 218 255
193 218 255
193 218 255
193 218 255
193 218 255
193 218 255
193 218 255
193 218 255
193 218 255
193 218 255
193 218 255
193 218 255
193 218 255
193 218 255
193 218 255
193 218 255
193 218 255
193 218 255
193 218 255
193 218 255
193 218 255
193 218 255
192 218 255
193 218 255
192 218 255
192 218 255
193 218 255
192 218 255
192 218 255
192 218 255
192 218 255
192 218 255
192 218 255
192 218 255
192 218 255
192 218 255
192 218 255
192 218 255
192 218 255
192 218 255
192 218 255
192 218 255
192 218 255
192 218 255
192 218 255
192 218 255
192 218 255
192 218 255
192 218 255
192 218 255
192 218 255
192 218 255
192 218 255
192 218 255
192 218 255
192 218 255
192 218 255
192 218 255
192 218 255
192 218 255
192 218 255
192 218 255
192 218 255
192 218 255
192 218 255
192 218 255
192 218 255
192 218 255
192 218 255
192 218 255
193 218 255
193 218 255
193 218 255
193 218 255
193 218 255
193 218 255
193 218 255
193 218 255
193 218 255
193 218 255
193 218 255
193 218 255
193 218 255
193 218 255
193 218 255
193 218 255
193 218 255
193 218 255
193 218 255
193 218 255
193 218 255
193 218 255
193 218 255
193 218 255
193 218 255
193 218 255
193 218 255
193 218 255
193 218 255
193 218 255
193 218 255
193 218 255
193 218 255
193 218 255
193 218 255
193 218 255
193 218 255
193 218 255
193 218 255
193 218 255
193 218 255
193 218 255
193 218 255
193 218 255
193 218 255
193 218 255
193 218 255
193 218 255
193 218 255
193 218 255
193 218 255
193 218 255
193 218 255
193 218 255
193 218 255
193 218 255
193 218 255
193 218 255
193 218 255
193 218 255
193 218 255
193 218 255
193 218 255
193 218 255
193 218 255
193 218 255
193 218 255
193 218 255
193 218 255
193 218 255
193 218 255
193 218 255
193 218 255
193 218 255
193 218 255
193 218 255
193 218 255
193 218 255
193 218 255
193 218 255
193 218 255
193 218 255
193 218 255
193 218 255
193 218 255
193 218 255
193 218 255
193 218 255
193 218 255
193 218 255
193 218 255
193 218 255
193 218 255
193 218 255
193 218 255
193 218 255
193 218 255
193 218 255
193 218 255
193 218 255
193 218 255
193 218 255
193 218 255
193 218 255
193 218 255
193 218 255
193 218 255
193 218 255
193 218 255
193 218 255
193 218 255
193 218 255
193 218 255
193 218 255
193 218 255
193 218 255
193 218 255
193 218 255
193 218 255
193 218 255
193 218 255
193 218 255
193 218 255
193 218 255
193 218 255
193 218 255
193 218 255
193 218 255
193 218 255
193 218 255
193 218 255
193 218 255
193 218 255
193 218 255
193 218 255
84 99 122
62 76 97
62 76 96
64 79 101
64 78 99
58 72 93
63 78 99
61 75 96
63 76 97
60 74 96
61 75 96
63 77 97
66 81 103
62 76 98
63 77 99
63 77 97
64 78 99
60 75 96
62 75 96
63 77 98
62 76 98
63 78 99
65 80 102
61 76 97
62 76 97
59 73 93
61 75 97
60 74 94
66 80 103
60 74 95
61 75 97
64 78 99
63 78 101
64 77 98
62 76 97
68 83 105
59 73 93
68 84 106
59 72 92
59 73 93
63 76 97
58 72 92
62 76 97
64 79 100
64 78 98
62 76 97
65 80 102
56 70 90
55 67 86
61 75 96
57 71 92
62 76 97
62 76 97
64 77 98
63 77 98
63 78 99
58 73 94
61 76 98
61 74 95
60 74 96
60 74 95
65 80 102
67 81 103
62 76 98
62 76 96
60 74 95
65 79 101
62 76 98
64 79 102
62 76 97
61 75 96
63 78 101
60 74 95
58 71 91
60 74 94
61 75 97
66 80 101
62 76 97
60 75 97
58 72 93
64 79 100
59 73 95
61 75 97
62 76 97
63 78 99
61 74 95
62 76 98
65 79 101
64 79 100
71 86 109
62 76 97
61 75 97
66 81 103
61 75 96
55 69 89
62 76 98
66 80 102
62 76 97
57 72 93
65 80 103
66 81 103
58 72 93
62 76 97
61 75 95
59 73 94
60 74 95
65 79 102
63 77 98
61 75 96
62 76 98
58 72 92
59 73 93
65 80 102
57 70 91
60 74 95
60 75 96
63 77 98
59 72 93
64 77 98
62 76 97
59 73 94
57 71 90
61 75 96
59 73 94
67 81 103
56 69 90
58 71 91
60 74 96
62 76 97
90 107 133
193 218 255
193 218 255
193 218 255
193 218 255
193 218 255
193 218 255
193 218 255
193 218 255
193 218 255
193 218 255
193 218 255
193 218 255
193 218 255
193 218 255
193 218 255
193 218 255
193 218 255
193 218 255
193 218 255
193 218 255
193 218 255
193 218 255
193 218 255
193 218 255
193 218 255
193 218 255
193 218 255
193 218 255
193 218 255
193 218 255
193 218 255
193 218 255
193 218 255
193 218 255
193 218 255
193 218 255
193 218 255
193 218 255
193 218 255
193 218 255
193 218 255
193 218 255
193 218 255
193 218 255
193 218 255
193 218 255
193 218 255
193 218 255
193 218 255
193 218 255
193 218 255
193 218 255
193 218 255
193 218 255
193 218 255
193 218 255
193 218 255
193 218 255
193 218 255
193 218 255
193 218 255
193 218 255
193 218 255
193 218 255
193 218 255
193 218 255
193 218 255
193 218 255
193 218 255
193 218 255
193 218 255
193 218 255
193 218 255
193 218 255
193 218 255
193 218 255
193 218 255
193 218 255
193 218 255
193 218 255
193 218 255
193 218 255
193 218 255
193 218 255
193 218 255
193 218 255
193 218 255
193 218 255
193 218 255
193 218 255
193 218 255
193 218 255
193 218 255
193 218 255
193 218 255
193 218 255
193 218 255
193 218 255
193 218 255
193 218 255
193 218 255
193 218 255
193 218 255
193 218 255
193 218 255
193 218 255
193 218 255
193 218 255
193 218 255
193 218 255
193 218 255
193 218 255
193 218 255
193 218 255
193 218 255
193 218 255
193 218 255
193 218 255
193 218 255
193 218 255
193 218 255
193 218 255
193 218 255
193 218 255
193 218 255
193 218 255
193 218 255
193 218 255
193 218 255
193 218 255
193 218 255
193 218 255
193 218 255
193 218 255
193 218 255
193 218 255
193 218 255
193 218 255
193 218 255
193 218 255
193 218 255
193 218 255
193 218 255
193 218 255
193 218 255
193 218 255
193 218 255
193 218 255
193 218 255
193 218 255
193 218 255
193 218 255
193 218 255
193 218 255
193 218 255
193 218 255
193 218 255
193 218 255
193 218 255
193 218 255
193 218 255
193 218 255
193 218 255
193 218 255
193 218 255
193 218 255
193 218 255
193 218 255
193 218 255
193 218 255
193 218 255
193 218 255
193 218 255
193 218 255
193 218 255
193 218 255
193 218 255
193 218 255
193 218 255
193 218 255
193 218 255
193 218 255
193 218 255
193 218 255
193 218 255
193 218 255
193 218 255
193 218 255
193 218 255
193 218 255
193 218 255
193 218 255
193 218 255
193 218 255
193 218 255
193 218 255
193 218 255
193 218 255
193 218 255
193 218 255
193 218 255
193 218 255
193 218 255
193 218 255
193 218 255
193 218 255
193 218 255
193 218 255
193 218 255
193 218 255
193 218 255
193 218 255
193 218 255
193 218 255
193 218 255
193 218 255
193 218 255
193 218 255
193 218 255
193 218 255
194 218 255
194 218 255
194 218 255
194 218 255
194 218 255
194 218 255
194 218 255
194 218 255
194 218 255
194 218 255
194 218 255
194 218 255
194 218 255
194 218 255
194 218 255
194 218 255
194 218 255
194 218 255
194 218 255
194 218 255
194 218 255
194 218 255
194 218 255
194 218 255
194 218 255
194 218 255
194 218 255
194 218 255
194 218 255
194 218 255
194 218 255
194 218 255
194 218 255
194 218 255
194 218 255
194 218 255
194 218 255
194 218 255
194 219 255
194 219 255
194 219 255
194 219 255
194 219 255
194 219 255
194 219 255
194 219 255
194 219 255
194 219 255
194 219 255
194 219 255
94 111 136
60 75 96
65 78 98
61 75 95
56 69 89
59 73 94
60 74 95
62 76 96
57 71 91
65 79 101
66 80 101
59 73 93
60 74 95
60 74 95
58 72 92
59 73 94
63 77 98
64 78 98
61 75 96
66 80 102
62 77 98
62 76 98
61 74 95
60 74 94
58 72 93
63 78 99
62 76 97
64 79 101
60 74 95
61 75 96
65 79 101
59 73 93
62 76 97
66 80 103
62 77 98
58 72 93
62 76 97
63 77 99
62 76 98
61 75 96
63 76 97
58 72 92
65 80 102
66 81 103
60 74 95
63 77 98
60 74 94
66 80 102
61 75 95
62 76 98
58 72 92
59 73 93
56 70 91
64 79 100
58 72 92
61 75 96
59 73 94
59 73 93
61 75 95
64 79 100
62 77 99
64 78 99
60 75 96
59 72 92
63 78 100
65 80 103
64 78 99
62 76 98
62 76 98
59 73 94
61 76 98
63 78 100
60 73 94
62 76 97
60 74 95
66 80 101
64 78 99
62 76 97
61 75 95
65 80 102
58 72 92
63 77 98
63 77 98
63 77 99
64 78 100
60 74 95
59 73 94
61 75 96
61 75 95
59 72 92
63 77 99
62 76 98
64 78 100
59 73 95
60 73 94
60 74 95
59 73 93
63 77 99
61 75 96
68 84 107
61 75 96
63 77 98
61 75 95
63 77 98
58 72 93
64 78 98
66 79 100
56 69 89
60 74 94
58 72 93
63 78 100
58 70 89
65 79 101
62 75 95
60 74 95
66 79 100
60 74 95
61 76 98
64 78 99
62 76 98
62 76 97
60 74 96
60 74 95
63 77 98
60 74 95
59 72 93
62 75 96
65 80 103
57 72 93
96 112 137
194 219 255
194 219 255
194 219 255
194 219 255
194 219 255
194 219 255
194 219 255
194 219 255
194 219 255
194 219 255
194 219 255
194 219 255
194 219 255
194 219 255
194 218 255
194 218 255
194 218 255
194 218 255
194 218 255
194 218 255
194 218 255
194 218 255
194 218 255
194 218 255
194 218 255
194 218 255
194 218 255
194 218 255
194 218 255
194 218 255
194 218 255
194 218 255
194 218 255
194 218 255
194 218 255
194 218 255
194 218 255
194 218 255
194 218 255
194 218 255
194 218 255
194 218 255
194 218 255
194 218 255
194 218 255
194 218 255
194 218 255
194 218 255
193 218 255
194 218 255
193 218 255
193 218 255
193 218 255
193 218 255
193 218 255
193 218 255
193 218 255
193 218 255
193 218 255
193 218 255
193 218 255
193 218 255
193 218 255
193 218 255
193 218 255
193 218 255
193 218 255
193 218 255
193 218 255
193 218 255
193 218 255
193 218 255
193 218 255
193 218 255
193 218 255
193 218 255
193 218 255
193 218 255
193 218 255
193 218 255
193 218 255
193 218 255
193 218 255
193 218 255
193 218 255
193 218 255
193 218 255
193 218 255
193 218 255
193 218 255
193 218 255
193 218 255
193 218 255
193 218 255
193 218 255
193 218 255
193 218 255
193 218 255
193 218 255
193 218 255
193 218 255
193 218 255
193 218 255
193 218 255
193 218 255
193 218 255
193 218 255
193 218 255
193 218 255
193 218 255
193 218 255
193 218 255
193 218 255
193 218 255
193 218 255
193 218 255
193 218 255
193 218 255
193 218 255
193 218 255
193 218 255
193 218 255
193 218 255
193 218 255
193 218 255
193 218 255
193 218 255
193 218 255
193 218 255
193 218 255
193 218 255
193 218 255
193 218 255
193 218 255
193 218 255
193 218 255
193 218 255
193 218 255
193 218 255
193 218 255
193 218 255
193 218 255
193 218 255
193 218 255
193 218 255
193 218 255
193 218 255
193 218 255
193 218 255
193 218 255
193 218 255
193 218 255
193 218 255
193 218 255
193 218 255
193 218 255
193 218 255
193 218 255
193 218 255
193 218 255
193 218 255
193 218 255
193 218 255
193 218 255
193 218 255
193 218 255
193 218 255
193 218 255
193 218 255
193 218 255
193 218 255
193 218 255
193 218 255
193 218 255
193 218 255
193 218 255
193 218 255
193 218 255
193 218 255
194 218 255
194 218 255
193 218 255
194 218 255
194 218 255
194 218 255
194 218 255
194 218 255
194 218 255
194 218 255
194 218 255
194 218 255
194 218 255
194 218 255
194 218 255
194 218 255
194 218 255
194 218 255
194 218 255
194 218 255
194 218 255
194 218 255
194 218 255
194 218 255
194 218 255
194 218 255
194 218 255
194 218 255
194 218 255
194 218 255
194 218 255
194 218 255
194 218 255
194 218 255
194 218 255
194 218 255
194 219 255
194 219 255
194 219 255
194 219 255
194 219 255
194 219 255
194 219 255
194 219 255
194 219 255
194 219 255
194 219 255
194 219 255
194 219 255
194 219 255
194 219 255
194 219 255
194 219 255
194 219 255
194 219 255
194 219 255
194 219 255
194 219 255
194 219 255
194 219 255
194 219 255
194 219 255
194 219 255
194 219 255
194 219 255
194 219 255
194 219 255
194 219 255
194 219 255
194 219 255
194 219 255
194 219 255
194 219 255
194 219 255
194 219 255
194 219 255
194 219 255
194 219 255
194 219 255
194 219 255
194 219 255
194 219 255
194 219 255
194 219 255
194 219 255
194 219 255
194 219 255
194 219 255
194 219 255
194 219 255
194 219 255
113 132 159
58 71 91
60 73 94
61 75 95
61 75 96
60 73 94
60 73 94
62 76 97
61 75 95
57 71 92
63 77 98
59 74 96
59 74 95
58 71 91
61 75 97
65 79 100
63 76 97
58 72 92
65 80 103
66 81 103
62 76 97
60 74 95
63 77 98
60 73 94
64 79 101
65 78 99
66 80 102
68 83 106
68 84 106
62 76 97
59 73 93
63 78 99
61 76 97
61 75 96
64 79 100
57 71 92
65 79 101
61 75 96
62 76 97
60 74 95
57 70 90
62 77 99
64 80 103
61 76 97
63 78 100
63 78 99
60 74 95
61 74 94
57 70 91
64 78 99
62 76 98
58 72 92
66 81 103
58 71 91
62 77 98
62 77 99
62 75 95
61 75 96
60 73 94
62 76 98
60 73 93
64 78 100
61 76 98
57 71 92
66 80 101
61 75 96
61 75 95
61 75 96
60 73 94
65 79 100
64 80 102
65 80 102
63 77 99
57 71 92
56 69 89
61 76 97
58 72 93
61 75 96
61 75 95
60 75 96
62 76 98
59 74 95
63 77 98
57 70 90
62 76 97
62 77 99
62 76 96
67 81 103
62 77 98
59 74 95
60 74 96
61 75 96
63 77 97
58 72 92
57 70 89
59 73 93
63 78 99
63 77 98
64 78 100
59 73 94
61 75 96
61 75 96
66 80 102
62 75 96
65 80 101
64 79 102
63 78 100
60 74 95
57 70 90
57 70 91
65 80 102
61 75 95
61 74 94
60 74 94
58 72 93
61 76 98
62 76 98
61 75 95
61 76 97
62 76 97
60 74 95
62 75 96
67 81 103
58 71 91
59 74 95
64 78 98
61 75 96
60 74 96
66 80 102
117 136 164
194 219 255
194 219 255
194 219 255
194 219 255
194 219 255
194 219 255
194 219 255
194 219 255
194 219 255
194 219 255
194 219 255
194 219 255
194 219 255
194 219 255
194 219 255
194 219 255
194 219 255
194 219 255
194 219 255
194 219 255
194 219 255
194 219 255
194 219 255
194 219 255
194 219 255
194 219 255
194 219 255
194 219 255
194 219 255
194 219 255
194 219 255
194 219 255
194 219 255
194 219 255
194 219 255
194 219 255
194 219 255
194 219 255
194 219 255
194 219 255
194 219 255
194 219 255
194 219 255
194 219 255
194 219 255
194 219 255
194 219 255
194 219 255
194 219 255
194 219 255
194 219 255
194 219 255
194 219 255
194 219 255
194 219 255
194 218 255
194 218 255
194 218 255
194 218 255
194 218 255
194 218 255
194 218 255
194 218 255
194 218 255
194 218 255
194 218 255
194 218 255
194 218 255
194 218 255
194 218 255
194 218 255
194 218 255
194 218 255
194 218 255
194 218 255
194 218 255
194 218 255
194 218 255
194 218 255
194 218 255
194 218 255
194 218 255
194 218 255
194 218 255
194 218 255
194 218 255
194 218 255
194 218 255
194 218 255
194 218 255
193 218 255
193 218 255
193 218 255
193 218 255
193 218 255
193 218 255
193 218 255
193 218 255
193 218 255
193 218 255
193 218 255
193 218 255
193 218 255
193 218 255
193 218 255
193 218 255
193 218 255
193 218 255
193 218 255
193 218 255
193 218 255
193 218 255
193 218 255
193 218 255
193 218 255
193 218 255
193 218 255
193 218 255
193 218 255
193 218 255
193 218 255
193 218 255
193 218 255
193 218 255
193 218 255
193 218 255
193 218 255
193 218 255
193 218 255
193 218 255
193 218 255
193 218 255
193 218 255
193 218 255
193 218 255
193 218 255
193 218 255
193 218 255
193 218 255
193 218 255
193 218 255
194 218 255
194 218 255
194 218 255
194 218 255
194 218 255
194 218 255
194 218 255
194 218 255
194 218 255
194 218 255
194 218 255
194 218 255
194 218 255
194 218 255
194 218 255
194 218 255
194 218 255
194 218 255
194 218 255
194 218 255
194 218 255
194 218 255
194 218 255
194 218 255
194 218 255
194 218 255
194 218 255
194 218 255
194 218 255
194 218 255
194 218 255
194 218 255
194 218 255
194 218 255
194 218 255
194 218 255
194 218 255
194 219 255
194 219 255
194 218 255
194 219 255
194 219 255
194 219 255
194 219 255
194 219 255
194 219 255
194 219 255
194 219 255
194 219 255
194 219 255
194 219 255
194 219 255
194 219 255
194 219 255
194 219 255
194 219 255
194 219 255
194 219 255
194 219 255
194 219 255
194 219 255
194 219 255
194 219 255
194 219 255
194 219 255
194 219 255
194 219 255
194 219 255
194 219 255
194 219 255
194 219 255
194 219 255
194 219 255
194 219 255
194 219 255
194 219 255
194 219 255
194 219 255
194 219 255
194 219 255
194 219 255
194 219 255
194 219 255
194 219 255
194 219 255
194 219 255
194 219 255
194 219 255
194 219 255
194 219 255
194 219 255
194 219 255
194 219 255
194 219 255
194 219 255
194 219 255
195 219 255
195 219 255
195 219 255
195 219 255
195 219 255
195 219 255
195 219 255
195 219 255
195 219 255
195 219 255
195 219 255
195 219 255
195 219 255
195 219 255
195 219 255
195 219 255
195 219 255
195 219 255
195 219 255
195 219 255
195 219 255
195 219 255
195 219 255
195 219 255
195 219 255
195 219 255
195 219 255
195 219 255
195 219 255
195 219 255
195 219 255
195 219 255
195 219 255
125 143 170
57 72 93
64 79 102
61 76 97
58 72 93
57 70 91
62 76 97
61 74 95
58 73 95
56 69 88
62 77 98
66 81 103
65 79 100
60 73 93
64 78 100
54 67 87
63 78 99
64 78 98
62 76 97
57 71 92
62 76 98
62 76 97
60 74 95
64 78 100
60 74 96
61 75 96
60 73 93
62 76 97
59 73 93
64 78 99
62 75 96
60 74 95
63 77 97
59 74 95
61 74 93
60 73 94
63 78 99
66 80 102
63 77 99
61 75 96
60 73 93
61 75 95
65 79 100
63 77 99
64 79 103
61 74 95
56 70 91
64 78 100
57 70 89
60 74 95
61 75 95
63 78 100
62 76 97
61 75 95
58 71 92
63 77 98
64 79 101
64 79 101
63 78 99
61 76 98
62 76 96
61 76 97
60 73 93
62 76 98
61 74 95
64 78 98
61 76 97
61 75 96
61 74 94
63 77 97
60 74 95
60 74 95
60 74 94
57 71 90
69 83 105
60 74 95
61 75 97
59 73 93
61 75 96
61 75 95
57 70 90
61 75 96
61 76 98
60 73 94
60 75 96
66 80 101
61 76 97
58 72 94
61 76 97
61 76 97
63 77 97
59 72 93
67 82 103
57 70 91
62 76 96
60 75 96
60 74 95
59 72 92
61 74 94
60 73 94
65 79 99
60 73 94
62 75 96
61 75 95
61 75 96
63 76 97
62 76 98
57 70 90
59 73 93
62 77 99
62 76 97
60 75 96
61 75 95
60 75 97
59 73 95
60 74 96
56 70 90
61 75 96
62 77 98
60 73 93
61 75 96
57 70 91
63 78 99
65 78 99
61 74 95
66 80 100
65 79 100
62 76 96
64 79 100
135 155 185
195 219 255
195 219 255
195 219 255
195 219 255
195 219 255
195 219 255
195 219 255
195 219 255
195 219 255
195 219 255
195 219 255
195 219 255
195 219 255
195 219 255
195 219 255
195 219 255
195 219 255
195 219 255
195 219 255
195 219 255
195 219 255
195 219 255
195 219 255
195 219 255
195 219 255
195 219 255
195 219 255
195 219 255
195 219 255
195 219 255
195 219 255
195 219 255
195 219 255
194 219 255
194 219 255
194 219 255
194 219 255
194 219 255
194 219 255
194 219 255
194 219 255
194 219 255
194 219 255
194 219 255
194 219 255
194 219 255
194 219 255
194 219 255
194 219 255
194 219 255
194 219 255
194 219 255
194 219 255
194 219 255
194 219 255
194 219 255
194 219 255
194 219 255
194 219 255
194 219 255
194 219 255
194 219 255
194 219 255
194 219 255
194 219 255
194 219 255
194 219 255
194 219 255
194 219 255
194 219 255
194 219 255
194 219 255
194 219 255
194 219 255
194 219 255
194 219 255
194 219 255
194 219 255
194 219 255
194 219 255
194 219 255
194 219 255
194 219 255
194 219 255
194 219 255
194 219 255
194 219 255
194 219 255
194 219 255
194 219 255
194 219 255
194 218 255
194 218 255
194 218 255
194 218 255
194 218 255
194 218 255
194 218 255
194 218 255
194 218 255
194 218 255
194 218 255
194 218 255
194 218 255
194 218 255
194 218 255
194 218 255
194 218 255
194 218 255
194 218 255
194 218 255
194 218 255
194 218 255
194 218 255
194 218 255
194 218 255
194 218 255
194 218 255
194 218 255
194 218 255
194 218 255
194 218 255
194 218 255
194 218 255
194 218 255
194 218 255
194 218 255
194 218 255
193 218 255
193 218 255
193 218 255
193 218 255
193 218 255
193 218 255
193 218 255
194 218 255
194 218 255
194 218 255
194 218 255
194 218 255
194 218 255
194 218 255
194 218 255
194 218 255
194 218 255
194 218 255
194 218 255
194 218 255
194 219 255
194 219 255
194 219 255
194 219 255
194 219 255
194 219 255
194 219 255
194 219 255
194 219 255
194 219 255
194 219 255
194 219 255
194 219 255
194 219 255
194 219 255
194 219 255
194 219 255
194 219 255
194 219 255
194 219 255
194 219 255
194 219 255
194 219 255
194 219 255
194 219 255
194 219 255
194 219 255
194 219 255
194 219 255
194 219 255
194 219 255
194 219 255
194 219 255
194 219 255
194 219 255
194 219 255
194 219 255
194 219 255
194 219 255
194 219 255
194 219 255
194 219 255
194 219 255
194 219 255
194 219 255
194 219 255
194 219 255
194 219 255
194 219 255
194 219 255
194 219 255
194 219 255
194 219 255
194 219 255
194 219 255
194 219 255
194 219 255
194 219 255
194 219 255
195 219 255
195 219 255
195 219 255
195 219 255
195 219 255
195 219 255
195 219 255
195 219 255
195 219 255
195 219 255
195 219 255
195 219 255
195 219 255
195 219 255
195 219 255
195 219 255
195 219 255
195 219 255
195 219 255
195 219 255
195 219 255
195 219 255
195 219 255
195 219 255
195 219 255
195 219 255
195 219 255
195 219 255
195 219 255
195 219 255
195 219 255
195 219 255
195 219 255
195 219 255
195 219 255
195 219 255
195 219 255
195 219 255
195 219 255
195 219 255
195 219 255
195 219 255
195 219 255
195 219 255
195 219 255
195 219 255
195 219 255
195 219 255
195 219 255
195 219 255
195 219 255
195 219 255
195 219 255
195 219 255
195 219 255
195 219 255
195 219 255
195 219 255
195 219 255
195 219 255
195 219 255
195 219 255
195 219 255
142 162 194
61 74 95
55 68 87
58 72 93
62 76 98
59 72 92
63 78 100
56 70 91
64 79 100
60 74 96
62 76 96
64 78 99
54 66 85
57 71 92
59 73 95
62 76 97
62 76 98
61 75 96
58 71 91
61 74 95
62 77 99
64 78 99
65 79 100
60 74 94
61 74 95
62 75 96
59 73 94
64 79 101
58 72 92
65 79 100
63 76 97
57 72 93
64 78 99
63 77 97
59 72 92
59 72 93
60 74 96
66 81 102
60 74 94
59 73 93
55 68 87
61 75 97
58 72 93
60 74 95
64 79 101
60 75 96
65 80 103
67 81 103
59 72 93
60 74 95
64 78 100
60 73 94
58 72 92
66 81 103
63 77 99
61 75 97
61 76 98
62 76 98
60 74 95
64 79 101
62 76 97
58 71 91
61 74 95
57 69 89
62 76 97
64 79 100
65 80 102
61 75 96
61 75 96
60 73 94
60 75 96
61 75 96
64 78 99
59 72 92
63 77 99
58 71 91
60 74 94
62 76 97
63 77 98
60 74 95
63 77 98
63 77 99
59 72 92
59 72 93
58 71 91
58 72 92
63 78 100
61 75 96
63 77 99
63 79 102
59 74 95
59 73 93
61 75 95
59 73 94
64 79 101
57 70 90
63 77 98
63 77 98
60 73 93
66 80 101
60 74 94
57 70 90
65 79 100
61 75 96
60 74 94
63 78 100
58 71 91
58 72 94
59 73 93
57 70 90
55 69 90
61 74 94
61 76 97
59 73 95
63 77 99
58 72 92
63 77 98
60 75 97
60 73 93
62 76 97
65 79 101
64 77 98
60 74 94
67 81 102
63 77 98
59 72 93
60 73 94
60 75 96
63 78 99
123 141 169
195 219 255
195 219 255
195 219 255
195 219 255
195 219 255
195 219 255
195 219 255
195 219 255
195 219 255
195 219 255
195 219 255
195 219 255
195 219 255
195 219 255
195 219 255
195 219 255
195 219 255
195 219 255
195 219 255
195 219 255
195 219 255
195 219 255
195 219 255
195 219 255
195 219 255
195 219 255
195 219 255
195 219 255
195 219 255
195 219 255
195 219 255
195 219 255
195 219 255
195 219 255
195 219 255
195 219 255
195 219 255
195 219 255
195 219 255
195 219 255
195 219 255
195 219 255
195 219 255
195 219 255
195 219 255
195 219 255
195 219 255
195 219 255
195 219 255
195 219 255
195 219 255
195 219 255
195 219 255
195 219 255
195 219 255
195 219 255
195 219 255
195 219 255
195 219 255
195 219 255
195 219 255
195 219 255
195 219 255
195 219 255
194 219 255
194 219 255
194 219 255
194 219 255
194 219 255
194 219 255
194 219 255
194 219 255
194 219 255
194 219 255
194 219 255
194 219 255
194 219 255
194 219 255
194 219 255
194 219 255
194 219 255
194 219 255
194 219 255
194 219 255
194 219 255
194 219 255
194 219 255
194 219 255
194 219 255
194 219 255
194 219 255
194 219 255
194 219 255
194 219 255
194 219 255
194 219 255
194 219 255
194 219 255
194 219 255
194 219 255
194 219 255
194 219 255
194 219 255
194 219 255
194 219 255
194 219 255
194 219 255
194 219 255
194 219 255
194 219 255
194 219 255
194 219 255
194 219 255
194 219 255
194 219 255
194 219 255
194 219 255
194 219 255
194 219 255
194 219 255
194 219 255
194 219 255
194 219 255
194 218 255
194 218 255
194 218 255
194 218 255
194 218 255
194 218 255
194 218 255
194 218 255
194 218 255
194 218 255
194 218 255
194 218 255
194 219 255
194 219 255
194 219 255
194 219 255
194 219 255
194 219 255
194 219 255
194 219 255
194 219 255
194 219 255
194 219 255
194 219 255
194 219 255
194 219 255
194 219 255
194 219 255
194 219 255
194 219 255
194 219 255
194 219 255
194 219 255
194 219 255
194 219 255
194 219 255
194 219 255
194 219 255
194 219 255
194 219 255
194 219 255
194 219 255
194 219 255
194 219 255
194 219 255
194 219 255
194 219 255
194 219 255
194 219 255
194 219 255
194 219 255
194 219 255
194 219 255
194 219 255
194 219 255
194 219 255
195 219 255
195 219 255
195 219 255
195 219 255
195 219 255
195 219 255
195 219 255
195 219 255
195 219 255
195 219 255
195 219 255
195 219 255
195 219 255
195 219 255
195 219 255
195 219 255
195 219 255
195 219 255
195 219 255
195 219 255
195 219 255
195 219 255
195 219 255
195 219 255
195 219 255
195 219 255
195 219 255
195 219 255
195 219 255
195 219 255
195 219 255
195 219 255
195 219 255
195 219 255
195 219 255
195 219 255
195 219 255
195 219 255
195 219 255
195 219 255
195 219 255
195 219 255
195 219 255
195 219 255
195 219 255
195 219 255
195 219 255
195 219 255
195 219 255
195 219 255
195 219 255
195 219 255
195 219 255
195 219 255
195 219 255
195 219 255
195 219 255
195 219 255
195 219 255
195 219 255
195 219 255
195 219 255
195 219 255
195 219 255
195 219 255
195 219 255
196 220 255
196 220 255
196 220 255
196 220 255
196 220 255
196 220 255
196 220 255
196 220 255
196 220 255
196 220 255
196 220 255
196 220 255
196 220 255
196 220 255
196 220 255
196 220 255
196 220 255
196 220 255
196 220 255
196 220 255
196 220 255
196 220 255
196 220 255
196 220 255
196 220 255
161 183 215
56 69 87
61 75 96
58 72 93
59 73 94
58 71 91
60 74 94
61 75 96
61 75 95
62 76 98
59 73 93
63 77 98
60 74 95
60 74 93
63 77 98
60 74 95
61 75 97
61 75 96
63 76 97
58 72 93
57 71 92
61 75 95
56 70 91
60 74 95
57 70 91
59 71 90
60 73 93
57 70 90
61 75 95
65 79 100
61 75 95
63 77 98
58 71 91
58 72 92
64 79 100
62 76 97
62 76 97
60 74 94
64 78 98
56 69 88
64 77 98
61 74 95
60 73 93
64 79 101
61 75 96
61 74 95
63 78 99
62 75 95
57 71 92
60 74 95
57 71 92
59 73 94
58 72 93
57 70 91
63 77 97
63 78 100
58 71 91
59 73 94
58 72 93
63 78 99
63 77 97
53 66 85
62 76 98
63 78 99
58 72 92
61 75 95
62 76 96
59 72 92
61 74 95
61 75 95
65 79 100
68 82 102
63 78 100
61 74 95
64 79 101
60 74 95
59 72 93
63 77 98
62 76 97
59 72 92
63 78 99
60 74 94
54 68 88
59 73 93
64 78 99
62 76 97
58 71 92
64 79 100
59 73 93
55 69 89
62 76 97
55 68 87
60 74 94
62 76 97
62 76 97
62 76 97
59 72 91
62 76 97
61 75 96
65 80 101
64 78 100
62 77 99
64 77 98
64 78 99
67 81 102
61 75 96
61 75 95
59 72 92
62 76 98
54 67 87
60 74 95
63 77 98
62 76 97
53 67 87
59 72 92
60 74 96
58 71 92
62 76 98
62 76 96
60 74 95
59 73 95
58 71 91
62 75 96
61 74 95
56 69 88
62 75 95
64 78 99
59 72 92
56 69 89
153 173 204
196 220 255
196 220 255
196 220 255
196 220 255
196 220 255
196 220 255
196 220 255
196 220 255
196 220 255
196 220 255
196 220 255
196 220 255
196 220 255
196 220 255
196 220 255
196 220 255
196 220 255
196 220 255
196 220 255
196 220 255
196 220 255
196 220 255
196 220 255
196 220 255
196 220 255
195 219 255
195 219 255
195 219 255
195 219 255
195 219 255
195 219 255
195 219 255
195 219 255
195 219 255
195 219 255
195 219 255
195 219 255
195 219 255
195 219 255
195 219 255
195 219 255
195 219 255
195 219 255
195 219 255
195 219 255
195 219 255
195 219 255
195 219 255
195 219 255
195 219 255
195 219 255
195 219 255
195 219 255
195 219 255
195 219 255
195 219 255
195 219 255
195 219 255
195 219 255
195 219 255
195 219 255
195 219 255
195 219 255
195 219 255
195 219 255
195 219 255
195 219 255
195 219 255
195 219 255
195 219 255
195 219 255
195 219 255
195 219 255
195 219 255
195 219 255
195 219 255
195 219 255
195 219 255
195 219 255
195 219 255
195 219 255
195 219 255
195 219 255
195 219 255
195 219 255
195 219 255
195 219 255
195 219 255
195 219 255
195 219 255
194 219 255
194 219 255
194 219 255
194 219 255
194 219 255
194 219 255
194 219 255
194 219 255
194 219 255
194 219 255
194 219 255
194 219 255
194 219 255
194 219 255
194 219 255
194 219 255
194 219 255
194 219 255
194 219 255
194 219 255
194 219 255
194 219 255
194 219 255
194 219 255
194 219 255
194 219 255
194 219 255
194 219 255
194 219 255
194 219 255
194 219 255
194 219 255
194 219 255
194 219 255
194 219 255
194 219 255
194 219 255
194 219 255
194 219 255
194 219 255
194 219 255
194 219 255
194 219 255
194 219 255
194 219 255
194 219 255
194 219 255
194 219 255
194 219 255
194 219 255
194 219 255
194 219 255
194 219 255
194 219 255
194 219 255
194 219 255
194 219 255
194 219 255
194 219 255
194 219 255
194 219 255
194 219 255
194 219 255
195 219 255
195 219 255
195 219 255
195 219 255
195 219 255
195 219 255
195 219 255
195 219 255
195 219 255
195 219 255
195 219 255
195 219 255
195 219 255
195 219 255
195 219 255
195 219 255
195 219 255
195 219 255
195 219 255
195 219 255
195 219 255
195 219 255
195 219 255
195 219 255
195 219 255
195 219 255
195 219 255
195 219 255
195 219 255
195 219 255
195 219 255
195 219 255
195 219 255
195 219 255
195 219 255
195 219 255
195 219 255
195 219 255
195 219 255
195 219 255
195 219 255
195 219 255
195 219 255
195 219 255
195 219 255
195 219 255
195 219 255
195 219 255
195 219 255
195 219 255
195 219 255
195 219 255
195 219 255
195 219 255
195 219 255
195 219 255
195 219 255
195 219 255
195 219 255
195 219 255
195 219 255
195 219 255
195 219 255
195 219 255
195 219 255
195 219 255
195 219 255
195 219 255
196 220 255
196 220 255
196 220 255
196 220 255
196 220 255
196 220 255
196 220 255
196 220 255
196 220 255
196 220 255
196 220 255
196 220 255
196 220 255
196 220 255
196 220 255
196 220 255
196 220 255
196 220 255
196 220 255
196 220 255
196 220 255
196 220 255
196 220 255
196 220 255
196 220 255
196 220 255
196 220 255
196 220 255
196 220 255
196 220 255
196 220 255
196 220 255
196 220 255
196 220 255
196 220 255
196 220 255
196 220 255
196 220 255
196 220 255
196 220 255
196 220 255
196 220 255
196 220 255
196 220 255
196 220 255
196 220 255
196 220 255
196 220 255
196 220 255
178 201 234
65 80 102
56 69 89
58 71 91
61 75 96
57 70 89
61 75 96
63 77 97
63 77 98
58 71 91
63 78 99
62 76 97
63 77 99
59 73 94
63 77 99
64 79 101
59 72 92
61 74 94
60 74 94
61 75 96
65 79 100
64 78 100
57 69 89
59 73 93
55 69 90
61 75 95
64 78 99
57 70 90
57 71 93
61 74 94
60 74 95
63 77 97
63 77 99
61 75 96
59 73 94
61 74 94
65 79 100
60 73 93
62 76 97
61 75 95
61 76 97
59 72 92
64 78 99
62 76 97
65 79 101
60 74 94
64 78 99
57 69 88
64 79 100
59 72 92
60 74 94
57 71 91
58 72 92
60 74 95
59 72 92
61 75 95
59 73 94
64 78 100
61 76 97
60 73 93
58 72 92
59 72 92
58 71 91
61 76 97
66 81 103
62 76 97
61 75 95
64 79 100
63 77 99
63 77 99
64 78 100
58 71 91
58 71 92
62 75 96
61 75 95
59 74 95
62 76 98
61 75 96
58 71 91
64 78 99
67 82 105
60 75 96
60 74 96
57 70 90
62 75 96
59 72 92
58 72 93
60 74 95
54 67 86
62 76 97
60 74 96
57 71 91
63 77 97
61 75 95
61 75 95
60 74 94
60 74 95
60 74 95
61 75 95
61 75 95
62 76 97
60 74 95
65 79 100
57 71 91
60 74 96
56 70 92
58 71 92
64 79 101
60 74 95
61 75 96
62 77 98
60 73 93
65 79 101
58 71 91
55 69 89
64 78 99
57 71 91
59 73 95
58 72 92
64 78 99
58 72 92
61 75 96
61 74 93
60 74 95
59 72 93
60 74 95
59 72 93
57 70 90
57 71 92
170 192 225
196 220 255
196 220 255
196 220 255
196 220 255
196 220 255
196 220 255
196 220 255
196 220 255
196 220 255
196 220 255
196 220 255
196 220 255
196 220 255
196 220 255
196 220 255
196 220 255
196 220 255
196 220 255
196 220 255
196 220 255
196 220 255
196 220 255
196 220 255
196 220 255
196 220 255
196 220 255
196 220 255
196 220 255
196 220 255
196 220 255
196 220 255
196 220 255
196 220 255
196 220 255
196 220 255
196 220 255
196 220 255
196 220 255
196 220 255
196 220 255
196 220 255
196 220 255
196 220 255
196 220 255
196 220 255
196 220 255
196 220 255
196 220 255
195 219 255
195 219 255
195 219 255
195 219 255
195 219 255
195 219 255
195 219 255
195 219 255
195 219 255
195 219 255
195 219 255
195 219 255
195 219 255
195 219 255
195 219 255
195 219 255
195 219 255
195 219 255
195 219 255
195 219 255
195 219 255
195 219 255
195 219 255
195 219 255
195 219 255
195 219 255
195 219 255
195 219 255
195 219 255
195 219 255
195 219 255
195 219 255
195 219 255
195 219 255
195 219 255
195 219 255
195 219 255
195 219 255
195 219 255
195 219 255
195 219 255
195 219 255
195 219 255
195 219 255
195 219 255
195 219 255
195 219 255
195 219 255
195 219 255
195 219 255
195 219 255
195 219 255
195 219 255
195 219 255
195 219 255
195 219 255
195 219 255
195 219 255
195 219 255
195 219 255
195 219 255
195 219 255
195 219 255
195 219 255
195 219 255
195 219 255
195 219 255
194 219 255
194 219 255
194 219 255
194 219 255
194 219 255
194 219 255
194 219 255
194 219 255
194 219 255
194 219 255
194 219 255
194 219 255
194 219 255
194 219 255
194 219 255
194 219 255
194 219 255
194 219 255
194 219 255
194 219 255
195 219 255
195 219 255
195 219 255
195 219 255
195 219 255
195 219 255
195 219 255
195 219 255
195 219 255
195 219 255
195 219 255
195 219 255
195 219 255
195 219 255
195 219 255
195 219 255
195 219 255
195 219 255
195 219 255
195 219 255
195 219 255
195 219 255
195 219 255
195 219 255
195 219 255
195 219 255
195 219 255
195 219 255
195 219 255
195 219 255
195 219 255
195 219 255
195 219 255
195 219 255
195 219 255
195 219 255
195 219 255
195 219 255
195 219 255
195 219 255
195 219 255
195 219 255
195 219 255
195 219 255
195 219 255
195 219 255
195 219 255
195 219 255
195 219 255
195 219 255
195 219 255
195 219 255
195 219 255
195 219 255
195 219 255
195 219 255
195 219 255
195 219 255
195 219 255
195 219 255
195 219 255
195 219 255
195 219 255
195 219 255
195 219 255
195 219 255
196 220 255
196 220 255
196 220 255
196 220 255
196 220 255
196 220 255
196 220 255
196 220 255
196 220 255
196 220 255
196 220 255
196 220 255
196 220 255
196 220 255
196 220 255
196 220 255
196 220 255
196 220 255
196 220 255
196 220 255
196 220 255
196 220 255
196 220 255
196 220 255
196 220 255
196 220 255
196 220 255
196 220 255
196 220 255
196 220 255
196 220 255
196 220 255
196 220 255
196 220 255
196 220 255
196 220 255
196 220 255
196 220 255
196 220 255
196 220 255
196 220 255
196 220 255
196 220 255
196 220 255
196 220 255
196 220 255
196 220 255
196 220 255
196 220 255
196 220 255
197 220 255
197 220 255
197 220 255
197 220 255
197 220 255
197 220 255
197 220 255
197 220 255
197 220 255
197 220 255
197 220 255
197 220 255
197 220 255
197 220 255
197 220 255
197 220 255
197 220 255
197 220 255
197 220 255
191 214 248
60 73 93
62 75 96
55 67 86
62 75 94
59 73 94
57 70 90
59 73 93
63 77 98
58 71 92
62 76 96
62 76 97
58 71 92
65 78 99
61 75 96
59 73 95
61 75 96
60 73 93
61 74 94
58 71 90
62 76 96
59 73 94
59 72 93
58 71 90
64 79 101
54 67 87
59 72 93
62 75 96
61 75 95
63 78 99
61 74 95
62 76 97
61 75 96
61 74 95
57 70 90
59 73 93
60 73 93
62 76 96
61 74 95
61 75 96
60 74 95
63 77 98
58 72 92
60 73 94
61 75 97
65 79 99
62 77 99
57 71 93
64 78 99
59 73 94
63 77 98
56 69 89
57 71 91
61 75 95
59 73 93
63 77 98
65 79 100
61 74 95
59 73 94
60 74 95
62 76 97
61 75 96
62 77 98
65 79 100
63 77 97
65 80 101
62 76 97
63 78 99
64 78 100
58 71 91
60 74 95
59 72 92
60 73 93
61 75 96
63 77 99
61 74 95
60 73 91
60 74 95
62 76 97
62 76 96
63 76 97
62 77 99
59 73 93
60 73 94
62 76 98
61 74 94
58 72 93
65 79 100
58 72 92
58 71 92
62 75 96
59 73 94
55 68 88
59 73 94
65 79 101
63 77 98
62 76 97
57 70 90
61 76 97
62 76 96
58 72 93
57 70 89
60 73 93
61 74 95
61 75 96
58 71 91
61 74 94
55 68 88
60 74 94
57 70 90
57 70 89
60 75 96
55 69 89
58 72 94
64 78 100
59 72 92
58 71 91
58 72 92
68 82 103
67 81 103
59 72 92
62 77 98
61 75 95
61 75 95
58 71 91
62 76 97
64 78 99
59 73 93
59 73 94
197 220 255
197 220 255
197 220 255
197 220 255
197 220 255
197 220 255
197 220 255
197 220 255
197 220 255
197 220 255
197 220 255
197 220 255
197 220 255
197 220 255
197 220 255
197 220 255
197 220 255
197 220 255
196 220 255
197 220 255
196 220 255
196 220 255
196 220 255
196 220 255
196 220 255
196 220 255
196 220 255
196 220 255
196 220 255
196 220 255
196 220 255
196 220 255
196 220 255
196 220 255
196 220 255
196 220 255
196 220 255
196 220 255
196 220 255
196 220 255
196 220 255
196 220 255
196 220 255
196 220 255
196 220 255
196 220 255
196 220 255
196 220 255
196 220 255
196 220 255
196 220 255
196 220 255
196 220 255
196 220 255
196 220 255
196 220 255
196 220 255
196 220 255
196 220 255
196 220 255
196 220 255
196 220 255
196 220 255
196 220 255
196 220 255
196 220 255
196 220 255
196 220 255
196 220 255
196 220 255
196 220 255
196 220 255
195 219 255
195 219 255
195 219 255
195 219 255
195 219 255
195 219 255
195 219 255
195 219 255
195 219 255
195 219 255
195 219 255
195 219 255
195 219 255
195 219 255
195 219 255
195 219 255
195 219 255
195 219 255
195 219 255
195 219 255
195 219 255
195 219 255
195 219 255
195 219 255
195 219 255
195 219 255
195 219 255
195 219 255
195 219 255
195 219 255
195 219 255
195 219 255
195 219 255
195 219 255
195 219 255
195 219 255
195 219 255
195 219 255
195 219 255
195 219 255
195 219 255
195 219 255
195 219 255
195 219 255
195 219 255
195 219 255
195 219 255
195 219 255
195 219 255
195 219 255
195 219 255
195 219 255
195 219 255
195 219 255
195 219 255
195 219 255
195 219 255
195 219 255
195 219 255
195 219 255
195 219 255
195 219 255
195 219 255
195 219 255
195 219 255
195 219 255
195 219 255
195 219 255
195 219 255
195 219 255
195 219 255
195 219 255
195 219 255
195 219 255
195 219 255
195 219 255
195 219 255
195 219 255
195 219 255
195 219 255
195 219 255
195 219 255
195 219 255
195 219 255
195 219 255
195 219 255
195 219 255
195 219 255
195 219 255
195 219 255
195 219 255
195 219 255
195 219 255
195 219 255
195 219 255
195 219 255
195 219 255
195 219 255
195 219 255
195 219 255
195 219 255
195 219 255
195 219 255
195 219 255
195 219 255
195 219 255
195 219 255
195 219 255
195 219 255
195 219 255
196 220 255
196 220 255
196 220 255
196 220 255
196 220 255
196 220 255
196 220 255
196 220 255
196 220 255
196 220 255
196 220 255
196 220 255
196 220 255
196 220 255
196 220 255
196 220 255
196 220 255
196 220 255
196 220 255
196 220 255
196 220 255
196 220 255
196 220 255
196 220 255
196 220 255
196 220 255
196 220 255
196 220 255
196 220 255
196 220 255
196 220 255
196 220 255
196 220 255
196 220 255
196 220 255
196 220 255
196 220 255
196 220 255
196 220 255
196 220 255
196 220 255
196 220 255
196 220 255
196 220 255
196 220 255
196 220 255
196 220 255
196 220 255
196 220 255
196 220 255
197 220 255
197 220 255
197 220 255
197 220 255
197 220 255
197 220 255
197 220 255
197 220 255
197 220 255
197 220 255
197 220 255
197 220 255
197 220 255
197 220 255
197 220 255
197 220 255
197 220 255
197 220 255
197 220 255
197 220 255
197 220 255
197 220 255
197 220 255
197 220 255
197 220 255
197 220 255
197 220 255
197 220 255
196 219 254
192 215 250
185 208 243
186 209 244
177 199 234
171 193 227
157 180 215
154 177 211
155 178 212
135 158 191
141 163 197
126 149 183
65 79 102
61 75 95
61 75 95
57 70 89
58 71 90
60 74 94
59 73 94
58 72 92
59 73 93
62 75 95
61 75 96
56 70 90
63 76 97
57 71 91
61 75 96
57 70 89
59 72 93
58 71 91
60 74 94
63 77 97
54 66 85
56 69 89
56 70 91
60 72 91
60 73 94
57 71 91
59 73 93
62 77 99
62 77 99
60 74 96
61 74 94
59 72 92
62 75 96
60 73 94
62 76 98
61 75 96
57 70 90
60 74 94
63 77 98
59 72 91
58 72 92
61 75 96
60 75 96
61 74 93
61 75 96
60 74 95
55 69 88
60 74 96
60 74 94
55 68 88
60 74 95
62 75 95
61 74 94
62 76 97
61 75 96
55 68 88
66 80 101
59 72 92
64 79 102
58 72 93
65 78 99
55 68 88
62 76 96
58 71 91
58 71 91
62 75 96
55 68 88
60 74 95
62 76 97
64 78 99
58 72 92
55 69 88
59 73 93
58 71 92
59 73 95
62 76 97
61 75 95
61 75 96
56 70 89
64 77 97
60 73 94
64 78 99
59 72 92
66 81 103
60 74 94
65 80 101
61 75 96
55 69 89
62 75 96
60 73 93
62 77 99
62 76 96
61 75 96
60 74 94
58 71 91
61 76 97
63 77 97
57 71 91
66 80 102
58 72 93
57 70 89
59 73 93
60 74 95
66 80 102
56 69 89
60 74 95
60 74 95
61 75 95
64 78 99
61 74 94
61 75 95
55 68 87
58 71 91
61 76 98
60 74 95
55 67 85
64 78 99
61 75 96
58 71 91
59 73 94
57 70 89
59 73 93
62 76 96
60 74 94
58 72 92
60 74 94
61 75 94
65 81 104
127 149 183
136 159 193
142 164 198
144 166 200
154 177 211
158 180 215
162 185 218
171 194 229
172 195 230
177 200 235
191 214 249
197 220 255
197 220 255
197 220 255
197 220 255
197 220 255
197 220 255
197 220 255
197 220 255
197 220 255
197 220 255
197 220 255
197 220 255
197 220 255
197 220 255
197 220 255
197 220 255
197 220 255
197 220 255
197 220 255
197 220 255
197 220 255
197 220 255
197 220 255
197 220 255
197 220 255
197 220 255
197 220 255
197 220 255
197 220 255
196 220 255
196 220 255
196 220 255
196 220 255
196 220 255
196 220 255
196 220 255
196 220 255
196 220 255
196 220 255
196 220 255
196 220 255
196 220 255
196 220 255
196 220 255
196 220 255
196 220 255
196 220 255
196 220 255
196 220 255
196 220 255
196 220 255
196 220 255
196 220 255
196 220 255
196 220 255
196 220 255
196 220 255
196 220 255
196 220 255
196 220 255
196 220 255
196 220 255
196 220 255
196 220 255
196 220 255
196 220 255
196 220 255
196 220 255
196 220 255
196 220 255
196 220 255
196 220 255
196 220 255
196 220 255
196 220 255
196 220 255
196 220 255
196 220 255
196 220 255
196 220 255
195 219 255
195 219 255
195 219 255
195 219 255
195 219 255
195 219 255
195 219 255
195 219 255
195 219 255
195 219 255
195 219 255
195 219 255
195 219 255
195 219 255
195 219 255
195 219 255
195 219 255
195 219 255
195 219 255
195 219 255
195 219 255
195 219 255
195 219 255
195 219 255
195 219 255
195 219 255
195 219 255
195 219 255
195 219 255
195 219 255
195 219 255
195 219 255
195 219 255
195 219 255
195 219 255
195 219 255
195 219 255
195 219 255
195 219 255
195 219 255
195 219 255
195 219 255
195 219 255
195 219 255
195 219 255
195 219 255
195 219 255
195 219 255
195 219 255
195 219 255
195 219 255
195 219 255
195 219 255
195 219 255
195 219 255
195 219 255
195 219 255
195 219 255
195 219 255
195 219 255
195 219 255
195 219 255
195 219 255
195 219 255
195 219 255
195 219 255
195 219 255
195 219 255
195 219 255
195 219 255
196 220 255
196 220 255
196 220 255
196 220 255
196 220 255
196 220 255
196 220 255
196 220 255
196 220 255
196 220 255
196 220 255
196 220 255
196 220 255
196 220 255
196 220 255
196 220 255
196 220 255
196 220 255
196 220 255
196 220 255
196 220 255
196 220 255
196 220 255
196 220 255
196 220 255
196 220 255
196 220 255
196 220 255
196 220 255
196 220 255
196 220 255
196 220 255
196 220 255
196 220 255
196 220 255
196 220 255
196 220 255
196 220 255
196 220 255
196 220 255
196 220 255
196 220 255
196 220 255
196 220 255
196 220 255
196 220 255
196 220 255
196 220 255
196 220 255
196 220 255
196 220 255
196 220 255
196 220 255
197 220 255
197 220 255
197 220 255
197 220 255
197 220 255
197 220 255
197 220 255
197 220 255
197 220 255
197 220 255
197 220 255
197 220 255
197 220 255
197 220 255
197 220 255
197 220 255
197 220 255
197 220 255
197 220 255
197 220 255
197 220 255
197 220 255
197 220 255
197 220 255
197 220 255
197 220 255
197 220 255
197 220 255
197 220 255
197 221 255
193 217 252
187 211 245
166 188 222
172 194 229
150 173 207
142 165 198
139 162 195
142 164 198
119 141 175
124 147 180
121 143 176
111 133 166
98 119 152
93 115 147
92 114 147
81 103 135
76 97 127
73 95 127
75 96 127
75 96 127
73 95 127
74 95 127
72 94 127
72 94 127
74 95 127
75 96 127
73 95 127
75 96 127
67 84 110
63 77 98
62 76 98
56 69 88
55 68 87
61 75 96
56 69 89
61 75 95
60 74 95
60 74 94
60 74 95
60 73 94
61 74 94
58 72 93
56 69 89
58 72 92
56 69 89
54 67 87
57 71 92
59 72 92
57 71 91
58 71 91
63 76 97
58 71 90
59 73 93
60 74 94
60 74 94
54 67 87
62 76 97
60 74 95
56 69 90
58 72 93
62 75 96
58 71 92
61 75 95
59 73 94
64 78 99
62 76 96
62 76 97
57 70 90
59 73 93
61 75 97
60 74 95
64 78 100
58 72 92
60 74 94
64 78 99
60 73 93
61 75 95
57 70 90
64 78 99
60 74 96
64 78 99
58 71 90
64 77 98
56 70 90
65 80 103
57 71 91
65 79 101
57 71 92
61 75 97
61 75 96
60 75 96
60 74 94
59 72 93
53 66 85
62 76 97
58 72 92
63 77 97
66 80 102
60 73 94
60 74 95
57 70 90
62 75 96
60 75 96
63 78 99
60 74 94
61 75 95
60 74 94
60 73 94
63 76 97
64 78 100
58 71 90
62 76 97
58 72 93
63 77 98
63 76 96
59 74 95
59 72 93
56 69 89
57 71 91
62 75 96
60 74 94
58 72 92
56 69 88
62 76 97
55 68 87
59 73 94
59 73 94
60 73 93
60 73 93
57 71 92
61 74 93
59 73 93
61 75 96
64 78 99
63 77 99
62 76 97
63 77 98
63 77 98
58 72 92
60 74 94
57 71 93
59 73 94
60 74 94
56 69 89
58 72 92
59 73 93
64 78 98
59 72 92
59 72 92
62 76 96
56 69 87
63 77 99
56 70 90
55 68 87
60 73 93
63 78 102
73 95 127
74 96 127
74 95 127
75 96 127
74 95 127
72 94 127
74 95 127
74 96 127
74 95 127
74 95 127
75 96 127
77 99 131
86 107 139
93 115 147
98 119 152
98 120 153
119 140 172
116 138 171
123 145 177
133 156 189
141 163 197
146 169 203
161 183 217
161 184 218
173 196 230
177 200 235
180 203 238
193 217 252
197 221 255
197 221 255
197 221 255
197 220 255
197 220 255
197 220 255
197 220 255
197 220 255
197 220 255
197 220 255
197 220 255
197 220 255
197 220 255
197 220 255
197 220 255
197 220 255
197 220 255
197 220 255
197 220 255
197 220 255
197 220 255
197 220 255
197 220 255
197 220 255
197 220 255
197 220 255
197 220 255
197 220 255
197 220 255
197 220 255
196 220 255
196 220 255
196 220 255
196 220 255
196 220 255
196 220 255
196 220 255
196 220 255
196 220 255
196 220 255
196 220 255
196 220 255
196 220 255
196 220 255
196 220 255
196 220 255
196 220 255
196 220 255
196 220 255
196 220 255
196 220 255
196 220 255
196 220 255
196 220 255
196 220 255
196 220 255
196 220 255
196 220 255
196 220 255
196 220 255
196 220 255
196 220 255
196 220 255
196 220 255
196 220 255
196 220 255
196 220 255
196 220 255
196 220 255
196 220 255
196 220 255
196 220 255
196 220 255
196 220 255
196 220 255
196 220 255
196 220 255
196 220 255
196 220 255
196 220 255
196 220 255
196 220 255
196 220 255
195 219 255
195 219 255
195 219 255
195 219 255
195 219 255
195 219 255
195 219 255
195 219 255
195 219 255
195 219 255
195 219 255
195 219 255
195 219 255
195 219 255
195 219 255
195 219 255
195 219 255
195 219 255
195 219 255
195 219 255
195 219 255
195 219 255
195 219 255
195 219 255
195 219 255
195 219 255
195 219 255
195 219 255
195 219 255
195 219 255
195 219 255
195 219 255
196 220 255
196 220 255
196 220 255
196 220 255
196 220 255
196 220 255
196 220 255
196 220 255
196 220 255
196 220 255
196 220 255
196 220 255
196 220 255
196 220 255
196 220 255
196 220 255
196 220 255
196 220 255
196 220 255
196 220 255
196 220 255
196 220 255
196 220 255
196 220 255
196 220 255
196 220 255
196 220 255
196 220 255
196 220 255
196 220 255
196 220 255
196 220 255
196 220 255
196 220 255
196 220 255
196 220 255
196 220 255
196 220 255
196 220 255
196 220 255
196 220 255
196 220 255
196 220 255
196 220 255
196 220 255
196 220 255
196 220 255
196 220 255
196 220 255
196 220 255
196 220 255
196 220 255
196 220 255
196 220 255
197 220 255
197 220 255
197 220 255
197 220 255
197 220 255
197 220 255
197 220 255
197 220 255
197 220 255
197 220 255
197 220 255
197 220 255
197 220 255
197 220 255
197 220 255
197 220 255
197 220 255
197 220 255
197 220 255
197 220 255
197 220 255
197 220 255
197 220 255
197 220 255
197 220 255
197 220 255
197 220 255
197 220 255
197 220 255
197 221 255
197 221 255
197 221 255
190 213 248
183 207 241
176 199 234
184 207 241
160 183 217
152 174 208
134 156 189
127 149 183
126 149 183
113 135 168
105 127 159
100 122 154
92 114 147
80 102 134
74 96 127
74 95 127
74 95 127
73 95 127
74 95 127
75 96 127
74 96 127
75 96 127
75 96 127
73 95 127
73 95 127
74 95 127
75 96 127
73 95 127
74 96 127
74 95 127
75 96 127
74 95 127
75 96 127
74 95 127
74 96 127
74 95 127
74 95 127
75 96 127
74 95 127
74 95 127
74 95 127
74 96 127
74 95 127
65 83 109
60 74 95
62 76 97
58 72 92
59 72 93
59 72 93
56 69 89
61 75 97
64 78 99
59 72 92
58 72 93
60 73 93
66 80 101
63 77 98
60 74 94
60 73 92
61 74 95
59 72 92
58 72 92
62 76 97
59 72 91
63 77 98
60 74 94
63 77 98
58 72 92
57 71 91
59 73 94
61 75 97
60 74 94
60 74 95
63 76 95
56 69 87
63 78 99
63 76 97
62 75 95
61 75 95
62 76 96
59 73 94
63 77 98
60 74 95
58 72 92
57 71 91
62 76 96
60 74 94
61 75 96
59 73 94
56 70 90
60 73 93
54 66 85
55 68 88
61 75 95
57 71 91
62 75 94
56 68 87
57 70 90
57 71 91
57 71 90
58 71 92
59 73 93
57 71 90
63 78 100
63 77 98
61 75 95
55 68 88
60 73 93
60 74 94
57 70 90
62 76 97
61 74 94
64 78 99
63 77 98
59 72 93
64 78 99
55 68 88
58 71 92
61 75 95
61 75 96
61 75 97
62 77 98
62 75 96
55 68 89
61 74 95
60 74 94
62 76 96
61 76 98
56 70 91
54 66 85
62 76 96
63 77 98
60 74 95
59 72 92
60 74 94
58 72 93
61 75 95
63 76 96
61 74 95
62 76 98
57 70 90
60 74 94
59 72 93
58 71 91
56 69 89
58 71 92
60 74 94
57 70 90
58 73 94
64 77 98
58 72 93
58 71 91
59 72 93
59 73 94
62 76 97
59 72 92
59 73 93
64 77 98
57 70 90
56 70 91
58 71 91
57 70 90
57 70 89
57 70 90
56 69 88
57 70 90
57 70 90
61 75 96
56 69 88
57 71 92
68 87 115
74 96 127
73 95 127
74 95 127
75 96 127
73 95 127
73 95 127
73 95 127
76 96 127
73 95 127
74 95 127
75 96 127
75 96 127
75 96 127
72 94 127
72 94 127
75 96 127
74 95 127
75 96 127
75 96 127
73 95 127
73 95 127
74 96 127
75 96 127
72 94 127
74 95 127
74 95 127
75 96 127
74 95 127
79 100 133
81 103 135
94 116 149
95 116 148
110 131 163
114 137 170
118 140 174
136 158 191
127 149 183
150 172 206
151 174 208
174 197 231
185 208 243
180 203 238
194 217 252
197 221 255
197 221 255
197 221 255
197 220 255
197 220 255
197 220 255
197 220 255
197 220 255
197 220 255
197 220 255
197 220 255
197 220 255
197 220 255
197 220 255
197 220 255
197 220 255
197 220 255
197 220 255
197 220 255
197 220 255
197 220 255
197 220 255
197 220 255
197 220 255
197 220 255
197 220 255
197 220 255
197 220 255
197 220 255
197 220 255
197 220 255
196 220 255
196 220 255
196 220 255
196 220 255
196 220 255
196 220 255
196 220 255
196 220 255
196 220 255
196 220 255
196 220 255
196 220 255
196 220 255
196 220 255
196 220 255
196 220 255
196 220 255
196 220 255
196 220 255
196 220 255
196 220 255
196 220 255
196 220 255
196 220 255
196 220 255
196 220 255
196 220 255
196 220 255
196 220 255
196 220 255
196 220 255
196 220 255
196 220 255
196 220 255
196 220 255
196 220 255
196 220 255
196 220 255
196 220 255
196 220 255
196 220 255
196 220 255
196 220 255
196 220 255
196 220 255
196 220 255
196 220 255
196 220 255
196 220 255
196 220 255
196 220 255
196 220 255
196 220 255
196 220 255
196 220 255
195 219 255
195 219 255
195 219 255
195 219 255
195 219 255
195 219 255
195 219 255
196 220 255
196 220 255
196 220 255
196 220 255
196 220 255
196 220 255
196 220 255
196 220 255
196 220 255
196 220 255
196 220 255
196 220 255
196 220 255
196 220 255
196 220 255
196 220 255
196 220 255
196 220 255
196 220 255
196 220 255
196 220 255
196 220 255
196 220 255
196 220 255
196 220 255
196 220 255
196 220 255
196 220 255
196 220 255
196 220 255
196 220 255
196 220 255
196 220 255
196 220 255
196 220 255
196 220 255
196 220 255
196 220 255
196 220 255
196 220 255
196 220 255
196 220 255
196 220 255
196 220 255
196 220 255
197 220 255
197 220 255
197 220 255
197 220 255
197 220 255
197 220 255
197 220 255
197 220 255
197 220 255
197 220 255
197 220 255
197 220 255
197 220 255
197 220 255
197 220 255
197 220 255
197 220 255
197 220 255
197 220 255
197 220 255
197 220 255
197 220 255
197 220 255
197 220 255
197 220 255
197 220 255
197 220 255
197 220 255
197 220 255
197 220 255
197 221 255
197 221 255
197 221 255
197 221 255
196 219 254
182 205 240
170 193 227
166 189 223
152 175 208
143 165 199
131 153 186
131 153 186
123 144 176
109 131 165
96 117 149
98 119 152
85 107 140
80 101 134
75 96 127
74 96 127
73 95 127
74 96 127
73 95 127
72 94 127
74 95 127
74 96 127
74 95 127
74 96 127
74 95 127
74 96 127
76 97 127
74 95 127
75 96 127
74 95 127
74 96 127
73 95 127
74 95 127
74 95 127
74 95 127
75 96 127
74 96 127
74 95 127
74 95 127
74 96 127
73 95 127
74 95 127
74 96 127
73 95 127
75 96 127
75 96 127
74 96 127
74 95 127
75 96 127
75 96 127
74 95 127
74 96 127
73 95 127
74 96 127
73 95 127
74 95 127
75 96 127
70 89 118
62 75 95
60 73 93
60 73 93
58 71 90
65 78 99
58 72 93
56 70 90
59 73 93
61 75 95
58 71 91
61 75 96
63 76 95
61 75 95
52 65 85
57 70 91
66 80 102
60 73 93
58 71 92
61 74 94
57 70 90
58 72 92
65 78 99
58 71 91
62 76 96
62 76 96
57 70 91
58 71 91
59 72 92
64 79 100
60 74 95
56 69 89
62 77 98
59 73 92
57 70 90
57 70 89
56 69 89
62 75 96
57 70 90
60 73 93
59 73 94
63 76 97
63 77 98
59 72 91
62 75 96
62 76 97
62 76 98
63 77 97
63 77 97
58 71 91
55 69 90
54 67 86
60 73 93
59 72 92
63 77 99
60 74 94
57 70 90
62 76 97
56 69 88
62 76 98
60 74 94
61 74 93
61 75 96
58 72 92
61 74 94
61 74 95
63 77 99
56 69 89
60 74 94
62 76 96
61 75 95
57 70 90
58 72 93
58 71 91
60 74 95
57 71 91
58 72 92
56 69 89
59 72 93
61 75 95
59 73 93
59 72 92
60 74 94
56 70 89
60 74 94
59 73 94
59 72 93
56 69 89
60 74 95
61 75 95
59 73 94
62 75 96
66 81 102
60 74 96
63 77 99
53 66 85
58 72 93
63 77 99
55 69 88
58 71 91
62 76 97
59 72 92
57 70 89
61 74 95
58 71 91
55 68 87
57 70 90
56 69 88
64 78 99
54 67 86
64 78 99
56 69 90
58 71 91
56 69 89
57 70 89
58 71 90
63 78 100
60 75 96
57 70 90
59 72 91
62 76 97
61 74 95
59 72 92
55 68 88
58 72 92
63 76 95
58 71 90
74 95 125
74 95 127
73 95 127
74 96 127
76 97 127
73 95 127
74 96 127
74 95 127
74 95 127
75 96 127
74 95 127
74 95 127
74 95 127
75 96 127
75 96 127
74 96 127
74 96 127
74 95 127
73 95 127
73 95 127
75 95 127
75 96 127
75 96 127
75 96 127
74 95 127
75 96 127
74 95 127
76 97 127
73 95 127
76 96 127
75 96 127
73 95 127
74 95 127
73 95 127
75 96 127
75 96 127
76 97 127
73 95 127
76 96 127
75 96 127
74 95 127
76 96 127
75 96 127
75 96 127
76 98 130
88 110 142
100 121 153
100 122 154
117 139 172
120 141 174
141 163 197
135 158 191
145 167 200
145 167 200
160 183 217
175 198 232
187 210 244
193 216 250
197 221 255
197 221 255
197 221 255
197 221 255
197 221 255
197 220 255
197 220 255
197 220 255
197 220 255
197 220 255
197 220 255
197 220 255
197 220 255
197 220 255
197 220 255
197 220 255
197 220 255
197 220 255
197 220 255
197 220 255
197 220 255
197 220 255
197 220 255
197 220 255
197 220 255
197 220 255
197 220 255
197 220 255
197 220 255
197 220 255
197 220 255
197 220 255
197 220 255
197 220 255
196 220 255
196 220 255
196 220 255
196 220 255
196 220 255
196 220 255
196 220 255
196 220 255
196 220 255
196 220 255
196 220 255
196 220 255
196 220 255
196 220 255
196 220 255
196 220 255
196 220 255
196 220 255
196 220 255
196 220 255
196 220 255
196 220 255
196 220 255
196 220 255
196 220 255
196 220 255
196 220 255
196 220 255
196 220 255
196 220 255
196 220 255
196 220 255
196 220 255
196 220 255
196 220 255
196 220 255
196 220 255
196 220 255
196 220 255
196 220 255
196 220 255
196 220 255
196 220 255
196 220 255
196 220 255
196 220 255
196 220 255
196 220 255
196 220 255
196 220 255
196 220 255
196 220 255
196 220 255
196 220 255
196 220 255
196 220 255
196 220 255
196 220 255
196 220 255
196 220 255
196 220 255
196 220 255
196 220 255
196 220 255
196 220 255
196 220 255
196 220 255
196 220 255
196 220 255
196 220 255
196 220 255
196 220 255
196 220 255
196 220 255
196 220 255
197 220 255
197 220 255
197 220 255
197 220 255
197 220 255
197 220 255
197 220 255
197 220 255
197 220 255
197 220 255
197 220 255
197 220 255
197 220 255
197 220 255
197 220 255
197 220 255
197 220 255
197 220 255
197 220 255
197 220 255
197 220 255
197 220 255
197 220 255
197 220 255
197 220 255
197 220 255
197 220 255
197 220 255
197 220 255
197 221 255
197 221 255
197 221 255
197 221 255
197 221 255
197 221 255
196 219 254
191 214 249
179 202 236
165 188 222
163 186 220
156 179 213
147 169 203
127 149 183
121 143 175
112 134 167
97 119 151
95 117 149
88 110 143
82 103 135
74 95 127
77 97 127
74 96 127
74 95 127
75 96 127
73 95 127
75 96 127
75 96 127
73 95 127
75 96 127
75 96 127
75 96 127
74 95 127
73 95 127
75 96 127
74 95 127
74 95 127
75 96 127
74 95 127
74 95 127
75 96 127
73 95 127
74 95 127
75 96 127
75 96 127
74 95 127
74 95 127
73 95 127
74 95 127
74 95 127
74 96 127
74 95 127
74 96 127
73 95 127
74 96 127
73 94 127
74 95 127
75 96 127
74 96 127
74 95 127
75 96 127
74 96 127
76 96 127
74 95 127
74 95 127
74 96 127
75 96 127
74 96 127
74 95 127
75 96 127
75 96 127
74 96 127
73 95 127
74 95 127
75 96 127
74 95 127
74 96 127
75 96 127
57 70 90
54 66 84
56 69 88
56 69 89
63 77 97
58 71 91
58 72 92
57 71 91
63 77 99
59 73 94
59 72 92
57 70 89
57 70 89
60 73 92
61 75 96
58 72 91
58 71 91
58 71 91
60 72 91
61 74 93
58 72 92
56 70 89
57 69 88
62 76 96
60 73 93
58 71 91
61 74 95
60 73 94
62 75 96
63 76 97
61 75 96
56 69 88
60 74 94
61 75 96
58 72 91
56 69 90
58 72 92
58 71 92
60 73 94
60 74 95
60 75 96
61 75 95
57 70 90
62 75 96
57 71 91
62 75 95
59 73 94
59 73 94
62 75 96
57 71 91
55 69 88
60 73 93
61 75 96
54 67 86
61 74 94
59 73 93
64 78 99
61 74 94
60 73 92
61 75 96
57 71 90
56 69 89
58 71 91
59 73 94
57 71 91
59 73 94
60 74 96
63 77 99
58 72 91
62 75 96
57 71 91
59 73 94
55 69 89
61 74 95
63 76 97
52 64 84
63 77 99
59 73 92
59 72 92
54 66 85
65 79 100
56 69 88
58 71 91
59 73 94
57 70 90
64 79 100
63 77 98
61 75 96
59 72 91
55 68 88
61 75 94
60 73 94
60 74 95
60 73 94
55 68 87
56 69 89
60 73 93
55 69 89
56 69 89
62 75 96
57 70 89
61 76 97
57 70 89
58 72 92
60 73 93
58 71 91
58 72 92
53 67 86
61 74 93
60 74 94
59 72 92
56 69 89
61 74 95
60 73 92
61 74 94
55 67 85
56 70 90
62 75 96
58 72 92
59 73 93
60 73 92
58 71 90
55 67 85
61 75 95
66 80 100
60 74 94
75 96 127
75 96 127
74 95 127
73 95 127
75 95 127
74 96 127
75 96 127
73 95 127
73 95 127
74 95 127
74 96 127
72 94 126
73 95 127
75 96 127
72 94 127
73 95 127
75 96 127
74 95 127
73 95 127
75 96 127
74 95 127
74 95 127
74 95 127
75 96 127
73 95 127
74 95 127
74 95 127
74 96 127
73 95 127
74 95 127
74 96 127
75 96 127
74 95 127
73 95 127
75 96 127
75 96 127
74 95 127
75 96 127
75 96 127
73 95 127
74 95 127
75 96 127
75 96 127
73 95 127
74 95 127
75 96 127
75 96 127
74 96 127
73 95 127
74 96 127
73 94 127
73 95 127
74 95 127
73 95 127
76 96 127
75 96 127
74 95 127
74 95 127
79 101 133
92 113 145
90 112 145
118 140 172
110 131 163
123 145 178
131 153 186
139 162 195
146 168 202
164 187 221
175 198 232
183 206 240
191 214 249
197 221 255
197 221 255
197 221 255
197 221 255
197 221 255
197 221 255
197 221 255
197 220 255
197 220 255
197 220 255
197 220 255
197 220 255
197 220 255
197 220 255
197 220 255
197 220 255
197 220 255
197 220 255
197 220 255
197 220 255
197 220 255
197 220 255
197 220 255
197 220 255
197 220 255
197 220 255
197 220 255
197 220 255
197 220 255
197 220 255
197 220 255
197 220 255
197 220 255
197 220 255
197 220 255
197 220 255
196 220 255
196 220 255
196 220 255
196 220 255
196 220 255
196 220 255
196 220 255
196 220 255
196 220 255
196 220 255
196 220 255
196 220 255
196 220 255
196 220 255
196 220 255
196 220 255
196 220 255
196 220 255
196 220 255
196 220 255
196 220 255
196 220 255
196 220 255
196 220 255
196 220 255
196 220 255
196 220 255
196 220 255
196 220 255
196 220 255
196 220 255
196 220 255
196 220 255
196 220 255
196 220 255
196 220 255
196 220 255
196 220 255
196 220 255
196 220 255
196 220 255
196 220 255
196 220 255
196 220 255
196 220 255
197 220 255
197 220 255
197 220 255
197 220 255
197 220 255
197 220 255
197 220 255
197 220 255
197 220 255
197 220 255
197 220 255
197 220 255
197 220 255
197 220 255
197 220 255
197 220 255
197 220 255
197 220 255
197 220 255
197 220 255
197 220 255
197 220 255
197 220 255
197 220 255
197 220 255
197 220 255
197 220 255
197 220 255
197 220 255
197 220 255
197 221 255
197 221 255
197 221 255
197 221 255
197 221 255
197 221 255
197 221 255
197 221 255
195 218 253
179 202 236
172 195 229
168 191 225
159 182 216
145 168 202
125 147 180
124 146 179
118 139 172
109 131 163
95 117 149
79 101 133
79 100 133
74 95 127
75 96 127
74 95 127
76 96 127
75 96 127
73 95 127
75 96 127
75 96 127
74 95 127
75 96 127
75 96 127
74 95 127
73 95 127
73 95 127
74 95 127
74 95 127
73 95 127
74 95 127
72 94 127
74 96 127
73 95 127
74 95 127
74 96 127
74 95 127
74 96 127
74 95 127
76 96 127
74 95 127
75 96 127
74 95 127
74 95 127
74 95 127
73 95 127
74 95 127
74 96 127
75 96 127
75 96 127
75 96 127
74 96 127
73 95 127
74 95 127
75 96 127
74 95 127
74 95 127
75 96 127
74 96 127
75 96 127
75 96 127
74 96 127
74 95 127
73 94 127
73 95 127
74 95 127
74 95 127
74 95 127
73 95 127
74 96 127
74 95 127
74 95 127
75 96 127
74 95 127
76 96 127
74 95 127
75 96 127
75 96 127
73 94 127
74 95 127
75 96 127
75 96 127
74 95 127
73 95 127
65 80 104
54 68 87
52 64 82
55 69 89
63 77 99
59 72 92
54 67 87
61 73 92
58 72 91
59 73 93
56 68 87
56 68 88
56 69 88
59 73 95
57 70 90
56 70 89
56 68 87
63 77 98
60 74 95
59 73 94
61 74 95
55 68 87
59 72 92
56 68 87
66 79 100
64 78 100
57 71 91
59 73 93
57 70 90
61 74 94
61 74 94
59 72 93
60 74 94
54 67 87
60 73 92
59 73 93
57 70 89
60 74 94
60 74 94
59 73 94
59 73 93
55 68 87
58 72 92
60 74 95
60 75 96
60 73 93
62 76 98
56 70 89
59 72 92
61 74 95
61 75 95
57 70 90
57 71 92
58 71 91
58 71 90
65 80 101
63 77 98
61 74 95
61 74 94
60 73 93
63 78 99
56 69 89
61 75 96
58 71 92
59 72 92
58 71 91
59 72 93
57 70 90
56 69 88
65 79 101
61 75 95
61 75 95
55 69 89
61 75 95
58 71 91
61 75 96
60 73 93
55 68 88
58 71 91
58 71 92
58 71 91
61 74 94
57 70 90
60 73 94
58 72 92
59 72 92
62 76 97
60 73 93
59 72 92
56 69 88
59 72 91
57 70 89
55 68 88
62 76 98
62 75 94
64 78 100
55 69 89
60 73 94
62 75 95
62 76 96
56 69 88
59 72 92
56 68 88
58 71 90
58 71 90
59 72 92
55 68 89
59 72 92
60 73 93
59 73 92
60 74 95
61 75 95
60 73 93
59 72 92
59 72 92
59 72 92
58 71 91
60 73 94
61 75 95
63 77 96
59 73 94
57 70 88
58 72 92
60 73 93
58 70 90
64 80 105
75 96 127
74 95 127
75 96 127
74 95 127
75 96 127
74 95 127
74 95 127
75 96 127
75 96 127
75 96 127
76 96 127
74 95 127
74 95 127
74 95 127
73 95 127
74 95 127
73 95 127
75 96 127
75 96 127
74 96 127
74 96 127
74 95 127
75 96 127
74 95 127
74 95 127
74 95 127
74 95 127
74 96 127
74 96 127
74 96 127
75 96 127
73 95 127
73 95 127
75 96 127
74 95 127
75 96 127
75 96 127
74 96 127
74 96 127
74 95 127
74 95 127
73 95 127
76 97 127
73 95 127
75 96 127
75 96 127
75 96 127
74 96 127
74 96 127
74 95 127
74 96 127
75 96 127
73 95 127
74 95 127
72 94 127
74 95 127
74 96 127
73 95 127
75 96 127
74 96 127
75 96 127
74 95 127
76 96 127
75 96 127
75 96 127
73 95 127
74 95 127
74 96 127
75 96 127
75 96 127
75 96 127
79 100 131
85 107 138
94 115 148
109 131 163
108 129 162
128 150 184
133 156 189
144 166 199
149 171 204
155 178 212
176 199 234
181 204 239
192 215 250
197 221 255
197 221 255
197 221 255
197 221 255
197 221 255
197 221 255
197 221 255
197 220 255
197 220 255
197 220 255
197 220 255
197 220 255
197 220 255
197 220 255
197 220 255
197 220 255
197 220 255
197 220 255
197 220 255
197 220 255
197 220 255
197 220 255
197 220 255
197 220 255
197 220 255
197 220 255
197 220 255
197 220 255
197 220 255
197 220 255
197 220 255
197 220 255
197 220 255
197 220 255
197 220 255
197 220 255
197 220 255
197 220 255
196 220 255
196 220 255
196 220 255
196 220 255
196 220 255
196 220 255
196 220 255
196 220 255
196 220 255
196 220 255
196 220 255
196 220 255
196 220 255
196 220 255
196 220 255
197 220 255
197 220 255
197 220 255
197 220 255
197 220 255
197 220 255
197 220 255
197 220 255
197 220 255
197 220 255
197 220 255
197 220 255
197 220 255
197 220 255
197 220 255
197 220 255
197 220 255
197 220 255
197 220 255
197 220 255
197 220 255
197 220 255
197 220 255
197 220 255
197 220 255
197 220 255
197 220 255
197 220 255
197 220 255
197 220 255
197 220 255
197 221 255
197 221 255
197 221 255
197 221 255
197 221 255
197 221 255
197 221 255
197 221 255
197 221 255
196 219 254
189 212 247
173 196 230
171 194 229
152 174 208
154 177 211
137 159 193
124 146 179
117 138 171
109 131 163
102 124 157
89 111 143
77 98 130
75 96 127
72 94 127
74 96 127
75 96 127
75 96 127
75 96 127
73 95 127
74 95 127
73 95 127
74 96 127
75 96 127
76 96 127
74 95 127
74 95 127
74 96 127
75 96 127
74 95 127
74 96 127
73 95 127
74 95 127
73 94 127
76 96 127
74 96 127
75 96 127
74 95 127
75 96 127
73 95 127
74 95 127
74 96 127
73 95 127
75 96 127
74 96 127
74 95 127
73 95 127
75 96 127
74 95 127
76 96 127
73 95 127
74 96 127
73 95 127
73 95 127
76 97 127
73 95 127
75 96 127
72 94 127
74 96 127
74 96 127
75 96 127
73 94 127
73 95 127
73 95 127
74 95 127
75 96 127
74 95 127
74 96 127
75 96 127
75 96 127
74 95 127
74 96 127
73 95 127
75 96 127
74 95 127
74 96 127
75 96 127
73 95 127
75 96 127
73 95 127
74 96 127
73 95 126
74 95 127
74 95 127
74 95 127
75 96 127
73 95 127
75 96 127
75 96 127
73 95 127
75 96 127
73 94 127
74 95 127
74 96 127
73 95 127
73 95 127
74 95 127
71 88 113
56 69 88
61 73 93
58 72 92
58 72 92
58 71 90
56 69 89
54 67 87
59 73 93
58 72 92
58 71 90
62 75 96
54 67 85
59 72 91
56 69 88
51 63 81
61 75 96
58 71 90
60 73 93
63 76 97
55 68 86
60 74 94
55 68 88
59 73 93
58 71 90
54 66 84
57 70 90
61 75 95
57 71 91
57 69 88
55 69 89
58 71 91
59 73 93
62 76 96
59 72 92
57 70 90
57 71 91
58 72 92
55 68 87
62 75 96
58 71 92
59 73 93
56 69 88
58 71 91
61 75 97
59 73 95
59 72 93
58 72 92
59 74 95
56 69 88
60 73 93
58 71 92
60 73 93
64 78 99
61 75 96
59 72 91
57 71 92
61 74 94
58 71 91
56 70 90
62 76 97
61 74 94
56 69 87
61 74 93
58 71 91
60 74 95
62 76 97
60 72 92
55 68 87
57 71 90
62 75 96
56 69 89
61 74 95
60 74 95
61 75 95
61 75 96
56 69 88
61 75 96
55 68 87
56 70 90
55 68 88
57 71 91
56 70 90
57 70 90
60 74 96
59 73 94
58 72 92
57 70 90
60 73 93
59 72 92
61 74 95
60 73 94
56 69 89
61 75 95
56 68 87
61 75 96
61 75 95
57 69 88
59 73 94
57 69 88
59 73 94
59 73 93
58 72 92
61 74 94
55 68 88
56 69 89
63 76 95
58 72 93
53 66 84
56 69 88
58 70 89
55 68 88
56 69 88
58 71 91
61 75 96
54 66 85
58 72 92
57 70 90
58 72 92
55 68 87
58 70 90
60 73 93
59 72 92
57 71 90
56 68 87
69 87 114
75 96 127
74 95 127
74 95 127
74 95 127
73 95 127
74 95 127
74 96 127
74 96 127
74 95 127
75 96 127
75 96 127
73 95 127
76 97 127
73 95 127
73 95 127
74 95 127
72 94 127
73 95 127
73 95 127
75 96 127
73 95 127
75 96 127
73 95 127
75 96 127
74 95 127
73 95 127
75 96 127
73 95 127
74 96 127
74 96 127
74 95 127
75 96 127
76 96 127
75 96 127
74 96 127
74 96 127
75 96 127
74 95 127
74 96 127
73 95 127
74 96 127
74 96 127
74 96 127
74 95 127
74 95 127
75 96 127
75 96 127
73 95 127
74 95 127
75 96 127
74 95 127
74 95 127
73 95 127
75 96 127
74 96 127
75 96 127
74 96 127
75 96 127
73 95 127
73 95 127
74 95 127
74 95 127
75 96 127
73 95 127
73 95 127
74 95 127
75 96 127
72 94 127
75 96 127
74 96 127
75 96 127
73 95 127
74 95 127
76 96 127
75 96 127
74 96 127
75 96 127
74 95 127
74 95 127
73 95 127
75 96 127
75 96 127
74 95 127
74 95 127
78 100 131
93 115 148
104 125 158
107 129 162
120 143 176
129 151 184
125 147 181
155 177 211
159 182 216
174 197 231
180 203 238
186 209 244
197 221 255
197 221 255
197 221 255
197 221 255
197 221 255
197 221 255
197 221 255
197 221 255
197 221 255
197 220 255
197 220 255
197 220 255
197 220 255
197 220 255
197 220 255
197 220 255
197 220 255
197 220 255
197 220 255
197 220 255
197 220 255
197 220 255
197 220 255
197 220 255
197 220 255
197 220 255
197 220 255
197 220 255
197 220 255
197 220 255
197 220 255
197 220 255
197 220 255
197 220 255
197 220 255
197 220 255
197 220 255
197 220 255
197 220 255
197 220 255
197 220 255
197 220 255
197 220 255
197 220 255
197 220 255
197 220 255
197 220 255
197 220 255
197 220 255
197 220 255
197 220 255
197 220 255
197 220 255
197 220 255
197 220 255
197 220 255
197 220 255
197 220 255
197 220 255
197 220 255
197 221 255
197 221 255
197 221 255
197 221 255
197 221 255
197 221 255
197 221 255
197 221 255
197 221 255
194 217 252
192 215 250
173 196 230
169 192 226
158 181 215
152 174 208
135 157 191
122 144 177
118 140 174
105 127 159
88 109 142
91 112 144
79 100 133
74 96 127
75 96 127
75 96 127
74 96 127
74 95 127
74 95 127
74 95 127
73 95 127
73 95 127
75 96 127
73 95 127
74 95 127
74 96 127
74 95 127
75 96 127
74 96 127
74 95 127
74 95 127
74 95 127
73 95 127
76 96 127
73 95 127
74 95 127
75 96 127
74 95 127
73 95 127
74 95 127
74 96 127
74 96 127
74 96 127
73 95 127
74 95 127
74 95 127
73 95 127
75 96 127
75 96 127
76 97 127
75 96 127
74 95 127
75 96 127
75 96 127
74 95 127
74 95 127
74 95 127
74 96 127
75 96 127
73 95 127
74 95 127
74 96 127
73 95 127
74 95 127
75 96 127
75 96 127
74 96 127
73 95 127
75 96 127
74 96 127
73 94 127
73 95 127
74 96 127
74 95 127
73 95 127
74 95 127
75 96 127
74 95 127
74 95 126
74 96 127
74 96 127
74 95 127
75 96 127
74 95 127
74 95 127
74 95 127
75 96 127
74 96 127
73 95 127
75 96 127
74 95 127
73 95 127
75 96 127
74 96 127
74 95 127
73 94 126
73 94 127
72 94 127
74 95 127
74 95 127
75 96 127
73 94 127
75 96 127
74 95 127
74 95 127
74 95 126
73 94 126
73 95 127
76 97 127
71 91 120
59 72 92
60 73 93
55 67 86
62 76 96
57 70 90
57 70 89
55 68 86
60 74 94
56 69 89
63 76 96
55 67 87
57 70 89
62 75 95
56 70 90
54 67 86
59 72 91
59 72 92
61 75 95
59 72 92
60 73 93
58 71 91
55 68 87
59 73 93
58 71 89
58 71 91
60 74 94
56 69 88
58 71 91
56 69 88
53 65 83
56 70 90
60 73 93
57 70 90
57 70 90
59 72 92
58 72 92
55 69 89
57 69 88
58 72 92
64 78 99
61 75 96
58 71 91
56 69 88
59 73 93
61 75 96
60 73 93
56 70 90
56 69 89
52 65 83
58 72 91
60 73 94
59 72 92
61 74 95
56 69 89
60 73 92
57 70 90
50 62 80
59 73 94
60 74 94
60 74 95
56 70 91
61 74 95
55 68 86
58 71 91
59 73 93
56 70 90
59 72 93
59 73 93
62 76 97
55 67 86
62 76 96
59 72 91
61 75 95
58 71 92
59 72 92
58 71 90
57 70 89
60 73 93
58 72 93
60 75 96
58 71 91
60 73 93
64 77 98
57 70 89
56 69 89
57 70 89
55 68 87
59 73 92
57 69 89
60 73 92
60 73 93
59 72 91
57 70 89
56 69 88
62 76 97
55 68 87
58 71 91
61 75 96
54 67 86
58 72 92
57 70 90
63 78 99
58 71 91
55 68 87
60 73 93
59 72 92
59 73 93
55 68 87
59 73 94
57 70 89
59 72 92
62 75 96
57 70 89
60 73 93
55 68 87
60 73 93
59 72 92
55 68 89
55 68 88
56 69 89
62 75 95
55 68 88
58 72 93
60 73 93
73 93 122
74 95 127
74 95 127
73 95 127
74 96 127
73 95 127
73 95 127
72 94 126
73 95 127
72 94 127
73 95 127
75 96 127
74 95 126
76 96 127
74 95 127
73 95 127
74 95 127
75 96 127
74 95 127
73 95 127
74 95 127
73 95 127
75 96 127
74 95 127
74 95 127
73 94 127
74 95 127
74 96 127
75 96 127
74 95 127
75 96 127
75 96 127
74 95 127
74 96 127
74 95 127
73 95 127
73 95 127
74 95 127
75 96 127
74 96 127
73 95 127
73 95 127
74 95 127
75 96 127
74 96 127
74 96 127
73 94 127
74 95 127
73 95 127
75 96 127
76 96 127
74 95 127
74 96 127
74 95 127
74 95 127
75 96 127
75 96 127
74 95 127
75 96 127
75 96 127
75 96 127
74 96 127
74 95 127
76 96 127
75 96 127
74 95 127
74 96 127
74 96 127
74 95 127
73 94 127
74 95 127
74 95 127
74 95 127
75 96 127
74 96 127
75 96 127
74 95 127
74 96 127
73 95 127
73 95 127
74 96 127
74 95 127
74 95 127
74 95 127
75 96 127
74 96 127
74 95 127
73 95 127
74 95 127
74 96 127
74 96 127
73 95 127
74 95 127
75 96 127
75 96 127
75 96 127
74 95 127
75 96 127
85 106 138
94 116 148
99 121 154
109 131 165
128 151 184
132 155 188
145 168 202
149 172 206
163 186 220
180 203 238
188 211 245
196 219 254
197 221 255
197 221 255
197 221 255
197 221 255
197 221 255
197 221 255
197 221 255
197 221 255
197 221 255
197 220 255
197 220 255
197 220 255
197 220 255
197 220 255
197 220 255
197 220 255
197 220 255
197 220 255
197 220 255
197 220 255
197 220 255
197 220 255
197 220 255
197 220 255
197 220 255
197 220 255
197 220 255
197 220 255
197 220 255
197 220 255
197 220 255
197 220 255
197 221 255
197 221 255
197 221 255
197 221 255
197 221 255
197 221 255
197 221 255
197 221 255
197 221 255
197 221 255
197 221 255
197 221 255
197 221 255
191 214 249
181 203 238
163 186 220
159 182 216
141 164 198
141 163 197
120 142 175
114 136 168
104 126 158
95 117 149
86 108 140
77 99 131
74 95 127
75 96 127
74 95 127
74 95 127
75 96 127
75 96 127
74 95 127
73 95 127
74 95 127
74 96 127
75 96 127
73 95 127
74 95 127
74 96 127
74 96 127
75 96 127
75 96 127
74 96 127
73 95 127
74 95 127
74 95 127
75 96 127
74 95 127
75 96 127
73 95 127
76 96 127
74 96 127
74 95 127
74 96 127
75 96 127
76 96 127
74 96 127
74 95 127
74 95 127
74 95 127
73 95 127
75 96 127
75 96 127
75 96 127
74 96 127
74 95 127
74 95 127
76 97 127
74 96 127
74 95 127
74 95 127
74 95 127
74 95 127
74 96 127
74 96 127
75 96 127
75 96 127
73 95 127
73 94 127
74 96 127
74 95 127
74 95 127
74 96 127
74 95 127
75 96 127
74 95 127
74 95 127
74 95 127
74 95 127
74 95 127
73 95 127
73 95 127
74 96 127
74 95 127
73 95 127
74 96 127
75 96 127
74 95 127
74 96 127
76 97 127
73 95 127
74 95 127
74 96 127
73 95 127
75 95 126
73 95 127
74 95 127
73 95 127
73 95 127
72 94 127
74 95 127
75 96 127
75 96 127
75 96 127
75 96 127
73 95 127
74 95 127
73 95 127
74 95 127
72 93 124
75 96 127
73 95 127
74 96 127
74 95 127
73 94 126
75 96 127
74 95 127
74 95 127
74 95 127
74 96 127
74 96 127
74 95 127
74 95 127
73 94 127
60 75 97
55 67 86
53 65 82
59 73 92
62 75 96
53 65 84
56 69 89
57 70 90
60 73 92
55 68 87
60 73 93
58 71 90
59 73 93
52 65 84
60 74 94
60 73 93
59 72 92
56 69 90
59 72 92
55 68 86
57 70 90
63 76 97
57 70 90
59 73 94
57 70 90
50 63 82
65 78 99
56 69 89
62 76 97
59 72 91
52 65 84
58 71 92
56 69 90
62 75 95
67 81 102
57 70 88
64 77 98
61 74 94
57 71 91
53 66 85
54 67 86
59 72 92
58 71 92
52 64 83
57 69 88
58 71 90
58 72 91
57 69 87
53 66 86
56 69 89
55 68 87
56 69 88
60 74 95
60 73 93
60 73 93
63 77 98
61 75 95
56 70 91
60 74 96
58 71 92
58 71 92
56 69 88
61 75 96
59 72 92
59 72 91
58 71 91
56 69 88
57 70 90
56 69 88
57 71 91
57 70 90
56 69 89
57 70 89
59 72 92
59 73 93
60 72 91
65 78 99
59 72 91
54 67 86
59 73 93
56 70 91
54 67 86
62 76 96
60 74 95
57 71 91
61 73 93
65 79 99
61 75 95
57 70 89
60 74 94
59 72 91
59 72 91
56 69 88
57 70 91
52 65 84
57 70 89
65 78 99
54 66 85
55 69 88
59 72 93
56 69 89
58 71 90
56 69 88
60 74 95
61 74 94
58 72 91
65 79 100
60 73 93
57 69 88
58 72 92
54 67 86
57 70 91
58 70 90
60 73 92
62 75 95
58 72 92
57 69 88
53 67 86
56 69 88
55 68 86
57 69 88
55 68 87
56 69 87
60 76 98
73 95 127
75 96 127
74 95 127
74 95 127
74 96 127
74 95 127
74 95 126
73 94 126
74 95 126
73 94 126
74 95 127
73 94 126
73 95 127
75 96 127
74 95 127
75 95 127
75 96 127
75 96 127
73 95 127
74 95 127
73 95 127
74 95 127
74 95 127
74 96 127
73 95 127
75 96 127
74 95 127
74 95 127
74 95 127
74 95 127
75 96 127
73 95 127
73 94 127
75 96 127
75 96 127
75 96 127
74 95 127
73 95 127
74 96 127
74 96 127
75 96 127
74 95 127
75 96 127
74 95 127
75 96 127
74 95 127
74 95 127
74 95 127
74 95 127
74 96 127
74 96 127
75 96 127
74 95 127
75 96 127
74 96 127
72 94 127
73 95 127
74 95 127
74 95 127
75 96 127
73 95 127
74 95 127
75 96 127
75 96 127
76 96 127
75 96 127
76 96 127
74 96 127
75 96 127
74 95 127
73 95 127
74 95 127
74 95 127
74 96 127
73 95 127
74 95 127
74 95 127
74 96 127
75 96 127
75 96 127
75 96 127
75 96 127
74 95 127
75 96 127
72 94 127
75 96 127
74 95 127
74 95 127
74 95 127
73 95 127
74 95 127
76 96 127
75 96 127
76 96 127
75 96 127
74 95 127
73 95 127
74 96 127
74 95 127
74 96 127
73 95 127
75 96 127
73 95 127
74 96 127
75 96 127
74 95 127
75 96 127
74 95 127
73 95 127
76 98 130
82 104 136
88 109 142
111 134 167
120 142 175
126 148 181
138 161 194
152 174 208
159 182 216
176 199 234
183 206 240
188 211 245
197 221 255
197 221 255
197 221 255
197 221 255
197 221 255
197 221 255
197 221 255
197 221 255
197 221 255
197 221 255
197 221 255
197 221 255
197 220 255
197 220 255
197 220 255
197 220 255
197 220 255
197 221 255
197 221 255
197 221 255
197 221 255
197 221 255
195 218 253
190 213 248
171 194 227
160 183 217
152 175 208
148 170 204
121 143 176
117 139 172
98 119 152
100 122 154
86 107 139
76 97 130
75 96 127
74 95 127
75 96 127
74 95 127
75 96 127
73 95 127
75 96 127
75 96 127
75 96 127
74 95 127
74 96 127
74 95 127
74 95 127
73 95 127
75 96 127
73 95 127
74 95 127
75 96 127
75 96 127
75 96 127
74 95 127
75 96 127
74 95 127
75 96 127
75 96 127
75 96 127
75 96 127
72 94 127
74 96 127
74 95 127
73 95 127
74 96 127
75 96 127
74 95 127
74 96 127
76 97 127
74 95 127
73 95 127
73 95 127
74 95 127
75 96 127
74 96 127
75 96 127
75 96 127
74 96 127
75 96 127
75 96 127
74 96 127
74 95 127
74 95 127
74 95 127
76 97 127
73 95 127
74 95 127
74 96 127
75 96 127
75 96 127
75 96 127
74 96 127
74 95 127
77 97 127
74 95 127
76 96 127
74 96 127
73 95 127
73 95 127
74 95 127
74 95 127
73 95 127
74 95 127
74 96 127
73 95 127
74 95 127
75 96 127
75 96 127
72 94 127
72 94 127
73 95 127
73 94 127
73 95 127
74 95 127
73 94 127
74 95 127
75 95 126
73 95 127
75 95 127
74 95 127
74 95 127
72 94 127
73 95 127
73 94 126
75 96 127
73 94 127
74 96 127
74 95 127
74 95 127
73 95 127
73 95 127
73 95 127
74 96 127
73 95 127
74 95 127
74 95 127
74 95 127
74 95 127
74 95 127
74 95 127
74 96 127
75 96 127
73 94 127
74 95 127
73 95 127
73 94 126
74 95 127
74 96 127
73 95 127
74 95 127
74 96 127
75 95 126
75 96 127
75 96 127
63 80 105
55 68 87
59 72 91
58 71 92
53 66 84
55 68 87
55 69 88
52 64 82
54 68 88
60 73 93
62 76 96
52 64 83
57 70 89
56 69 89
59 72 91
57 70 89
54 67 86
57 70 89
57 71 90
54 67 88
61 74 94
58 72 92
62 76 96
56 69 88
53 65 83
60 73 93
56 69 89
55 68 88
58 72 92
59 72 91
57 71 90
62 76 96
55 69 88
59 72 92
57 71 91
59 72 92
57 70 90
59 72 93
60 73 92
56 68 87
59 72 92
57 71 91
61 74 93
60 74 94
57 69 88
56 69 89
63 77 98
57 70 91
58 72 92
56 69 89
61 74 93
51 63 82
53 65 84
61 74 94
61 75 95
54 66 86
57 71 90
61 75 96
57 70 90
59 72 92
57 70 91
53 66 85
62 76 96
62 75 95
60 73 94
57 70 89
53 66 85
64 77 98
56 69 89
55 68 87
62 75 95
55 68 87
57 69 88
59 72 93
57 70 90
58 71 91
56 69 89
53 66 85
58 72 93
59 72 93
59 73 93
60 73 93
55 67 86
59 73 93
58 70 89
57 70 90
59 73 92
55 68 87
62 75 95
58 71 89
62 75 95
62 76 97
56 70 89
60 74 94
54 67 86
58 71 91
57 70 91
58 71 90
56 69 89
54 67 86
61 75 95
60 73 93
59 73 93
62 76 97
59 71 90
57 70 91
56 69 89
56 69 88
58 72 92
59 72 93
58 71 91
57 70 90
59 73 93
62 75 95
58 71 91
54 68 87
54 67 86
50 62 81
58 71 91
51 63 81
55 68 88
53 65 83
59 72 93
65 82 109
75 96 127
74 96 127
73 94 127
74 95 127
72 94 126
74 95 127
72 94 127
74 95 127
73 95 127
74 95 127
74 95 127
74 95 127
74 95 126
75 96 127
72 93 126
74 95 127
74 95 127
75 96 127
74 95 127
75 96 127
73 95 127
75 96 127
75 96 127
75 96 127
74 95 127
74 95 127
74 95 127
74 95 127
74 95 127
75 96 127
74 95 127
73 95 127
75 96 127
74 96 127
74 95 127
72 93 125
74 96 127
74 95 127
74 95 127
73 94 127
74 95 127
76 96 127
74 96 127
74 96 127
73 95 127
74 95 126
75 96 127
74 95 127
73 95 127
76 96 127
73 95 127
72 94 127
73 95 127
73 94 127
74 95 127
74 95 127
74 95 127
74 96 127
75 96 127
75 96 127
75 96 127
73 94 127
73 94 127
74 96 127
72 94 127
75 96 127
74 96 127
74 95 127
74 95 127
75 96 127
74 95 127
73 95 127
74 95 127
75 96 127
74 95 127
75 96 127
73 95 127
74 95 127
75 96 127
74 95 127
74 95 127
75 96 127
73 95 127
74 95 127
74 96 127
74 95 127
74 96 127
74 95 127
76 96 127
76 96 127
75 96 127
77 97 127
73 95 127
74 95 127
74 96 127
74 95 127
74 95 127
74 95 127
75 96 127
75 96 127
74 95 127
74 95 127
73 95 127
74 96 127
74 95 127
74 95 127
73 95 127
74 95 127
74 96 127
75 96 127
74 95 127
74 96 127
74 96 127
73 95 127
74 95 127
74 95 127
75 96 127
75 96 127
75 96 127
74 95 127
74 96 127
78 99 130
91 113 145
92 113 145
118 140 174
118 140 174
131 153 186
137 159 193
158 181 215
172 195 229
171 193 227
184 207 241
193 216 250
197 221 255
197 221 255
197 221 255
197 221 255
197 221 255
133 155 189
111 133 166
107 128 161
94 115 148
90 111 144
75 96 127
74 95 127
73 95 127
75 96 127
74 96 127
74 95 127
75 96 127
75 96 127
73 95 127
74 95 127
74 95 127
74 95 127
74 95 127
76 97 127
75 96 127
74 95 127
75 96 127
74 96 127
73 95 127
73 95 127
76 96 127
73 95 127
74 95 127
74 95 127
75 96 127
74 96 127
75 96 127
74 96 127
74 95 127
74 95 127
74 95 127
75 96 127
74 95 127
74 96 127
74 95 127
73 95 127
74 96 127
75 96 127
74 96 127
73 95 127
74 95 127
74 95 127
74 95 127
75 96 127
73 95 127
73 95 127
74 95 127
74 96 127
74 96 127
75 96 127
75 96 127
73 94 126
74 95 127
74 95 127
74 95 127
73 95 127
74 95 127
73 95 127
74 95 127
74 95 127
75 96 127
74 95 127
75 96 127
73 95 127
75 96 127
76 97 127
76 96 127
74 96 127
75 96 127
74 95 127
73 95 127
75 96 127
73 95 127
74 95 127
74 95 127
74 95 127
73 95 127
74 95 127
73 95 127
74 95 127
74 96 127
74 96 127
75 96 127
73 94 127
74 95 127
74 95 126
74 95 127
76 96 127
75 96 127
76 96 127
74 95 127
74 95 127
74 95 127
74 95 127
75 95 127
73 95 127
75 96 127
74 95 127
75 96 127
74 95 127
74 95 127
73 95 127
73 95 127
74 96 127
73 94 127
75 96 127
73 94 127
73 94 126
73 95 127
73 94 126
74 95 127
73 94 126
73 94 126
75 96 127
74 95 127
74 96 127
75 96 127
73 95 127
73 95 127
75 96 127
74 95 127
73 95 127
75 96 127
73 95 127
74 95 127
74 96 127
74 95 127
73 94 125
74 96 127
74 95 127
73 94 126
73 94 126
74 95 127
70 90 120
55 67 86
54 68 87
54 67 87
60 72 91
55 67 86
54 67 85
58 71 90
57 69 88
57 70 90
57 71 91
58 71 90
55 68 88
59 72 92
60 74 94
54 67 86
54 67 87
61 74 94
56 68 87
57 70 90
56 68 87
60 74 94
52 65 84
57 71 91
56 69 88
56 69 88
58 72 92
58 72 92
55 68 88
60 72 92
56 69 89
60 73 94
59 72 92
61 75 95
59 72 92
57 70 90
57 70 90
61 75 95
56 69 89
52 65 84
59 72 92
52 65 85
52 64 83
58 71 92
59 72 91
60 74 96
59 72 91
61 75 96
60 73 93
57 69 87
62 75 95
58 71 91
53 65 84
58 71 90
54 67 86
55 68 88
56 69 88
64 77 97
58 71 90
60 73 94
55 69 88
58 71 90
62 75 95
56 69 89
58 71 91
60 74 94
57 70 90
59 73 93
60 73 93
57 71 91
57 70 90
59 72 92
59 72 92
58 71 91
58 71 92
58 72 92
59 73 93
60 73 93
58 72 93
58 71 91
57 70 89
59 72 92
57 70 89
58 71 90
62 75 94
59 72 92
58 71 91
58 71 90
59 72 93
58 71 91
56 69 88
53 67 86
58 71 90
63 76 96
57 71 91
55 68 87
58 71 90
61 75 95
56 69 88
55 68 87
57 70 90
59 73 93
58 71 92
57 70 90
57 70 89
57 70 89
62 75 95
57 71 91
52 65 84
50 61 78
56 69 88
60 74 95
57 69 88
60 73 92
52 65 84
49 61 80
57 69 88
53 65 83
53 65 84
51 64 82
59 72 92
60 73 93
54 67 86
71 91 121
74 95 126
73 95 127
75 96 127
75 96 127
74 95 127
74 95 126
74 95 126
75 96 127
73 94 126
75 96 127
74 95 126
73 95 127
71 93 125
73 94 126
74 96 127
73 94 127
72 94 126
75 96 127
74 95 127
75 96 127
75 96 127
74 95 127
74 95 127
74 95 127
74 95 127
74 95 127
74 96 127
74 95 127
74 95 127
72 94 127
74 96 127
75 96 127
74 95 127
74 95 127
75 96 127
73 95 127
75 96 127
74 95 127
76 97 127
74 95 127
73 94 127
73 95 127
72 94 127
73 94 127
73 94 126
73 94 127
74 96 127
76 96 127
73 95 127
74 95 127
74 95 127
73 94 127
75 96 127
73 95 127
75 96 127
74 96 127
74 96 127
74 95 127
75 96 127
74 95 127
73 94 127
74 95 127
73 95 127
74 95 127
75 96 127
74 95 127
75 96 127
74 95 127
75 96 127
74 96 127
73 95 127
73 95 127
75 96 127
74 95 127
73 95 127
73 95 127
74 95 127
74 95 127
74 96 127
74 95 127
74 96 127
75 96 127
74 96 127
73 95 127
73 95 127
76 96 127
75 96 127
75 96 127
73 95 127
73 95 127
73 95 127
74 95 127
75 96 127
75 96 127
74 95 127
73 95 127
74 96 127
73 95 127
75 96 127
75 96 127
73 95 127
73 95 127
75 96 127
74 96 127
75 96 127
74 95 127
74 95 127
75 96 127
74 95 127
74 95 127
73 95 127
74 95 127
73 95 127
74 95 127
74 96 127
75 96 127
74 95 127
75 96 127
74 96 127
73 95 127
74 95 127
73 95 127
74 95 127
75 96 127
73 95 127
74 96 127
73 95 127
75 96 127
74 95 127
74 96 127
75 96 127
76 97 127
74 96 127
86 107 140
87 108 140
102 123 156
112 134 167
136 159 193
75 96 127
75 96 127
74 96 127
74 96 127
75 96 127
74 95 127
73 95 127
74 95 127
74 96 127
74 96 127
73 95 127
73 95 127
75 96 127
75 96 127
75 96 127
76 97 127
74 95 127
74 96 127
73 95 127
74 96 127
74 95 127
75 96 127
74 95 127
74 95 127
72 94 127
74 95 127
74 95 127
74 95 127
73 95 127
75 96 127
73 95 127
74 96 127
74 96 127
72 94 127
75 96 127
75 96 127
73 95 127
75 96 127
73 95 126
74 95 127
74 96 127
73 95 127
74 96 127
74 95 127
74 95 127
74 95 127
75 96 127
75 96 127
74 95 127
74 95 127
74 95 127
73 95 127
75 96 127
74 95 127
74 95 127
74 95 127
75 96 127
74 96 127
75 96 127
74 96 127
73 94 127
74 95 127
73 95 127
73 95 127
74 95 127
73 95 127
74 95 126
73 94 127
76 96 127
73 95 127
74 95 127
74 95 127
73 94 127
74 95 127
74 95 127
75 96 127
74 95 127
75 96 127
74 95 127
73 94 127
74 96 127
75 96 127
75 96 127
74 95 127
75 96 127
75 96 127
75 96 127
74 95 127
75 96 127
73 95 127
75 96 127
74 95 127
73 95 127
73 95 127
75 96 127
74 95 127
74 95 127
76 96 127
73 95 127
73 95 127
73 95 127
75 96 127
74 95 127
74 96 127
74 96 127
73 94 125
73 95 127
75 96 127
74 95 127
74 95 127
74 95 127
75 96 127
73 95 127
74 96 127
72 94 127
74 96 127
74 96 127
74 95 127
74 96 127
73 95 127
73 94 127
74 95 127
74 95 127
75 96 127
75 96 127
71 93 126
74 96 127
75 96 127
75 96 127
75 96 127
75 95 127
73 94 127
74 95 127
73 94 127
74 95 127
73 95 127
73 94 126
74 96 127
75 96 127
61 76 99
55 67 86
55 67 85
59 72 91
57 70 89
58 71 90
56 69 88
57 69 88
57 69 87
55 67 85
60 73 94
57 70 90
59 72 91
56 69 88
54 68 89
54 67 87
56 68 87
60 73 93
56 69 88
52 64 82
55 68 87
61 74 95
56 69 89
55 67 85
53 66 84
59 73 94
60 73 93
60 73 93
59 72 91
55 69 89
60 73 94
59 73 93
58 72 93
57 70 89
58 72 92
54 66 84
60 74 95
55 67 86
60 73 94
61 73 93
60 73 94
57 71 91
57 70 90
57 70 89
55 69 89
53 66 84
63 77 97
62 76 97
60 73 92
58 71 91
59 72 92
57 70 89
56 69 88
61 75 95
57 70 89
54 66 85
56 70 89
61 74 94
64 78 99
58 71 91
61 75 95
57 70 91
53 65 83
58 71 92
62 76 96
58 71 92
64 78 99
54 68 88
58 71 90
57 70 90
54 67 86
56 69 88
56 69 88
61 75 95
56 69 89
55 68 87
56 68 88
53 66 84
54 67 86
56 69 89
59 71 91
56 68 87
58 71 90
55 68 86
60 74 95
57 69 88
52 64 83
61 74 94
60 74 94
55 68 87
55 68 87
57 69 88
56 70 89
57 69 88
56 68 87
59 72 92
54 68 88
59 73 93
58 71 92
57 70 88
56 69 88
54 67 86
55 67 86
57 70 89
56 69 88
60 73 92
54 67 87
54 66 85
55 68 86
58 72 92
53 66 85
57 70 89
53 66 85
57 70 89
51 64 83
56 69 87
57 70 90
54 66 85
56 69 88
55 68 87
56 68 87
61 77 100
74 95 126
72 94 127
72 93 125
74 95 127
75 96 127
74 95 127
74 95 126
74 96 127
74 95 126
74 95 127
74 95 127
75 95 127
73 95 127
74 96 127
74 95 127
73 94 126
74 96 127
74 95 127
75 96 127
75 96 127
75 96 127
74 95 127
72 94 127
73 94 126
72 94 127
75 96 127
72 94 126
74 95 127
75 96 127
73 94 126
74 96 127
75 96 127
74 95 127
74 95 127
74 95 127
74 95 127
75 96 127
74 95 127
73 94 126
74 95 127
73 94 127
74 95 127
74 95 127
76 97 127
74 95 127
74 96 127
72 94 127
75 96 127
74 96 127
75 96 127
76 97 127
73 95 127
74 95 127
73 95 127
74 96 127
74 95 127
75 96 127
73 95 127
74 95 127
74 95 127
74 96 127
74 95 127
73 95 127
74 96 127
74 95 127
75 96 127
74 95 127
74 95 127
74 95 127
74 95 127
74 96 127
73 95 127
73 95 127
74 95 127
74 96 127
74 96 127
74 95 127
74 95 127
75 96 127
74 96 127
75 96 127
73 95 127
75 96 127
73 95 127
73 95 127
75 96 127
73 95 127
73 95 127
73 95 127
74 95 127
74 95 127
73 95 127
74 96 127
74 96 127
74 95 127
75 96 127
74 95 127
74 96 127
74 95 127
74 96 127
75 96 127
75 96 127
74 95 127
75 96 127
75 96 127
75 96 127
74 96 127
74 95 127
74 95 127
75 96 127
74 95 127
75 96 127
75 96 127
75 96 127
74 96 127
75 96 127
75 96 127
74 96 127
74 95 127
75 96 127
75 96 127
72 94 126
75 96 127
73 95 127
74 96 127
75 96 127
75 96 127
73 95 127
74 96 127
73 95 127
74 95 127
74 96 127
75 96 127
75 96 127
75 96 127
74 96 127
74 95 127
74 96 127
75 96 127
74 96 127
74 96 127
74 96 127
74 95 127
74 96 127
74 95 127
74 96 127
72 94 127
73 95 127
74 96 127
74 96 127
72 94 127
75 96 127
74 95 127
74 95 127
75 96 127
75 96 127
75 96 127
74 96 127
74 95 127
76 96 127
74 95 127
74 95 127
74 95 127
73 95 127
73 95 127
75 96 127
75 96 127
75 96 127
74 95 127
72 94 127
74 95 127
74 96 127
75 96 127
75 96 127
75 96 127
76 97 127
74 95 127
75 96 127
73 95 127
74 96 127
73 95 127
74 95 127
74 95 127
73 95 127
75 96 127
73 95 127
74 95 127
73 95 127
74 95 127
74 96 127
76 97 127
75 96 127
73 95 127
74 95 127
74 95 127
74 95 127
74 96 127
74 95 127
73 95 127
75 96 127
72 94 127
73 95 127
73 95 127
75 96 127
74 95 127
74 95 127
75 96 127
73 95 127
74 95 127
73 94 125
73 95 127
76 96 127
74 95 127
73 95 127
75 96 127
74 96 127
75 96 127
74 96 127
74 96 127
74 96 127
73 94 126
75 96 127
71 94 127
73 95 127
75 96 127
73 95 127
73 95 127
74 95 127
75 96 127
74 95 127
75 96 127
73 94 127
73 95 127
75 96 127
72 93 124
76 97 127
74 96 127
73 95 127
74 95 127
75 96 127
74 95 127
74 95 127
75 96 127
73 95 127
75 95 127
73 95 127
73 94 127
72 94 125
75 96 127
73 95 127
73 95 127
75 96 127
73 95 127
74 96 127
74 95 126
73 94 126
75 96 127
74 95 127
73 94 126
74 94 125
74 96 127
73 94 126
74 95 127
74 95 127
75 95 127
73 95 127
72 94 125
74 95 127
73 94 125
73 94 126
74 96 127
73 94 125
73 94 127
72 93 125
73 95 127
74 95 127
71 93 125
73 95 126
68 86 114
54 66 85
56 68 87
58 71 90
57 69 88
58 70 89
54 67 86
58 70 89
55 68 86
58 71 90
59 72 92
54 67 86
57 70 89
53 65 82
55 67 86
53 65 84
53 66 85
54 67 85
56 69 88
52 64 83
56 69 88
57 69 88
59 73 93
59 72 92
57 69 88
54 67 85
56 69 88
55 68 87
56 69 88
56 69 88
58 72 92
57 70 89
58 72 92
59 72 92
54 66 85
57 69 88
57 71 91
57 69 88
60 73 93
56 69 88
55 68 87
54 67 86
60 74 94
55 68 87
54 66 85
62 75 95
58 71 90
57 70 90
59 72 92
58 71 91
58 71 90
57 70 90
57 70 88
61 75 97
58 71 91
57 70 89
57 70 90
61 74 95
56 69 88
58 71 91
60 73 92
61 74 93
58 71 91
58 71 90
61 74 94
59 73 95
58 71 90
58 71 91
59 72 91
56 69 88
62 76 96
66 80 101
52 63 81
54 66 85
55 68 86
57 70 89
59 71 90
59 72 92
56 68 86
61 75 95
57 70 89
59 72 93
56 69 89
55 68 88
61 74 95
61 74 92
55 68 87
54 66 86
56 69 88
58 71 90
59 71 90
58 70 89
60 74 94
60 73 93
57 69 88
58 71 90
56 69 88
58 71 91
57 69 88
57 71 91
56 69 89
62 75 94
59 72 91
56 69 89
54 66 85
63 77 98
51 63 82
60 73 92
58 71 91
55 67 86
58 70 89
55 68 88
53 66 85
61 75 95
60 73 93
57 69 88
49 60 77
56 69 88
56 70 91
60 73 93
50 62 80
69 88 116
74 96 127
72 94 126
71 93 124
72 94 127
75 96 127
73 94 126
72 94 126
73 94 126
75 96 127
71 93 127
73 95 127
74 95 127
73 94 126
74 95 127
74 95 127
73 94 126
73 95 127
73 95 127
74 96 127
74 95 127
75 96 127
74 95 126
74 96 127
73 94 126
75 96 127
74 95 127
73 94 127
74 95 127
74 95 127
73 94 126
72 94 126
74 96 127
75 96 127
74 95 126
74 95 127
73 94 127
74 95 127
76 97 127
73 95 127
74 95 127
74 95 127
73 95 127
75 96 127
74 95 127
74 96 127
75 96 127
74 95 127
74 95 127
72 94 127
74 95 127
74 95 127
74 95 127
73 95 127
72 94 127
75 96 127
76 96 127
75 96 127
75 96 127
74 95 127
74 95 127
74 95 127
75 96 127
75 96 127
74 95 127
74 96 127
73 94 127
74 95 127
73 95 127
74 95 127
74 96 127
74 96 127
74 96 127
75 96 127
75 96 127
75 96 127
73 95 127
74 95 127
75 96 127
75 96 127
73 95 127
74 95 127
74 95 127
75 96 127
73 94 127
75 96 127
74 95 127
74 95 127
75 96 127
75 96 127
74 95 127
75 96 127
75 96 127
74 95 127
75 96 127
74 95 127
75 96 127
74 95 127
74 95 127
75 96 127
74 95 127
75 96 127
73 95 127
76 96 127
74 96 127
73 95 127
75 96 127
73 94 127
74 96 127
74 95 127
74 95 127
74 95 127
75 96 127
73 95 127
74 96 127
74 95 127
74 95 127
74 95 127
74 95 127
74 95 127
74 95 127
74 95 127
74 95 127
75 96 127
75 96 127
74 96 127
76 96 127
73 95 127
75 96 127
74 95 127
73 95 127
74 95 127
76 97 127
75 95 126
75 96 127
73 95 127
75 96 127
75 96 127
74 95 127
75 96 127
75 96 127
75 96 127
74 96 127
75 96 127
73 95 127
75 96 127
75 96 127
74 95 127
74 95 127
76 97 127
74 95 127
75 96 127
76 97 127
75 96 127
74 96 127
75 96 127
73 95 127
74 95 127
73 95 127
74 95 127
75 96 127
74 95 127
74 95 126
74 95 127
74 95 127
74 95 127
74 96 127
73 95 127
73 95 127
72 94 127
75 96 127
73 95 127
76 97 127
73 95 127
74 96 127
74 96 127
73 95 127
74 95 127
74 95 127
74 96 127
73 95 127
74 95 127
75 96 127
74 95 127
75 96 127
74 95 127
73 95 127
74 96 127
74 95 127
74 95 127
74 95 127
75 96 127
75 96 127
74 95 127
74 95 127
74 96 127
74 96 127
74 95 127
75 96 127
74 96 127
74 95 127
77 97 127
74 95 127
74 95 127
74 95 127
73 95 127
75 96 127
74 95 127
73 95 127
74 95 127
73 95 127
75 96 127
74 95 127
74 96 127
75 96 127
74 95 127
73 95 127
74 95 127
74 96 127
72 93 125
74 95 127
73 95 127
75 96 127
74 95 127
74 95 126
75 95 127
75 96 127
73 94 127
74 95 127
74 95 127
74 95 127
74 96 127
73 94 127
73 94 127
73 95 127
73 95 127
74 95 127
74 95 127
74 96 127
75 96 127
74 95 126
73 95 127
73 95 127
73 95 127
73 95 127
74 96 127
75 96 127
72 94 127
74 95 127
75 95 127
74 95 127
74 95 127
74 95 127
74 95 127
74 96 127
75 95 127
74 95 127
74 95 127
73 95 127
75 96 127
74 95 127
74 94 125
73 95 127
73 95 127
73 93 125
75 95 127
74 95 126
73 94 127
75 96 127
73 94 126
74 95 127
75 96 127
72 93 124
75 95 126
74 95 127
74 95 127
72 94 126
74 95 127
71 92 123
72 93 124
60 74 94
57 70 89
52 64 82
55 67 86
53 66 86
51 63 81
58 71 91
58 71 90
53 66 85
62 76 97
56 70 91
56 69 89
53 65 82
55 67 86
55 67 84
55 68 87
52 64 83
60 73 91
53 65 84
57 70 90
53 65 84
56 69 88
50 62 80
53 66 85
54 66 85
56 69 88
60 74 95
56 69 88
58 71 91
56 68 87
57 70 89
61 73 93
57 70 89
53 66 85
56 69 88
55 67 86
57 69 87
58 70 89
55 69 88
53 65 84
57 71 91
62 75 95
54 67 86
62 76 96
59 73 92
56 69 88
54 66 85
55 68 88
55 68 87
52 65 84
59 72 92
55 68 87
54 66 84
57 70 90
60 74 94
57 71 91
52 65 84
52 64 83
55 67 86
54 66 84
56 69 89
60 73 94
54 67 86
57 69 87
61 74 94
57 70 89
54 66 85
58 71 91
55 67 85
58 71 91
55 67 87
58 72 92
60 74 93
59 72 92
58 72 92
60 73 92
56 68 87
57 70 89
61 75 95
53 66 85
55 68 87
61 74 93
58 72 92
62 75 95
61 75 94
57 70 90
53 65 85
63 76 96
54 67 86
59 74 95
56 68 87
56 69 89
59 72 91
57 70 90
59 72 92
56 69 88
55 67 86
53 66 85
54 67 86
60 73 93
62 75 95
56 69 88
54 66 85
53 66 84
63 76 96
56 69 88
59 72 92
51 63 81
53 65 84
55 68 87
59 72 92
57 70 88
51 63 81
52 65 83
58 71 90
55 68 87
55 68 86
51 64 82
57 70 90
50 62 81
74 95 126
74 95 127
72 94 127
73 95 127
72 93 126
72 94 126
73 94 127
73 94 127
74 95 126
73 95 127
74 95 127
73 95 126
74 95 127
73 94 127
74 95 127
72 93 125
73 95 127
74 95 127
73 95 127
72 93 125
72 93 125
74 95 127
74 95 127
75 96 127
73 94 126
73 95 127
73 94 126
74 95 127
75 96 127
73 95 127
73 94 127
74 95 127
72 94 127
75 96 127
76 96 127
74 95 127
75 96 127
73 95 127
74 95 127
72 94 126
73 95 127
74 95 127
74 95 127
75 96 127
74 95 127
75 95 127
73 94 127
75 96 127
74 95 127
75 96 127
74 95 127
76 96 127
74 95 127
73 95 127
73 95 127
75 96 127
74 95 127
73 95 127
74 95 127
74 95 127
74 95 127
74 95 127
75 96 127
74 95 127
74 95 127
75 96 127
73 95 127
75 96 127
73 95 127
74 95 127
76 96 127
75 96 127
75 96 127
74 95 127
73 94 127
74 95 127
74 95 127
73 95 127
74 95 127
74 95 127
74 95 127
74 95 127
75 96 127
74 95 127
75 96 127
74 95 127
76 96 127
73 95 127
74 96 127
75 96 127
73 95 127
74 95 127
74 96 127
74 95 127
73 95 127
75 96 127
76 96 127
74 95 127
75 96 127
74 95 127
75 96 127
75 96 127
75 96 127
75 96 127
73 94 127
75 96 127
76 97 127
74 95 127
76 97 127
74 95 127
76 97 127
74 95 127
74 96 127
74 95 127
75 96 127
74 95 127
75 96 127
73 95 127
74 95 127
73 95 127
74 95 127
75 96 127
74 95 127
74 96 127
74 95 127
74 96 127
76 96 127
74 95 127
74 95 127
74 96 127
74 95 127
73 95 127
74 96 127
75 96 127
74 96 127
73 94 126
74 96 127
73 95 127
73 95 127
74 95 127
74 95 127
74 96 127
74 96 127
73 95 127
75 96 127
76 96 127
75 96 127
73 95 127
75 96 127
74 96 127
74 95 127
75 96 127
75 96 127
75 96 127
74 96 127
73 95 127
74 95 127
74 95 127
74 96 127
73 95 127
75 96 127
74 96 127
75 96 127
74 96 127
74 95 127
73 95 127
74 95 126
74 96 127
74 96 127
74 95 127
74 95 127
76 97 127
75 96 127
72 94 127
73 94 127
74 95 127
73 95 127
74 95 127
76 96 127
74 95 127
74 96 127
73 94 127
73 95 127
73 95 127
74 95 127
75 96 127
73 95 127
74 95 127
75 96 127
74 95 127
74 95 127
74 95 127
76 96 127
74 95 127
73 94 127
74 95 127
74 95 127
74 95 127
72 94 127
75 96 127
74 95 127
73 95 127
73 95 127
74 96 127
73 95 127
73 95 127
75 96 127
74 95 127
73 95 127
74 96 127
74 95 127
74 95 127
74 95 127
74 95 127
74 95 127
75 95 127
74 96 127
75 96 127
74 95 127
75 96 127
73 95 127
75 96 127
75 96 127
72 94 127
74 95 127
74 96 127
73 94 125
73 94 127
74 95 127
74 95 127
73 94 127
74 95 127
75 96 127
72 93 126
73 94 126
74 96 127
73 95 127
73 94 126
74 94 126
73 94 126
74 95 127
75 96 127
73 95 127
73 95 127
75 96 127
73 94 127
72 94 126
74 95 127
73 95 126
74 95 127
75 96 127
74 95 127
74 96 127
74 95 126
74 95 127
75 96 127
75 96 127
74 95 127
74 95 127
71 93 125
73 95 127
74 95 127
71 92 124
73 95 127
73 94 126
73 94 126
74 95 127
73 95 127
73 95 127
74 95 126
74 95 127
73 95 127
72 94 126
72 94 127
74 95 127
72 93 125
74 95 127
73 94 127
74 96 127
72 93 123
66 83 109
53 66 84
51 63 81
51 64 83
55 68 88
56 68 87
55 68 87
56 68 87
57 70 89
58 72 92
52 64 83
60 72 91
59 72 92
59 72 92
53 66 84
59 72 91
58 71 90
54 66 85
54 66 85
58 71 91
53 65 84
50 62 80
58 71 91
58 70 89
52 65 84
57 70 89
57 70 89
51 63 81
58 71 92
55 68 87
53 65 84
59 72 92
58 70 89
62 76 96
56 68 88
53 65 84
56 69 87
55 67 86
63 76 96
56 69 89
58 71 90
58 70 89
57 70 89
59 72 91
55 68 88
53 65 84
57 70 90
58 71 89
56 69 87
55 69 89
54 66 85
56 69 89
63 75 95
53 65 83
61 74 94
54 66 85
56 70 89
53 65 82
57 70 89
57 70 89
52 64 83
64 77 97
57 71 90
58 71 90
58 71 90
57 70 89
57 69 87
59 73 93
55 68 87
59 72 92
60 73 93
58 71 90
55 67 86
60 73 93
61 75 95
55 67 86
52 65 84
56 70 89
57 70 90
62 76 96
56 69 88
55 67 85
58 71 90
56 69 88
55 68 87
63 77 98
57 70 91
60 74 94
59 72 92
62 75 96
58 71 89
59 72 91
58 72 91
57 69 88
58 70 89
58 71 90
60 74 94
59 72 91
61 74 94
54 67 85
59 72 92
56 68 86
51 63 81
52 64 83
56 69 89
55 67 86
53 66 85
56 69 87
58 71 92
58 71 91
55 68 87
58 72 91
57 69 88
56 68 86
57 70 88
58 71 90
55 69 88
54 67 85
51 63 82
64 80 104
74 94 124
73 94 125
73 93 125
72 92 124
74 96 127
74 95 127
75 96 126
73 93 124
74 95 127
71 92 125
72 94 126
74 95 127
75 96 127
74 96 127
73 95 127
75 96 127
72 94 127
73 94 127
74 95 127
74 95 127
75 95 127
74 95 127
74 95 127
76 97 127
75 96 127
73 94 126
74 95 127
73 95 127
73 95 127
75 96 127
74 95 127
75 96 127
75 96 127
74 95 127
75 95 125
74 95 127
74 95 127
73 95 127
73 95 127
71 93 125
74 94 126
73 95 127
73 94 127
74 95 127
73 95 127
74 95 126
75 96 127
73 94 127
74 95 127
75 96 127
74 95 126
72 93 125
72 94 127
74 95 127
72 94 126
73 95 127
73 95 127
74 95 127
74 95 127
72 94 127
74 95 127
73 95 127
73 94 126
73 95 127
75 96 127
73 95 127
73 95 127
74 95 127
74 95 127
73 94 126
76 97 127
75 96 127
74 95 127
74 95 127
75 96 127
72 94 127
74 95 127
76 97 127
73 95 127
76 96 127
76 96 127
73 95 127
73 95 127
76 96 127
74 96 127
74 96 127
74 95 127
75 96 127
74 95 127
73 95 127
74 95 127
75 96 127
74 96 127
74 96 127
73 95 127
75 96 127
73 95 127
73 95 127
74 95 127
75 96 127
74 95 127
73 95 127
75 96 127
74 96 127
73 94 127
74 96 127
73 95 127
75 96 127
75 96 127
75 96 127
75 96 127
73 95 127
74 96 127
75 96 127
75 96 127
74 95 127
73 94 126
74 95 127
74 95 127
74 95 127
76 96 127
75 96 127
74 96 127
75 96 127
75 96 127
75 96 127
74 96 127
75 96 127
74 96 127
73 95 127
75 96 127
75 96 127
73 95 127
74 95 127
75 95 127
74 96 127
74 95 127
73 95 127
73 95 127
74 96 127
72 94 127
73 95 127
74 95 127
73 95 127
72 94 127
74 96 127
74 95 127
74 95 127
74 96 127
75 95 127
74 95 127
74 95 127
74 95 127
75 96 127
75 96 127
74 96 127
74 95 127
73 95 127
74 95 127
74 95 127
74 95 127
73 95 127
76 96 127
75 96 127
73 94 127
75 96 127
74 96 127
74 96 127
74 95 127
73 95 127
74 96 127
74 94 126
75 96 127
73 95 127
75 96 127
73 95 127
74 95 127
73 94 126
74 95 127
75 96 127
75 96 127
73 95 127
73 95 127
74 96 127
74 95 127
73 95 127
75 96 127
74 95 127
74 95 127
72 94 127
74 95 127
73 95 127
75 96 127
75 96 127
74 95 127
74 95 127
72 94 127
75 96 127
75 96 127
75 96 127
75 96 127
73 95 127
73 94 127
74 96 127
73 94 126
73 95 127
74 95 127
73 94 126
75 96 127
74 95 127
74 95 127
73 95 127
75 96 127
74 95 127
74 95 127
74 95 127
75 96 127
74 95 127
74 95 127
74 96 127
74 95 127
72 94 127
75 96 127
74 95 127
74 96 127
73 95 127
75 96 127
73 95 127
72 94 127
75 96 127
73 94 125
73 95 127
75 96 127
73 95 127
73 95 127
74 96 127
74 96 127
74 95 127
74 95 127
73 95 127
72 94 127
72 93 125
74 95 127
72 92 124
73 95 127
72 94 127
74 95 127
74 95 127
73 94 126
74 95 127
74 95 127
74 95 127
74 95 127
73 95 126
73 94 126
74 95 127
74 95 127
75 96 127
74 95 127
75 96 127
73 94 127
72 94 126
74 95 127
72 94 127
73 94 125
72 94 126
72 94 126
73 94 126
73 94 127
74 95 127
73 94 126
72 93 126
74 95 126
73 94 125
74 95 126
73 94 125
74 95 127
72 93 125
73 94 127
72 93 125
71 92 123
56 68 87
51 64 82
53 65 84
53 65 83
57 69 88
57 70 89
60 72 91
58 70 89
52 64 83
53 65 83
61 74 94
56 69 88
58 71 91
55 68 87
57 70 89
59 72 93
56 68 86
52 65 84
56 69 88
58 71 91
60 73 93
58 71 90
53 65 84
57 70 88
55 68 87
52 64 83
58 71 91
59 72 92
52 64 82
54 67 86
55 67 86
57 70 90
57 70 90
56 69 88
54 67 86
57 70 89
56 69 89
52 65 83
55 68 86
56 69 88
56 69 88
61 75 95
56 69 89
56 70 89
53 66 85
54 67 86
59 72 92
60 73 93
60 73 92
53 65 83
59 72 91
53 65 83
60 73 93
58 71 91
57 70 89
54 68 88
56 69 88
59 72 93
57 69 88
56 69 89
52 64 82
58 71 90
57 70 89
56 69 88
56 70 90
59 73 94
56 69 88
57 71 91
56 69 89
53 66 84
56 69 88
52 64 82
54 67 85
54 67 87
58 71 91
56 68 86
60 73 93
54 67 85
57 69 88
56 69 88
56 68 87
59 72 91
57 70 89
58 71 91
56 69 89
56 70 90
58 71 90
56 70 91
54 67 87
54 66 85
54 67 86
56 70 89
56 69 88
58 71 89
60 74 93
58 71 91
56 69 88
55 68 87
53 66 85
57 70 89
57 69 87
56 69 89
55 67 86
61 75 95
55 67 85
50 62 79
55 67 85
55 68 87
55 67 86
53 65 84
57 70 89
56 68 87
59 71 90
53 65 83
58 70 89
49 61 79
54 67 85
56 68 86
71 90 119
74 95 126
71 93 125
73 93 124
70 91 123
72 94 126
74 95 125
73 94 126
73 94 126
72 94 127
75 96 127
72 93 125
74 95 126
72 93 124
73 94 125
74 95 127
74 94 126
73 95 127
75 95 127
73 95 127
73 94 126
74 95 127
75 96 127
73 95 127
73 94 125
74 95 127
73 95 126
73 95 127
74 95 127
74 95 127
73 94 126
75 96 127
73 95 127
73 94 127
74 96 127
73 95 127
74 94 126
75 96 127
72 94 126
72 94 127
73 95 127
74 95 127
73 95 127
74 96 127
73 94 126
74 95 127
73 95 127
73 94 125
73 95 127
73 94 127
74 95 127
74 95 127
74 95 127
74 96 127
73 94 127
74 95 127
75 96 127
75 96 127
73 95 127
73 95 127
74 96 127
74 95 127
74 95 127
73 95 127
75 96 127
74 95 127
73 95 127
77 97 127
74 95 127
74 95 127
74 95 127
74 95 127
73 95 127
73 95 127
74 95 127
74 95 127
74 95 127
75 96 127
75 96 127
73 95 127
74 95 127
74 95 127
74 95 127
73 94 125
73 94 126
74 95 127
73 95 127
74 95 127
74 96 127
73 95 127
75 96 127
74 95 127
74 95 127
75 96 127
74 95 127
75 96 127
74 95 127
74 95 127
73 95 127
76 96 127
75 96 127
75 96 127
73 95 127
73 95 127
74 95 127
74 95 127
72 94 127
74 96 127
74 96 127
74 96 127
74 95 127
74 96 127
73 95 127
75 96 127
73 95 127
74 95 127
73 95 127
75 96 127
74 95 127
75 96 127
74 95 127
75 96 127
74 96 127
73 95 127
75 96 127
75 96 127
74 95 127
75 96 127
74 95 127
73 95 127
74 95 127
75 96 127
76 96 127
74 95 127
74 96 127
76 96 127
75 96 127
75 96 127
74 95 127
74 96 127
75 96 127
75 96 127
74 95 127
75 96 127
74 95 127
75 96 127
75 96 127
75 96 127
74 95 127
73 95 127
73 95 127
74 95 127
74 95 127
77 97 127
74 95 127
73 95 127
75 96 127
75 96 127
74 95 127
75 95 127
75 96 127
74 95 127
74 95 127
74 95 127
74 95 127
74 96 127
74 96 127
74 95 127
74 96 127
75 96 127
75 96 127
74 96 127
73 95 127
75 96 127
73 95 127
75 96 127
76 97 127
73 95 127
74 95 127
74 95 127
72 94 127
74 95 127
72 94 127
74 95 127
75 96 127
72 94 127
73 95 127
74 96 127
76 97 127
75 96 127
74 96 127
73 94 127
75 96 127
73 95 127
74 95 127
74 95 127
76 97 127
75 96 127
74 95 127
74 95 127
74 96 127
74 95 127
75 96 127
75 96 127
75 96 127
73 94 126
74 96 127
74 96 127
74 95 127
74 95 127
74 96 127
74 95 127
74 95 127
73 95 127
74 95 127
74 96 127
75 96 127
76 96 127
74 96 127
73 94 126
73 94 125
73 95 127
74 96 127
74 96 127
73 95 127
74 95 127
73 95 127
75 96 127
74 95 127
73 95 127
73 94 126
73 95 127
74 95 127
72 94 127
73 94 126
74 95 127
74 95 127
74 96 127
74 95 127
75 96 127
73 95 127
74 95 127
74 95 127
74 95 127
72 93 125
74 95 127
74 96 127
74 96 127
75 96 127
74 95 127
73 94 125
74 95 126
73 95 127
74 95 127
73 94 126
74 95 126
73 95 127
73 95 127
74 95 126
73 94 126
73 94 126
74 95 126
74 95 127
74 94 125
74 94 125
74 95 127
73 94 125
73 94 125
74 95 127
74 95 127
75 96 127
71 92 125
73 94 126
73 94 125
71 92 123
73 95 127
73 94 126
73 94 126
72 94 126
73 94 125
72 93 126
73 94 127
61 77 103
57 70 88
50 62 80
54 66 84
56 68 87
61 74 94
57 70 89
54 66 85
54 66 84
54 67 86
58 72 91
56 69 88
54 67 86
51 63 81
54 66 85
55 68 87
57 69 88
53 65 83
59 72 91
57 69 88
60 73 93
53 66 84
56 70 90
55 67 86
55 67 85
58 71 91
55 68 86
58 71 91
54 66 85
56 68 87
56 69 88
56 70 90
57 69 87
56 69 89
52 65 83
55 68 87
57 70 89
60 74 94
57 70 90
58 71 90
59 72 91
52 64 82
55 67 86
57 70 90
57 69 89
57 70 89
55 68 87
58 71 90
53 66 84
59 72 91
57 70 89
54 67 87
53 66 84
58 72 92
55 67 87
54 67 87
58 72 92
58 70 89
55 69 89
53 66 85
53 65 84
56 69 89
58 71 91
56 68 87
58 71 90
58 70 89
57 70 91
58 70 88
52 65 84
59 72 92
48 60 78
58 71 90
59 71 91
52 64 83
59 72 92
54 68 87
57 70 88
58 71 91
57 70 90
53 65 84
52 64 82
61 75 95
59 73 93
58 71 91
60 73 92
60 73 93
58 71 89
57 69 88
56 69 89
53 65 83
52 64 82
57 69 87
57 69 89
55 67 86
57 70 90
54 67 86
53 65 83
55 68 87
51 63 81
50 62 81
56 69 89
57 70 90
54 67 86
58 71 91
56 69 88
61 75 95
52 64 83
57 70 89
58 71 90
50 63 82
54 66 84
50 62 81
55 67 86
58 70 88
59 72 91
53 65 83
50 63 81
59 74 96
73 94 126
73 94 126
74 94 125
71 91 121
73 95 127
74 95 127
72 94 126
73 93 124
71 92 124
74 95 127
72 93 124
75 96 127
72 93 125
74 95 127
74 95 127
75 96 127
72 94 126
73 94 125
74 95 127
74 96 127
73 95 127
74 96 127
74 95 127
73 94 126
73 94 125
73 94 125
72 93 124
73 95 127
73 94 126
74 94 124
73 94 126
73 94 126
73 94 126
75 95 126
75 96 127
74 95 127
73 95 127
73 94 125
76 96 127
73 94 127
75 96 127
74 95 127
75 96 127
72 94 127
73 95 127
74 95 127
74 96 127
74 95 126
73 94 126
74 95 126
74 95 127
74 95 127
74 95 127
74 95 127
74 95 127
73 95 127
73 94 126
74 96 127
75 96 127
74 95 127
74 95 127
74 95 127
74 95 127
74 96 127
74 95 127
74 95 127
75 96 127
73 94 126
75 96 127
73 94 126
75 96 127
74 96 127
74 95 127
75 96 127
75 96 127
73 94 126
74 95 127
74 95 127
73 95 127
75 96 127
74 96 127
73 95 127
73 95 127
72 94 127
73 95 127
74 95 127
74 95 127
76 96 127
75 96 127
73 95 127
74 96 127
74 95 127
73 95 127
74 95 127
74 95 127
74 95 127
74 94 125
75 96 127
74 95 127
74 95 127
74 96 127
75 96 127
74 95 127
74 96 127
76 96 127
74 95 127
74 96 127
74 96 127
74 96 127
73 95 127
74 95 127
75 96 127
74 95 127
75 96 127
75 96 127
74 95 127
74 95 127
73 95 127
74 95 127
74 95 127
74 96 127
75 96 127
73 95 127
74 96 127
74 95 127
75 96 127
73 95 127
75 96 127
75 96 127
75 96 127
75 96 127
74 95 127
74 96 127
75 96 127
74 96 127
73 95 127
75 96 127
73 95 127
75 96 127
75 96 127
74 95 127
75 96 127
75 95 127
74 95 127
75 96 127
74 96 127
73 95 127
74 95 127
76 96 127
74 95 127
75 96 127
74 95 127
74 96 127
74 95 127
75 95 127
74 96 127
75 96 127
75 96 127
73 94 127
73 95 127
73 95 127
72 94 127
75 96 127
74 95 126
74 96 127
74 95 127
75 96 127
74 96 127
74 95 127
74 96 127
75 96 127
73 94 126
74 95 127
75 96 127
75 96 127
75 96 127
73 95 127
74 95 126
75 95 127
75 96 127
75 96 127
75 96 127
74 96 127
74 96 127
74 95 127
75 95 127
74 95 127
74 95 127
74 95 127
75 96 127
74 95 127
73 95 127
74 96 127
74 95 127
73 94 126
75 95 127
75 96 127
74 95 127
73 95 127
74 96 127
73 94 127
73 95 127
75 96 127
73 94 126
75 96 127
74 95 127
72 93 126
73 94 126
75 96 127
73 95 127
74 96 127
74 96 127
74 95 127
73 94 127
75 96 127
72 94 127
74 96 127
74 95 127
75 96 127
75 96 127
74 95 127
74 95 127
73 95 127
73 94 126
73 95 127
73 95 127
73 95 126
73 94 126
73 95 127
74 95 127
73 95 127
73 94 126
74 95 127
72 94 127
75 95 126
74 95 127
73 94 125
75 96 127
74 96 127
76 96 127
74 95 127
73 94 126
74 95 127
74 95 127
74 95 127
74 95 127
71 92 125
74 95 127
74 95 127
74 95 127
73 94 126
72 93 125
76 96 127
73 94 127
74 95 127
73 94 125
75 96 127
73 95 127
74 95 127
70 92 124
73 95 127
74 95 127
75 96 127
74 95 127
74 95 126
72 94 126
73 94 126
73 95 126
72 93 124
72 94 126
73 93 124
75 96 127
70 90 120
71 92 124
72 93 125
73 93 124
72 92 123
74 95 127
75 96 127
72 93 124
71 93 124
73 93 124
68 88 117
50 63 81
55 68 86
55 67 85
56 69 88
50 62 80
54 67 87
54 66 84
53 66 85
53 66 84
52 64 82
54 66 85
51 63 81
47 59 76
53 66 85
55 68 87
59 72 91
56 69 88
52 64 83
56 69 88
51 63 82
54 66 84
56 69 88
60 73 92
54 66 84
51 64 82
56 68 86
53 66 84
53 66 85
56 69 89
50 62 79
61 74 95
56 69 88
56 68 86
51 63 82
51 63 81
54 66 84
59 72 92
56 69 88
61 75 94
54 66 85
54 66 85
59 72 92
59 71 90
56 69 88
52 65 84
52 63 81
56 69 89
56 69 89
51 62 80
55 68 86
57 70 88
58 71 90
53 65 83
53 65 84
55 68 88
57 71 91
63 77 98
51 63 82
54 67 86
54 67 86
63 77 98
53 66 86
58 71 89
57 70 88
56 68 88
57 69 88
53 65 83
58 70 88
54 66 85
56 68 87
54 66 85
57 70 90
54 67 85
57 69 88
55 67 86
59 72 92
54 67 85
58 71 91
59 72 92
56 68 88
58 71 91
56 69 87
56 68 88
59 72 91
57 70 89
55 68 86
54 66 84
56 69 87
60 72 91
57 70 89
58 71 90
59 72 91
62 76 96
53 66 85
55 68 87
55 68 87
60 73 93
57 69 87
58 70 89
49 61 78
52 64 81
49 61 78
56 68 86
57 70 90
57 70 89
53 66 85
54 66 85
48 60 78
51 64 82
55 68 88
54 67 86
53 66 85
55 68 86
47 58 75
54 66 84
55 67 85
69 89 118
72 94 126
70 91 121
71 92 125
71 92 124
74 94 125
73 94 126
73 95 127
73 95 127
73 95 127
71 92 123
73 94 125
74 94 125
74 95 127
73 94 125
73 95 127
72 94 127
74 95 126
74 95 126
74 94 125
74 95 126
72 93 125
73 93 125
72 93 124
74 95 126
73 95 127
74 95 127
72 93 125
72 94 126
72 94 127
74 95 126
73 94 125
74 94 126
73 95 127
74 96 127
75 96 127
74 95 127
74 95 127
72 94 126
73 95 127
75 96 127
74 95 126
74 96 127
73 95 127
73 94 126
75 95 126
74 95 127
74 95 127
74 95 127
74 95 127
73 94 126
74 95 127
73 95 127
74 95 127
77 97 127
76 97 127
74 95 127
74 95 127
73 95 127
74 95 127
75 96 127
74 95 127
74 96 127
76 97 127
74 95 127
76 96 127
74 95 127
75 96 127
75 96 127
74 94 126
73 95 127
74 95 127
75 96 127
75 96 127
75 96 127
74 96 127
74 95 127
75 95 127
74 95 127
74 95 127
74 95 127
76 97 127
73 95 127
74 95 127
73 95 127
74 95 127
73 94 127
75 96 127
74 95 127
75 96 127
73 95 127
74 95 127
72 94 127
75 96 127
74 95 126
75 96 127
74 95 127
74 95 127
74 95 127
73 95 127
74 95 127
72 94 127
74 95 127
73 94 126
74 96 127
76 96 127
74 96 127
74 96 127
74 96 127
74 95 127
75 96 127
73 94 127
75 96 127
74 95 127
74 96 127
75 96 127
75 96 127
75 96 127
74 95 127
74 95 127
74 95 127
73 95 127
74 95 127
74 95 127
74 95 127
72 94 127
74 96 127
74 95 127
75 96 127
75 96 127
75 96 127
74 95 127
75 96 127
75 95 127
74 95 127
74 96 127
74 95 127
72 94 127
75 96 127
75 96 127
75 96 127
74 95 127
75 96 127
74 95 127
74 95 127
74 95 127
74 95 127
75 96 127
74 95 127
74 95 127
75 96 127
73 95 127
74 95 127
74 96 127
74 95 127
73 95 127
74 95 127
73 95 127
74 95 127
74 96 127
75 96 127
74 95 127
75 96 127
74 96 127
73 95 127
75 96 127
73 95 127
75 96 127
74 95 127
75 96 127
74 95 127
74 95 127
74 95 127
73 95 127
73 95 127
74 96 127
76 96 127
75 96 127
74 95 127
73 95 127
72 94 127
74 95 127
74 95 127
74 95 127
76 96 127
75 96 126
74 95 127
73 95 127
75 96 127
74 96 127
74 95 126
75 96 127
75 96 127
73 94 126
75 96 127
74 95 127
74 96 127
74 95 127
74 95 127
73 95 127
73 95 127
75 96 127
73 95 127
74 95 127
74 95 127
74 96 127
74 96 127
74 95 127
72 94 126
74 95 127
74 95 127
75 96 127
74 96 127
73 95 127
73 95 127
73 94 127
74 95 127
74 95 127
73 94 126
74 95 127
75 96 127
72 94 127
72 94 127
74 95 126
72 94 127
74 95 127
75 96 127
73 94 127
74 95 127
73 94 127
73 94 126
73 94 126
75 96 127
74 95 127
72 94 126
73 95 127
72 94 126
73 94 126
73 94 127
75 96 127
75 96 127
73 94 126
73 95 127
73 94 127
73 94 126
74 95 125
73 94 126
74 95 127
73 94 125
74 95 127
72 94 126
72 94 126
74 95 127
72 93 124
73 94 125
74 95 127
72 93 125
73 94 125
73 95 127
72 93 124
71 93 125
74 94 125
74 94 125
72 93 124
71 92 124
74 95 127
72 93 124
73 94 125
74 95 127
74 95 126
73 94 126
73 93 124
71 92 123
71 92 124
73 93 124
73 94 125
70 92 124
74 95 127
73 94 125
75 95 126
71 92 123
70 91 121
73 95 127
75 95 126
64 80 104
53 65 83
50 62 79
54 66 85
54 66 85
57 70 90
54 67 85
57 70 89
49 61 78
54 67 86
56 68 87
56 68 88
55 68 87
55 68 86
52 64 83
58 71 90
50 61 78
52 64 82
51 63 81
53 65 84
53 65 83
56 69 88
57 70 89
58 71 90
54 66 85
54 66 85
61 75 96
57 70 88
49 61 79
56 68 86
54 67 87
47 59 76
52 65 84
53 65 83
57 69 87
58 71 91
56 69 88
59 73 94
56 68 87
55 68 87
58 71 91
53 66 84
52 65 84
53 66 85
62 75 96
53 64 82
53 66 85
56 69 88
53 65 83
53 65 84
55 68 87
58 71 91
59 72 93
57 70 88
56 68 86
53 65 82
58 71 91
54 67 87
51 64 83
59 71 91
55 68 86
56 68 87
56 69 88
56 69 89
56 69 88
58 71 90
55 68 86
59 71 90
58 71 91
60 73 92
53 65 84
56 68 88
58 71 91
58 71 90
57 70 89
57 70 90
57 70 89
56 69 88
60 74 94
57 70 89
52 64 82
57 70 89
56 69 89
55 68 86
54 67 86
60 73 92
59 72 92
52 64 82
54 67 86
53 66 84
61 74 94
56 68 86
54 67 85
54 66 85
51 62 80
55 68 87
54 66 85
58 71 90
55 67 86
54 66 85
55 67 85
56 69 88
57 70 89
56 68 88
54 66 85
53 65 83
50 62 80
52 64 82
57 70 89
58 71 90
57 69 88
55 67 86
54 66 84
53 65 83
53 65 83
56 71 94
72 92 123
73 94 127
71 92 122
71 91 122
71 91 121
70 91 123
73 94 126
72 94 126
72 93 124
71 91 122
74 96 127
71 92 122
73 94 124
72 94 126
73 94 125
71 92 124
72 92 123
73 94 125
73 94 126
74 95 126
73 95 127
73 94 127
72 93 125
72 94 127
73 94 126
70 91 123
72 94 127
73 94 126
74 95 126
73 95 127
72 93 124
72 94 126
73 94 125
74 95 127
73 95 127
72 93 126
72 93 124
74 95 127
72 93 126
73 95 127
73 95 127
73 94 126
74 95 127
73 94 127
73 95 127
74 95 127
74 95 127
73 95 126
73 95 127
74 94 126
75 96 127
75 96 127
74 95 127
74 95 127
75 96 127
75 96 127
75 96 127
75 96 127
73 94 127
74 95 127
74 95 127
73 94 126
73 94 126
73 95 127
75 96 127
74 96 127
75 96 127
73 94 126
72 93 125
74 95 127
74 96 127
74 96 127
73 94 127
73 95 127
74 95 127
73 95 127
74 95 127
73 95 127
74 95 127
73 95 127
73 95 127
73 94 126
73 95 127
73 94 127
73 94 127
73 94 126
72 94 126
75 96 127
74 95 127
75 96 127
73 94 126
76 96 127
74 95 127
76 96 127
74 95 127
73 95 127
75 96 127
74 95 127
73 95 127
75 96 127
75 96 127
74 95 127
73 94 126
74 95 127
74 95 127
75 96 127
73 95 127
75 96 127
74 95 127
75 96 127
75 96 127
74 95 127
74 95 127
74 95 127
73 95 127
74 96 127
74 95 127
74 95 127
74 95 127
75 96 127
75 96 127
74 96 127
73 95 127
76 97 127
75 96 127
74 95 127
74 95 127
73 95 127
75 96 127
76 96 127
74 95 126
74 95 127
75 96 127
73 95 127
73 95 127
75 96 127
74 96 127
74 95 127
74 95 127
74 96 127
73 95 127
74 95 127
75 96 127
74 95 127
74 95 127
74 95 127
73 95 127
73 95 127
73 95 127
74 95 127
75 96 127
74 95 127
75 96 127
74 95 127
74 95 127
74 96 127
74 95 127
75 95 127
74 95 127
74 95 127
74 95 127
74 96 127
73 95 127
74 95 127
75 96 127
72 94 127
75 96 127
75 96 127
74 96 127
73 95 127
74 95 127
74 95 127
75 96 127
74 95 127
74 95 127
73 95 127
74 96 127
74 96 127
74 95 126
74 95 127
74 95 127
75 96 127
73 95 127
75 96 127
75 96 127
73 95 127
73 95 127
74 95 127
73 95 127
74 95 127
74 95 126
75 96 127
74 96 127
74 95 127
74 95 127
74 95 127
75 96 127
73 95 127
73 95 127
73 94 126
74 95 127
76 97 127
74 95 127
74 95 127
73 94 126
71 93 125
75 96 127
74 95 127
74 95 127
74 95 127
73 95 127
75 96 127
73 94 127
73 94 127
74 96 127
73 95 127
72 94 127
72 94 127
73 95 127
72 93 126
73 94 126
74 95 126
74 95 127
73 94 127
74 95 127
75 96 127
74 95 126
73 94 125
74 95 127
74 95 127
72 93 124
74 96 127
74 95 127
74 95 126
73 95 127
72 94 126
74 95 127
74 95 126
74 95 127
73 94 126
75 95 126
75 96 126
75 96 127
75 95 127
75 95 127
74 95 127
73 94 127
74 95 127
72 94 126
73 94 125
73 94 125
74 95 126
73 94 126
74 94 125
73 94 126
71 92 123
73 93 125
73 93 124
72 94 126
71 92 124
72 93 125
73 94 125
73 94 125
72 93 125
74 95 127
72 94 126
73 95 127
74 95 126
75 96 127
71 92 123
74 95 127
72 93 124
74 95 127
72 93 125
73 94 126
73 95 127
73 94 126
74 94 125
70 91 122
70 91 123
72 93 124
72 93 124
71 92 123
72 93 125
72 92 122
49 60 77
56 69 87
54 66 85
55 67 86
54 67 87
50 63 82
58 70 88
53 65 82
52 65 84
57 69 87
59 73 93
54 67 86
57 69 89
50 62 79
54 66 83
55 67 86
52 63 81
56 68 86
54 66 85
52 65 83
57 69 88
56 69 89
52 64 81
54 67 85
51 63 81
53 66 84
55 67 86
60 73 94
55 66 84
54 66 84
57 70 88
55 67 86
61 74 93
53 66 84
55 67 85
56 69 87
55 67 86
56 68 85
54 67 86
57 70 89
57 70 89
53 66 85
59 72 92
56 70 90
59 72 92
58 71 91
51 63 80
53 66 85
52 65 84
52 64 83
55 67 86
56 70 89
57 69 88
56 69 87
58 71 92
51 64 82
51 62 80
58 71 90
57 69 88
54 66 86
56 69 88
57 69 88
57 70 89
55 68 86
53 66 86
53 65 83
55 67 86
58 71 91
53 65 84
53 65 84
57 70 90
53 66 84
56 69 88
54 67 86
54 66 85
53 65 83
55 68 87
52 65 83
58 71 91
53 65 84
55 68 87
53 65 83
57 69 88
55 67 86
61 74 94
53 65 83
52 64 82
52 64 81
56 68 86
59 72 92
54 67 86
51 62 80
53 65 83
52 64 82
53 65 82
57 70 89
53 65 84
51 64 82
56 68 87
57 70 88
50 62 80
54 67 87
52 64 83
58 72 91
57 70 90
49 61 79
56 69 88
54 67 86
56 68 87
52 64 81
55 68 86
46 57 73
47 60 78
55 67 86
68 88 118
73 94 125
73 94 126
71 93 125
72 93 124
71 91 122
71 91 122
73 94 126
72 93 125
71 92 123
73 94 126
72 92 123
71 92 123
71 92 123
73 94 125
73 94 126
73 94 126
74 95 127
74 95 126
72 93 126
74 95 126
72 93 125
73 95 127
73 95 127
72 93 125
75 96 127
73 94 127
72 92 123
73 94 125
72 94 126
74 95 127
73 95 127
72 93 126
72 92 123
75 96 127
73 94 126
74 96 127
72 93 125
74 96 127
74 95 127
73 94 127
71 93 126
74 95 126
72 93 125
74 95 126
74 95 126
72 93 125
72 93 125
72 94 127
74 95 127
73 94 126
73 94 127
73 95 127
72 93 126
73 94 126
73 95 127
74 95 127
72 93 124
74 95 127
74 95 126
72 93 125
73 94 126
74 96 127
74 96 127
73 95 127
74 95 127
73 95 127
73 95 127
75 96 127
74 95 127
74 95 127
74 95 127
73 94 127
74 95 127
76 96 127
74 95 127
72 93 125
73 95 127
75 96 127
73 95 127
74 95 127
73 95 127
74 95 127
75 96 127
74 96 127
76 96 127
75 96 127
73 95 127
74 96 127
74 95 127
73 94 127
73 94 126
73 95 127
72 94 127
73 93 125
75 96 127
74 96 127
72 94 127
74 95 127
74 95 127
75 96 127
73 95 127
73 94 127
74 95 127
74 95 127
74 95 127
74 95 127
74 95 127
74 95 127
74 95 127
75 96 127
74 95 127
73 95 127
74 96 127
74 96 127
74 96 127
73 95 127
73 95 127
74 95 127
74 96 127
74 95 127
73 95 127
75 96 127
74 95 127
74 95 127
74 96 127
74 95 127
73 95 127
74 95 127
73 95 127
75 96 127
75 96 127
75 96 127
73 95 127
73 95 127
73 95 127
74 95 127
74 95 127
74 95 127
74 95 127
75 96 127
74 95 127
74 96 127
74 96 127
74 95 127
75 96 127
74 96 127
74 95 127
75 96 127
73 95 127
74 95 127
74 95 127
74 95 127
75 96 127
76 96 127
74 95 127
74 95 127
75 96 127
74 95 127
75 96 127
73 95 127
74 95 127
73 95 127
75 96 127
73 95 127
74 95 126
74 95 127
75 96 127
74 96 127
74 95 127
73 95 127
72 94 125
75 96 127
74 95 127
74 95 127
73 95 127
73 94 126
74 96 127
75 95 127
74 95 127
73 95 127
72 94 127
74 96 127
74 95 127
74 95 127
75 96 127
74 95 127
74 96 127
74 95 127
74 95 127
74 95 127
74 95 127
74 95 127
73 95 127
72 93 126
72 94 125
73 95 127
74 95 127
74 95 126
74 95 127
74 95 127
73 95 127
73 95 127
73 95 127
74 95 126
75 96 127
74 95 127
75 96 127
72 93 126
74 95 126
73 94 126
74 95 127
74 94 126
73 95 127
74 95 127
74 95 127
73 95 127
72 94 127
73 94 126
75 96 127
73 94 126
73 95 127
73 94 127
74 95 126
74 95 127
75 96 127
74 95 127
74 95 127
73 95 127
71 93 124
74 95 125
71 92 125
75 95 126
73 95 127
74 95 127
73 94 126
74 94 125
73 94 126
74 95 127
72 94 127
73 94 126
73 94 126
73 94 126
72 94 125
71 93 125
74 95 127
73 94 126
72 92 122
72 93 125
73 94 126
72 94 126
74 95 127
72 93 124
73 94 126
73 95 127
73 94 126
72 93 125
73 94 126
74 94 125
73 95 127
71 92 124
73 93 124
72 93 125
72 93 124
74 95 126
73 94 126
70 91 122
73 94 126
73 94 126
73 94 126
71 91 122
71 92 124
72 93 125
72 93 125
71 92 123
73 94 126
72 93 124
72 93 125
72 94 126
71 92 123
70 91 123
71 91 121
73 93 123
73 94 126
72 93 123
72 92 123
56 71 95
50 61 79
51 63 81
50 62 79
51 64 82
52 64 81
55 67 86
55 68 87
52 64 82
57 70 89
55 67 85
51 63 82
57 69 87
53 65 83
51 62 79
56 68 87
51 63 81
47 59 76
55 68 86
56 70 89
50 62 79
51 63 81
55 67 86
53 66 85
58 71 91
55 67 86
50 62 80
53 66 84
50 63 81
54 66 84
52 65 83
58 71 90
54 66 84
53 66 85
52 64 82
51 63 81
56 69 88
50 62 79
51 63 80
51 64 83
57 70 89
56 69 88
55 68 87
53 65 83
52 65 83
54 67 86
58 71 90
57 69 88
54 66 85
55 68 89
51 63 81
51 63 80
49 60 77
54 66 84
53 65 83
53 65 83
49 60 78
55 69 89
51 64 83
57 70 89
52 65 83
57 69 88
56 69 88
52 64 83
54 66 85
58 72 92
54 66 84
55 67 86
55 68 86
51 63 81
61 74 93
56 69 89
56 68 86
54 66 85
57 70 89
60 73 93
56 69 88
54 66 85
57 69 88
56 69 88
51 63 81
57 69 87
52 64 82
54 67 86
53 65 83
56 69 88
53 65 82
56 69 88
59 73 93
54 67 86
49 61 78
51 63 81
52 65 83
51 63 81
53 66 84
54 66 84
52 64 82
54 66 85
60 73 92
55 68 86
54 67 85
52 64 81
56 68 86
52 64 82
51 63 80
53 65 83
52 64 82
52 64 81
55 68 86
51 64 83
60 72 91
52 64 82
54 66 84
67 84 110
69 88 117
71 92 124
71 92 124
70 90 121
73 93 124
70 91 123
68 89 119
73 94 126
73 94 127
73 94 124
72 93 124
72 93 124
72 93 124
73 94 126
73 94 124
74 95 126
71 92 124
74 95 126
71 92 122
74 95 126
73 94 125
72 93 125
72 94 126
73 94 126
72 93 125
74 95 127
74 95 126
73 94 125
72 92 124
72 93 124
74 95 126
73 93 125
72 94 126
72 93 125
72 93 124
73 95 127
74 95 127
73 94 125
73 94 126
74 95 127
73 94 126
72 94 126
72 94 127
73 95 127
73 94 126
73 94 126
77 97 127
72 93 124
73 94 127
72 92 124
74 95 127
74 95 126
73 94 126
74 95 127
74 95 127
73 94 126
76 96 127
74 95 127
72 94 126
74 96 127
74 95 127
73 95 127
74 95 127
74 95 127
73 95 127
73 95 127
74 95 126
75 96 127
74 95 127
73 95 127
73 95 126
75 96 127
74 96 127
74 95 126
74 96 127
72 93 124
73 95 127
74 95 127
74 96 127
74 95 127
75 96 127
75 95 127
72 94 127
75 96 127
74 96 127
75 96 127
73 94 127
74 95 127
74 95 127
74 96 127
73 95 126
74 95 127
75 96 127
74 95 127
75 96 127
75 96 127
74 95 127
72 94 126
75 96 127
74 95 127
73 94 127
74 95 127
74 95 127
74 95 126
74 95 127
73 94 127
74 96 127
75 96 127
74 96 127
75 95 127
74 96 127
75 96 127
74 96 127
75 96 127
72 94 127
74 95 127
73 94 126
74 96 127
75 96 127
76 97 127
74 95 127
74 95 127
74 95 127
75 96 127
74 95 126
74 95 127
73 94 127
75 96 127
73 95 127
72 94 127
74 95 127
73 95 127
74 95 127
75 96 127
74 96 127
74 95 127
74 95 127
74 95 127
75 95 127
73 94 127
74 95 127
73 95 127
75 96 127
75 96 127
74 95 127
74 96 127
73 95 127
74 95 127
74 95 127
73 95 127
75 96 127
74 96 127
73 95 127
74 95 127
73 95 127
74 95 127
74 95 127
75 96 127
74 95 127
75 96 127
73 95 127
74 95 127
74 95 126
73 95 127
75 96 127
73 95 127
74 95 127
74 95 127
73 95 127
75 96 127
74 95 126
74 95 127
75 96 127
73 94 127
74 95 127
73 95 126
74 96 127
73 94 127
74 96 127
74 95 127
73 95 127
75 96 127
73 95 127
74 95 126
74 95 127
74 95 127
74 95 127
75 96 127
73 95 127
74 95 127
74 95 127
73 95 127
74 95 127
73 94 126
72 94 127
74 95 126
74 96 127
76 97 127
74 95 127
72 94 126
74 95 127
72 94 127
74 95 127
73 95 127
74 95 127
73 94 127
73 95 127
72 93 125
74 95 126
74 95 127
75 96 127
74 95 126
74 95 127
75 96 127
74 95 127
73 94 127
73 95 127
73 95 127
73 95 126
75 96 127
73 94 126
75 96 127
74 95 127
74 94 126
74 95 127
74 96 127
72 93 125
74 95 127
74 95 127
73 95 127
71 92 125
74 95 127
74 95 127
74 95 127
73 95 127
73 93 125
73 94 126
72 93 125
72 94 126
73 95 127
74 95 127
74 95 126
73 95 127
73 94 126
74 95 126
75 95 127
72 94 126
73 94 125
72 93 125
73 94 127
71 93 125
73 94 127
73 94 126
72 93 125
71 92 124
74 94 126
73 94 126
73 93 124
74 95 127
70 91 123
72 93 125
74 95 126
70 90 120
72 94 127
72 94 126
72 93 125
71 92 124
74 94 125
72 93 124
75 95 126
71 91 122
72 93 124
74 95 127
73 93 125
72 93 124
73 93 124
70 90 121
73 93 124
71 92 122
71 91 121
71 91 123
71 90 120
67 89 120
71 91 121
72 92 123
71 92 122
70 90 120
53 65 83
54 67 85
47 58 75
50 61 77
51 63 81
55 67 84
52 64 83
51 63 80
51 63 82
49 60 77
50 62 79
53 65 82
54 66 84
48 59 75
52 65 83
56 69 87
57 70 89
54 66 86
59 72 92
55 68 87
58 71 91
60 74 93
51 63 82
58 71 90
58 70 89
52 64 82
55 68 86
50 62 80
58 70 90
53 65 84
55 68 86
57 70 88
52 64 82
58 71 91
56 68 86
54 67 86
58 71 91
52 64 83
58 70 89
59 72 91
52 64 83
56 69 88
57 70 90
57 70 89
54 67 85
50 62 81
55 67 85
49 61 80
57 70 89
57 69 87
52 65 83
52 65 84
61 74 94
53 65 83
56 69 88
52 64 82
53 65 83
55 68 87
58 70 89
53 65 83
53 65 83
56 69 88
55 68 87
50 61 79
58 71 90
53 65 83
54 66 85
52 64 82
57 70 90
49 61 79
57 69 87
54 65 83
53 65 84
54 66 85
52 63 81
57 70 89
55 67 86
55 67 86
59 72 91
55 67 86
56 69 87
53 65 84
50 62 80
55 68 87
58 72 91
51 62 80
53 65 83
54 67 86
55 67 86
52 65 83
59 72 91
57 69 88
52 63 80
51 63 81
53 64 82
50 62 79
55 67 86
53 65 82
51 63 80
52 64 82
56 69 88
56 68 87
50 62 80
54 66 84
52 64 83
57 70 89
53 66 84
56 69 88
53 64 82
54 66 84
54 66 84
54 67 87
70 90 120
69 90 122
72 91 121
72 93 124
71 91 120
69 91 123
72 93 125
71 92 123
72 93 123
69 89 120
71 92 122
69 89 118
70 92 124
72 93 124
72 93 125
73 94 125
70 91 122
73 95 127
73 94 126
72 92 123
73 93 124
74 94 125
73 94 126
73 93 123
72 93 125
73 94 125
71 92 124
74 95 126
72 92 124
72 93 125
73 94 126
74 94 125
74 95 127
73 94 126
73 94 126
73 94 126
73 94 126
73 95 127
72 93 126
73 94 126
72 93 125
73 94 125
73 94 126
72 94 126
72 93 125
73 94 126
72 94 126
73 94 126
73 93 125
74 94 125
74 96 127
73 94 126
73 94 127
74 95 127
75 96 127
73 94 125
72 93 125
74 95 127
73 95 127
74 95 126
72 93 124
73 95 127
74 95 127
73 94 126
73 95 127
73 95 127
74 95 127
74 95 127
73 95 127
74 95 127
74 96 127
75 96 127
74 96 127
74 95 127
74 95 127
74 95 126
74 95 127
74 95 127
74 95 127
74 95 127
72 94 126
72 94 126
74 95 127
74 95 127
75 96 127
73 95 127
74 96 127
74 95 126
75 96 127
74 95 127
74 95 127
74 94 125
74 95 127
74 95 127
74 95 127
74 95 127
75 96 127
74 95 127
72 94 127
74 94 125
74 96 127
73 94 126
74 96 127
76 96 127
75 96 127
74 95 127
72 94 127
74 95 127
75 96 127
73 95 127
74 96 127
75 96 127
74 96 127
75 96 127
74 95 127
73 95 127
75 95 126
75 96 127
74 95 127
73 95 127
75 96 127
74 95 127
74 95 127
75 96 127
73 95 127
74 95 126
75 96 127
73 95 127
72 94 127
74 96 127
74 96 127
74 95 127
75 96 127
74 95 127
74 96 127
74 95 127
75 96 127
75 96 127
75 96 127
73 95 127
74 95 127
73 95 127
75 96 127
75 96 127
74 95 127
75 96 127
74 95 127
75 96 127
75 96 127
74 95 127
73 94 127
75 96 127
75 96 127
74 95 127
75 95 127
74 95 127
75 96 127
74 95 127
76 96 127
73 95 127
75 96 127
74 96 127
74 95 127
74 95 127
74 95 127
74 95 127
75 96 127
73 94 126
73 95 127
74 95 127
73 95 127
74 95 127
74 96 127
74 95 127
74 95 127
73 94 127
75 96 127
73 94 126
76 96 127
74 95 127
73 94 125
74 95 127
73 95 127
74 95 127
74 95 126
73 95 127
74 95 127
75 96 127
76 97 127
73 95 127
73 94 127
75 96 127
74 95 127
74 95 127
75 95 127
74 95 127
73 94 127
75 96 127
75 96 127
75 96 127
74 95 127
74 95 127
73 95 127
74 95 126
73 94 126
73 95 127
73 95 126
72 94 126
75 96 127
73 95 127
74 95 127
74 95 127
73 94 125
72 93 125
74 95 127
73 95 127
73 94 125
75 95 127
75 96 127
72 93 125
74 95 127
72 94 126
73 95 127
73 95 127
73 95 127
73 94 126
75 95 126
74 95 126
73 94 126
74 95 127
73 94 127
74 95 127
73 94 127
73 94 126
73 94 125
73 93 125
72 94 126
73 94 125
73 95 127
71 92 124
71 92 124
72 93 125
72 93 126
74 95 127
73 94 127
71 93 124
72 93 126
74 95 126
73 93 124
74 95 127
74 94 126
70 91 122
71 91 122
73 94 125
71 92 124
72 94 126
71 92 123
74 95 126
72 92 122
72 93 124
74 95 126
72 94 126
71 91 123
71 91 122
73 95 127
72 94 126
72 92 123
72 93 124
71 92 124
72 92 123
72 92 123
72 93 123
75 95 125
69 89 118
72 93 124
70 90 121
71 92 124
71 92 123
73 94 125
72 93 124
71 92 122
69 88 117
72 92 123
70 89 118
72 93 124
70 90 121
73 93 123
72 93 124
65 83 108
53 65 82
54 67 85
50 62 80
56 68 87
56 69 88
53 64 80
51 63 81
55 68 86
54 67 86
54 66 85
56 69 88
55 67 86
54 66 85
53 65 83
52 63 80
48 60 77
54 66 83
54 66 84
52 64 82
54 66 85
54 66 85
53 66 84
53 66 85
54 67 86
57 69 88
48 60 77
52 64 82
58 70 88
54 67 86
52 64 81
55 67 85
54 67 87
57 69 88
52 64 82
55 67 86
56 68 87
53 66 85
57 69 88
61 74 93
54 65 83
50 61 78
52 65 83
55 68 87
54 66 85
54 67 86
58 71 90
50 62 79
53 66 85
57 69 88
50 62 80
54 66 84
52 65 84
53 64 82
51 62 79
53 65 84
54 67 85
53 66 85
56 69 88
50 62 79
56 69 88
55 67 85
54 66 84
54 66 84
55 67 85
54 66 83
51 63 80
50 62 80
54 66 84
53 66 85
57 69 88
53 65 84
52 64 83
51 63 80
54 66 84
54 66 84
56 69 88
51 63 81
53 66 84
57 69 88
53 65 83
53 65 84
53 66 84
50 61 79
50 62 80
61 74 94
52 64 82
52 63 81
55 67 86
57 70 89
54 66 84
51 64 82
53 65 83
57 70 88
56 69 88
54 67 86
53 66 84
54 66 84
53 65 84
54 66 85
51 63 81
52 64 81
52 64 82
57 69 88
57 70 89
53 65 83
50 61 78
51 63 81
55 68 87
56 68 87
49 60 77
64 81 107
72 93 124
70 90 121
72 92 123
70 89 119
73 93 124
72 93 124
69 89 119
72 92 123
71 91 121
70 90 120
70 90 121
72 92 123
71 91 122
71 92 123
70 92 124
72 93 125
67 87 117
73 93 124
73 94 125
74 94 126
73 94 126
69 90 122
73 93 124
74 95 127
72 93 124
73 94 126
71 92 124
72 92 123
70 90 121
71 91 122
71 93 125
73 93 123
74 95 126
73 94 126
72 93 124
73 94 126
71 93 126
73 95 127
72 94 126
71 93 126
72 94 126
73 94 126
73 94 125
74 95 127
73 95 127
73 94 126
72 93 124
74 95 127
74 95 127
73 94 125
73 94 126
74 95 126
73 94 125
71 93 126
74 94 126
72 94 126
72 93 126
72 93 123
75 96 127
73 93 125
74 95 127
73 94 126
72 93 126
74 95 127
75 95 126
74 95 127
73 95 127
73 94 125
75 96 127
74 95 127
71 92 124
71 93 126
72 94 127
73 94 125
73 95 127
72 93 126
74 95 126
76 96 127
74 95 126
73 94 125
75 96 127
74 95 127
75 96 127
76 96 127
74 96 127
73 95 127
74 95 127
73 95 127
74 95 127
74 95 126
74 95 126
75 96 127
74 95 127
74 95 127
73 95 127
74 96 127
75 95 127
76 96 127
74 95 127
73 95 127
73 94 127
74 96 127
74 95 127
73 95 127
75 95 127
75 96 127
72 93 125
74 95 127
74 95 127
75 96 127
74 95 126
75 96 127
74 95 127
76 97 127
73 95 127
73 95 127
74 95 127
75 96 127
73 95 127
74 95 127
73 95 127
74 96 127
75 96 127
73 95 126
74 95 127
74 95 127
75 96 127
73 95 127
75 96 127
73 94 126
73 95 127
74 95 127
74 95 127
76 97 127
73 95 127
73 94 126
74 96 127
74 95 127
74 96 127
75 96 127
74 95 127
75 96 127
74 95 127
74 95 127
73 94 127
75 96 127
75 96 127
73 94 127
73 94 126
75 96 127
74 95 127
74 96 127
74 96 127
74 95 127
74 96 127
75 96 127
74 95 127
76 96 127
75 96 127
75 96 127
74 95 127
72 93 125
74 96 127
74 95 127
74 95 127
74 95 127
74 95 127
74 95 127
73 94 126
73 94 127
74 95 127
75 96 127
74 95 127
74 95 127
73 95 127
73 95 127
76 97 127
75 96 127
75 96 127
74 95 127
74 95 127
74 96 127
72 94 127
73 94 126
74 95 127
74 95 127
72 93 125
74 95 127
73 95 127
74 95 127
74 96 127
72 94 126
73 94 126
73 94 126
72 93 126
75 96 127
73 94 126
74 95 126
73 95 127
72 94 126
74 95 127
73 94 127
74 95 127
72 94 126
74 95 127
74 96 127
75 96 127
73 95 127
73 95 127
74 95 127
73 95 127
74 95 127
72 93 126
74 95 127
73 95 127
74 95 127
73 95 127
75 96 127
73 94 127
72 93 124
75 95 126
72 94 126
71 93 124
72 94 126
74 95 127
73 94 126
73 94 127
73 94 125
73 95 127
73 94 126
73 94 125
73 94 126
74 96 127
74 95 126
75 95 126
73 95 127
71 92 124
73 94 126
74 95 127
73 94 125
72 94 127
73 94 125
72 94 126
71 92 124
72 93 125
75 96 127
74 95 126
70 91 121
72 93 125
72 93 125
72 93 125
73 94 126
73 94 126
73 94 125
73 94 125
74 94 125
73 94 125
73 95 126
73 94 127
75 96 127
72 93 124
73 94 125
70 91 122
72 94 125
70 92 123
70 91 121
72 93 125
73 94 125
74 94 125
72 92 123
71 91 123
73 93 124
70 90 120
74 95 126
71 91 121
71 92 124
74 94 125
72 92 122
71 91 122
69 89 119
72 92 123
69 89 120
70 91 123
71 92 122
72 93 125
71 92 122
69 90 120
67 86 115
70 91 122
53 65 85
52 64 82
52 64 82
50 62 79
45 56 73
51 64 82
52 64 81
51 63 81
56 69 87
54 65 83
52 64 81
58 71 90
52 64 83
51 63 81
55 67 85
55 68 87
58 70 88
54 67 85
58 70 88
54 67 86
57 69 88
48 58 75
56 68 86
49 60 78
51 63 81
52 64 83
55 67 86
52 64 82
55 67 85
50 63 81
54 67 86
53 65 83
57 70 89
48 59 76
48 59 77
50 62 79
53 66 84
53 66 84
51 63 82
51 63 81
51 62 80
54 66 84
51 64 82
53 65 83
52 65 83
52 64 82
51 63 80
54 66 84
54 67 86
55 67 86
57 70 90
54 67 85
56 69 88
56 68 88
54 66 84
57 70 89
50 62 80
56 69 87
55 68 87
53 65 85
51 63 81
53 65 82
54 67 86
53 65 82
55 67 85
56 68 87
57 69 89
56 68 86
55 67 85
59 71 90
55 67 87
54 67 85
57 70 90
54 67 85
55 67 86
52 64 82
51 63 81
49 62 80
53 65 83
53 66 84
55 67 84
61 74 92
55 67 85
59 71 90
57 69 88
54 66 84
60 74 94
53 64 82
54 66 85
58 72 92
53 65 83
53 65 83
53 65 83
50 62 79
51 63 80
53 64 82
55 67 86
59 72 92
45 56 73
51 63 81
52 64 82
52 64 82
52 63 80
51 62 80
57 70 88
54 66 84
50 62 79
49 61 80
44 56 73
57 72 94
68 88 118
71 92 122
70 91 121
71 91 122
70 90 122
71 92 122
70 90 120
70 91 123
70 89 119
71 91 121
71 92 124
72 93 125
71 92 122
69 89 120
70 91 121
70 90 121
71 92 123
73 94 125
71 91 122
73 94 125
73 93 125
74 95 126
73 94 125
72 93 125
72 92 122
72 93 124
71 92 124
72 92 123
73 93 124
74 95 127
73 94 126
72 93 125
73 94 126
73 94 125
72 93 124
72 93 124
70 92 124
73 94 125
73 94 126
73 94 126
73 94 125
75 96 127
75 96 127
73 93 124
73 94 126
73 92 122
73 94 127
74 95 127
74 95 127
73 94 126
72 92 123
71 93 124
74 95 126
74 95 127
73 94 126
73 95 127
73 94 126
75 96 127
75 96 127
73 94 125
73 94 126
74 95 127
73 94 125
74 94 125
73 94 127
74 96 127
72 94 127
73 94 126
73 95 127
74 95 127
73 94 125
75 96 127
73 94 126
73 95 127
73 95 127
73 94 126
72 94 127
75 96 127
73 94 125
74 95 127
74 95 127
73 95 127
74 95 127
75 96 127
72 94 127
74 95 126
74 95 127
74 95 125
73 94 125
74 95 127
75 96 127
73 95 127
73 94 125
72 93 124
74 95 127
74 95 127
74 95 127
74 96 127
73 95 127
74 95 127
73 94 126
73 94 126
73 94 127
75 96 127
73 94 127
73 95 126
73 95 127
74 95 127
75 96 127
73 94 126
74 95 126
75 95 126
74 96 127
74 95 127
75 95 127
73 95 127
73 95 127
75 95 127
74 95 127
73 95 127
74 96 127
75 96 127
73 95 127
74 96 127
73 95 127
74 95 127
74 95 127
75 96 127
74 96 127
73 94 126
74 95 127
73 95 127
76 97 127
73 95 127
74 95 127
74 95 127
73 94 127
72 94 127
73 95 127
75 96 127
74 96 127
74 95 127
74 95 127
75 96 127
73 95 127
74 96 127
74 96 127
74 95 127
74 95 126
73 94 127
73 95 127
74 95 127
76 96 127
72 94 127
73 94 126
73 95 127
75 96 127
74 95 126
73 94 127
74 95 127
73 95 127
73 94 127
74 95 127
73 95 127
73 95 127
76 96 127
73 95 127
74 95 127
74 95 127
75 96 127
74 95 127
75 96 127
75 96 127
74 95 127
74 96 127
74 95 127
74 95 127
74 96 127
74 95 127
75 96 127
75 96 127
74 95 127
74 95 127
73 95 127
74 95 127
73 95 127
74 95 127
74 94 125
74 95 127
74 95 127
74 95 127
75 96 127
75 96 127
74 96 127
74 95 127
74 96 127
73 95 127
75 95 126
74 95 126
72 93 125
73 94 127
74 95 127
73 95 127
74 96 127
73 95 127
73 95 127
75 96 127
74 95 126
72 94 127
74 95 127
74 95 127
73 94 126
73 94 126
75 96 127
74 96 127
74 95 127
73 93 124
73 95 127
75 96 127
73 94 126
73 94 126
73 94 126
74 95 126
72 94 126
71 93 126
74 95 125
72 93 125
74 95 127
75 96 127
73 94 127
74 95 127
73 95 127
72 93 125
72 93 124
74 94 125
72 93 125
74 95 127
71 91 121
73 94 126
74 94 125
72 93 124
74 95 126
74 95 126
74 95 126
73 94 125
73 94 126
73 94 126
72 93 124
75 96 127
72 93 123
74 95 126
72 93 125
71 92 124
71 93 125
70 92 124
72 93 126
72 93 125
70 90 120
71 92 123
73 94 125
71 92 123
73 93 124
73 93 124
73 94 125
71 92 123
72 93 125
71 92 124
71 91 123
73 94 126
70 91 122
72 92 122
72 93 123
70 90 120
70 91 122
71 92 123
71 92 124
70 90 120
72 93 124
71 91 121
73 94 124
69 88 118
68 88 119
71 92 123
70 90 121
70 90 121
69 89 120
71 91 122
70 90 121
67 87 118
68 88 118
65 84 113
48 59 77
51 63 80
46 57 73
51 63 80
53 64 82
46 58 75
55 67 86
50 61 78
52 64 81
55 67 85
53 65 83
50 62 80
60 73 93
48 60 78
50 62 80
53 64 82
52 63 81
56 68 87
52 64 82
54 66 85
53 65 83
51 64 82
57 70 89
48 60 78
49 61 78
50 62 80
55 68 87
53 65 84
53 65 83
56 67 85
52 64 82
52 65 84
55 68 87
57 69 88
51 64 82
57 70 89
52 65 85
50 63 83
57 69 87
57 69 87
55 67 85
57 70 89
52 64 82
53 65 84
54 66 84
53 66 85
53 65 84
55 67 85
54 65 83
51 63 80
54 67 85
50 62 79
52 64 82
51 63 81
55 68 87
55 67 85
50 62 80
52 64 83
52 64 83
53 65 83
52 64 81
55 68 86
55 68 87
54 66 84
59 72 92
48 60 78
50 62 80
51 63 81
54 65 83
53 64 82
53 65 84
55 67 85
55 67 85
54 67 85
49 60 77
54 66 85
53 65 82
58 71 90
56 69 88
47 59 76
53 64 81
59 72 92
52 65 83
51 63 81
49 61 79
57 69 87
56 69 89
52 65 83
52 64 82
52 64 82
47 59 77
55 68 87
57 70 89
54 66 85
55 67 85
50 62 80
52 64 81
47 58 75
52 64 82
54 66 83
51 64 82
54 66 85
56 69 87
57 69 87
50 62 79
53 65 83
56 68 86
50 62 81
69 88 117
69 89 119
71 91 121
68 88 119
68 88 118
70 90 121
68 88 119
72 92 122
71 92 123
69 89 119
71 92 124
72 93 124
72 92 123
69 89 120
72 93 123
71 92 124
72 92 124
72 92 123
72 93 125
72 92 121
73 93 125
68 88 118
71 92 122
73 94 125
71 91 122
74 95 126
72 93 124
70 92 125
71 92 123
69 90 120
71 92 122
70 92 125
73 94 126
71 91 121
73 94 127
72 94 127
73 94 125
72 94 126
74 95 127
72 92 123
72 94 127
71 93 125
73 94 125
72 94 125
73 93 123
71 91 123
71 93 125
74 94 125
73 95 127
74 95 127
74 95 127
73 93 125
73 94 125
73 93 124
71 92 123
73 95 127
73 94 125
72 93 125
73 94 126
75 96 127
72 93 124
72 93 124
73 94 125
74 95 126
73 95 127
73 94 126
74 95 127
75 96 127
74 95 127
75 95 126
73 95 127
74 95 127
73 94 126
73 95 127
74 95 127
74 95 127
75 96 127
75 96 127
73 95 127
74 95 127
72 94 125
73 94 125
74 95 127
73 94 126
73 94 125
73 94 127
74 95 127
75 96 127
74 95 126
74 95 127
74 95 126
74 95 126
74 95 127
72 93 125
73 95 127
73 95 127
73 94 127
74 95 127
72 94 126
72 94 127
73 95 127
75 95 126
73 94 126
74 95 127
74 95 127
73 95 127
75 95 127
74 95 127
74 96 127
73 94 126
75 96 127
75 96 127
74 95 127
73 95 127
73 95 127
75 96 127
73 95 127
75 95 127
74 95 127
73 94 127
76 96 127
74 95 127
74 95 126
74 96 127
75 96 127
73 94 126
73 95 127
74 96 127
74 95 127
74 95 127
75 96 127
74 95 127
74 95 127
74 96 127
74 95 127
74 95 127
73 95 127
74 96 127
74 95 127
72 94 127
74 95 127
74 95 127
75 96 127
73 95 127
73 95 127
74 95 127
74 96 127
75 96 127
74 96 127
74 95 127
74 95 127
74 96 127
74 95 127
74 95 127
75 96 127
74 95 127
74 95 127
74 95 126
74 95 127
74 96 127
74 95 127
74 95 127
76 96 127
73 95 127
73 95 127
75 96 127
74 95 127
74 95 127
73 94 126
72 94 127
75 96 127
73 95 127
73 95 127
73 95 127
75 96 127
74 95 126
73 95 127
75 96 127
74 95 126
74 95 126
72 94 127
75 96 127
75 96 127
73 94 127
74 95 127
74 95 127
74 95 126
74 95 126
74 95 126
74 95 127
74 95 127
74 95 127
74 95 127
74 95 127
72 94 126
73 95 126
74 95 127
74 95 127
74 95 126
75 96 127
75 96 127
72 93 125
72 94 127
74 95 127
72 93 125
75 96 127
73 94 126
73 94 126
74 95 127
74 95 127
74 95 127
73 94 125
73 95 127
75 96 127
74 95 127
71 92 124
74 95 127
72 93 123
73 95 127
73 95 127
72 93 124
73 94 126
73 94 126
73 94 125
72 93 126
73 94 126
72 93 125
73 94 125
74 95 127
71 92 124
74 94 125
74 95 127
72 94 126
72 94 126
71 92 123
73 94 125
73 94 125
75 96 127
72 93 125
72 93 124
74 95 127
72 93 125
72 93 125
73 94 126
71 93 125
72 93 125
72 93 125
71 93 125
73 94 125
69 90 120
74 95 127
71 92 124
72 93 123
72 94 126
72 93 125
70 91 124
73 94 126
73 93 122
73 94 126
70 92 124
72 92 123
71 91 122
73 94 126
72 92 122
73 94 125
72 93 125
74 95 126
73 94 125
70 91 122
72 92 124
71 92 123
71 92 123
70 91 121
71 91 122
73 93 123
71 91 122
71 92 124
72 93 125
69 88 117
70 90 121
71 92 123
68 89 119
68 88 118
68 89 119
70 90 121
70 90 120
70 90 120
69 90 120
67 86 116
72 92 121
68 87 117
68 88 119
61 79 104
55 66 84
49 60 76
50 62 80
54 65 83
52 63 80
49 61 79
57 70 89
54 67 85
55 67 86
52 64 81
47 58 75
55 67 86
48 59 75
49 61 78
50 61 78
53 65 82
52 65 83
50 62 79
48 60 77
50 62 80
52 64 82
54 67 85
58 70 88
55 68 86
56 68 86
51 63 81
48 60 77
46 58 75
54 66 85
60 72 91
55 68 87
56 68 86
54 66 84
57 69 87
52 64 82
54 67 85
48 60 77
54 67 86
53 64 81
55 66 84
54 67 85
54 66 85
54 66 85
51 62 80
48 60 77
52 64 82
56 69 88
55 67 86
58 71 90
52 63 81
54 67 86
55 66 84
55 67 86
60 73 92
54 66 84
54 66 84
51 63 81
57 69 88
55 67 85
52 64 82
56 69 89
49 61 79
50 62 79
55 68 86
50 62 80
53 65 84
55 68 87
56 68 86
59 72 91
52 64 81
48 60 78
55 67 85
56 68 86
58 71 90
55 67 85
53 65 83
52 65 83
49 61 78
51 62 79
54 66 84
55 68 87
53 65 84
49 61 78
48 59 76
52 65 83
53 66 84
57 69 87
52 63 81
54 66 84
58 71 90
48 60 77
52 64 81
54 66 84
51 62 79
56 69 89
51 62 79
46 57 74
52 64 82
51 63 81
51 63 81
50 62 80
50 62 79
56 68 87
49 60 77
50 61 78
50 62 79
60 76 100
63 82 111
70 89 119
70 90 120
68 88 117
69 88 116
69 88 117
71 91 121
70 90 121
70 91 123
72 92 122
71 91 122
70 91 122
70 91 122
70 89 119
70 91 122
72 93 124
70 90 120
71 92 123
69 90 120
69 89 120
71 91 121
70 91 122
72 93 125
69 89 120
71 92 124
71 91 121
71 93 125
70 91 121
73 94 125
72 93 125
72 93 124
70 90 121
73 94 124
72 93 125
72 92 121
72 92 123
71 92 124
72 94 127
72 93 125
73 94 126
71 92 123
73 94 124
73 93 124
73 94 126
74 95 127
71 92 122
70 90 121
72 94 125
72 94 126
72 93 125
72 94 126
73 95 127
72 94 127
73 94 126
72 93 124
72 93 124
72 93 125
73 94 125
73 94 126
73 95 127
71 93 126
75 96 127
72 93 124
75 95 127
74 95 127
74 95 127
74 95 127
73 94 126
71 93 126
72 94 127
73 94 126
74 95 126
75 96 127
73 94 126
74 95 127
73 95 127
74 95 127
73 94 126
74 95 126
74 95 127
73 95 127
74 95 127
74 96 127
73 94 126
73 94 126
75 96 127
74 95 127
73 95 127
72 93 126
73 94 126
74 96 127
74 96 127
74 94 125
73 94 127
74 96 127
75 96 127
74 95 126
75 96 127
74 95 127
75 96 127
74 96 127
74 95 127
74 95 127
74 95 126
73 94 126
75 96 127
75 96 127
75 96 127
74 95 127
72 93 125
73 95 127
73 94 126
74 96 127
74 95 127
74 95 127
75 96 127
73 95 127
73 94 127
74 95 127
72 94 126
73 95 127
74 95 126
74 95 127
75 96 127
75 96 127
74 95 127
74 96 127
73 95 127
74 95 127
73 95 127
74 95 127
73 94 126
75 96 127
74 96 127
73 95 127
74 95 127
73 95 127
74 95 127
74 95 127
74 95 127
74 96 127
74 95 127
74 95 127
73 95 127
74 95 127
75 96 127
74 95 127
74 95 126
73 94 127
74 95 127
72 94 126
74 96 127
73 94 127
73 94 126
74 95 127
74 95 126
74 95 127
73 95 127
75 96 127
73 95 127
73 95 127
75 96 127
75 96 127
74 95 127
74 95 127
75 96 127
73 95 127
74 95 127
74 94 126
74 95 126
73 95 127
73 94 126
74 95 126
73 94 126
73 94 127
73 95 127
75 96 127
73 94 126
74 95 127
74 95 127
73 95 127
74 95 126
73 95 127
73 95 127
74 96 127
75 96 127
73 95 127
74 95 127
75 96 127
74 95 127
73 94 126
73 94 126
73 95 127
73 94 127
74 95 127
75 96 127
73 94 125
73 94 126
74 96 127
73 95 127
74 95 126
73 94 125
71 93 125
74 94 125
73 94 127
74 94 126
72 93 126
71 92 123
73 95 127
76 96 127
73 95 127
74 96 127
75 96 127
72 93 125
72 93 124
73 94 125
74 94 125
72 94 126
72 94 126
73 95 127
73 94 126
74 95 127
74 95 127
72 94 127
73 94 126
72 93 125
75 96 127
74 94 126
72 94 126
74 95 127
71 92 124
74 96 127
75 96 127
74 95 126
74 95 127
73 94 127
72 93 126
72 93 124
73 94 126
71 92 123
72 92 124
75 96 127
72 93 125
72 93 125
72 93 124
72 93 124
71 92 124
71 92 124
72 93 125
70 91 123
74 94 126
70 91 123
74 95 126
72 92 123
73 93 125
70 91 122
75 95 126
72 94 127
71 92 123
73 94 126
72 93 124
71 92 123
71 91 122
72 92 124
69 90 120
73 94 126
71 92 122
70 90 122
68 88 118
70 91 122
70 90 120
71 92 122
70 90 119
69 88 117
71 91 122
70 91 122
69 89 121
69 89 119
68 89 119
68 87 116
67 86 114
71 93 125
70 89 119
68 88 118
69 89 120
71 91 120
68 88 118
70 90 121
70 90 121
68 88 117
66 85 115
66 85 114
67 86 116
51 64 84
50 62 79
54 66 84
54 66 85
51 63 80
53 64 82
52 64 81
48 60 77
50 62 80
53 65 83
50 61 78
53 65 83
52 64 82
52 64 82
49 60 77
47 58 75
53 65 84
51 62 80
49 62 80
58 71 90
54 67 85
61 73 93
57 70 89
53 65 82
53 65 83
50 62 80
53 64 82
51 63 81
49 60 78
52 63 81
56 68 87
51 63 81
50 62 79
54 66 84
54 66 83
54 67 86
49 61 78
54 66 85
50 62 80
54 66 84
54 66 85
53 65 84
51 62 80
50 62 80
50 62 79
53 66 84
52 64 82
48 59 75
52 64 81
46 58 75
56 69 88
52 65 83
54 66 84
55 67 85
49 61 78
54 67 85
55 67 85
52 64 81
50 62 80
50 61 78
50 62 79
52 64 82
57 69 87
52 63 80
55 68 86
53 65 84
53 65 83
52 63 81
52 63 80
50 62 79
54 67 85
52 64 83
57 70 89
53 65 83
54 66 83
52 64 82
54 66 84
51 63 80
54 66 85
54 66 85
51 63 81
51 63 81
52 64 82
51 63 81
53 65 83
49 60 77
52 63 81
51 63 81
47 58 76
50 61 78
60 72 91
47 58 75
50 62 80
50 62 80
55 68 87
51 63 80
50 61 79
53 65 83
51 63 81
52 63 80
46 57 74
53 65 83
55 67 86
51 63 79
46 56 72
54 67 87
69 88 118
67 88 118
68 87 117
68 87 115
70 90 121
68 88 117
65 85 113
68 89 119
69 89 119
70 90 121
69 90 122
69 90 120
69 89 119
68 88 117
70 89 118
70 90 121
69 88 117
68 87 116
71 91 122
68 89 120
70 91 122
70 90 121
70 91 122
71 91 122
70 91 121
72 93 125
69 90 120
70 92 124
71 92 122
70 90 120
70 91 123
71 91 121
70 92 124
72 93 126
71 92 123
72 93 124
73 93 123
74 95 126
73 93 125
71 92 123
73 94 126
71 93 125
72 93 124
72 93 124
72 93 125
73 93 123
73 94 125
73 93 124
73 93 125
73 94 125
73 93 124
73 94 125
72 93 124
73 93 124
73 94 125
73 94 126
73 94 125
72 93 125
74 95 126
73 94 126
73 94 127
74 95 127
73 93 125
72 94 127
72 93 125
73 95 127
72 93 126
72 94 125
73 94 126
72 93 124
73 93 124
73 94 127
72 93 125
71 93 126
75 96 127
73 95 127
74 95 127
72 94 127
73 95 127
73 94 125
72 94 126
74 96 127
72 94 127
74 95 127
73 95 127
73 94 126
73 95 127
74 95 127
73 94 126
72 93 126
74 95 126
74 95 127
74 95 127
74 95 127
73 94 127
75 96 127
75 96 127
74 95 127
73 94 126
74 95 127
75 96 127
75 96 127
74 95 127
73 95 126
74 95 127
75 96 127
75 96 127
72 94 127
74 95 127
72 94 127
73 94 125
75 96 127
74 95 127
74 95 127
74 95 127
73 94 126
74 95 127
75 96 127
75 96 127
73 95 126
74 96 127
74 95 127
75 96 127
74 95 127
73 95 127
76 96 127
74 95 127
73 95 127
73 94 126
75 96 127
72 93 126
74 95 127
74 95 126
73 95 127
74 95 127
74 95 126
73 94 127
74 95 127
74 95 127
74 95 126
73 94 126
73 95 127
75 96 127
75 96 127
74 95 127
73 94 127
74 95 127
74 95 127
74 95 126
75 96 127
76 96 127
73 95 127
73 94 127
74 95 127
72 94 127
74 95 127
74 95 127
75 96 127
74 95 127
74 95 127
75 96 127
73 95 127
74 95 127
73 95 127
73 94 127
75 96 127
75 96 127
75 96 127
73 95 127
74 95 127
75 96 127
73 94 125
75 96 127
74 96 127
75 96 127
72 94 127
73 94 127
74 95 127
73 94 126
74 95 127
72 94 126
73 94 126
74 95 126
74 95 127
75 96 127
73 95 127
73 95 127
73 95 127
74 95 127
75 96 127
75 96 127
73 95 127
73 95 127
73 94 127
73 95 127
73 94 126
75 96 127
74 95 127
75 95 127
72 93 125
74 95 127
74 95 126
73 95 127
73 95 127
73 94 126
72 94 126
72 94 126
74 95 127
72 94 126
73 94 125
74 95 127
72 93 125
75 96 127
75 96 127
75 96 127
73 95 127
72 93 124
73 94 126
72 94 126
74 95 126
72 93 125
72 93 125
74 96 127
73 94 126
72 93 125
72 92 124
73 94 126
74 95 126
72 93 124
75 95 126
71 91 122
73 94 125
73 95 127
72 93 125
74 95 126
73 94 124
70 91 121
72 94 126
71 92 124
72 93 124
74 95 126
72 93 125
72 93 125
72 93 125
72 93 123
73 95 127
72 93 125
72 93 124
73 94 125
72 92 124
71 92 122
72 93 126
73 94 125
73 93 125
72 93 124
72 92 123
71 91 122
72 92 122
72 92 123
72 93 124
73 93 124
70 91 121
69 88 118
72 92 123
72 92 123
72 93 124
71 91 120
71 91 122
70 91 122
69 90 121
71 92 122
69 90 122
71 91 120
72 93 125
70 90 120
70 90 119
70 91 123
71 92 122
69 88 117
69 88 117
71 91 121
72 93 123
70 90 119
68 88 118
66 85 113
69 89 118
68 87 116
70 89 119
66 85 114
66 85 113
68 88 118
68 87 115
72 92 123
71 91 121
67 86 114
54 67 85
47 57 73
54 65 83
48 60 77
52 63 81
54 66 84
51 62 79
50 61 78
54 66 85
48 60 77
51 62 79
51 63 81
54 67 85
55 68 87
51 63 81
51 64 82
57 69 88
56 69 87
51 63 80
51 64 82
50 62 79
53 64 81
56 68 87
52 64 81
54 65 83
53 66 84
54 66 85
47 58 75
51 63 80
52 63 81
52 64 82
49 60 78
51 63 81
52 65 83
51 63 81
51 63 80
57 69 88
51 63 80
51 63 81
48 60 77
51 63 81
57 69 88
51 63 81
52 64 82
58 71 90
52 64 82
49 60 77
54 65 83
51 62 80
57 69 88
52 63 80
53 65 83
53 65 83
53 64 81
54 66 84
49 61 78
52 64 81
50 62 79
47 58 75
48 60 77
52 64 82
56 68 87
54 66 85
52 63 81
55 67 85
55 68 86
48 60 77
52 64 82
54 67 86
54 66 84
55 67 86
55 68 87
53 64 82
52 65 83
54 66 85
55 68 87
53 65 83
56 69 87
55 67 86
53 65 83
54 66 85
52 64 82
56 68 86
50 61 79
55 67 85
56 68 86
51 63 80
54 66 84
52 64 82
56 69 88
47 58 75
55 67 86
48 60 77
47 59 76
53 65 83
52 64 81
52 64 81
48 59 76
48 59 76
49 62 80
48 59 75
53 65 83
49 60 78
49 60 77
66 85 114
64 82 109
68 89 120
71 90 120
70 91 122
67 87 116
67 86 116
69 89 119
68 89 119
69 87 115
70 91 122
70 90 121
70 89 119
68 88 118
67 87 116
69 89 119
71 92 124
72 92 123
72 93 125
73 93 123
71 91 122
71 91 121
72 93 124
70 90 120
70 91 121
73 94 125
70 91 121
70 89 118
71 92 122
73 94 124
72 93 123
68 88 117
71 92 123
71 91 123
71 91 120
71 93 125
70 91 123
71 91 122
72 92 122
72 92 123
72 93 124
70 90 121
70 90 120
73 94 126
71 92 122
72 93 124
72 93 124
69 89 119
73 93 124
71 92 123
72 94 127
73 94 126
70 91 121
75 95 127
73 94 126
73 94 126
72 93 124
72 94 126
72 94 127
72 93 125
75 96 127
74 95 126
74 95 126
75 96 127
75 96 127
71 92 123
72 93 125
71 91 122
73 94 126
70 92 124
70 91 122
73 95 127
73 94 126
75 95 126
74 96 127
72 94 126
72 93 124
72 94 126
72 93 123
74 94 126
73 94 125
73 95 127
73 95 127
74 95 127
73 94 127
72 93 125
73 93 124
73 95 127
73 94 126
73 94 126
75 96 127
71 93 126
74 94 125
73 94 127
72 94 126
73 94 125
74 95 127
73 95 127
73 95 127
73 95 127
73 94 126
75 96 127
74 95 127
73 94 126
73 94 126
74 95 126
73 94 127
73 95 127
73 95 127
73 95 127
75 95 126
74 96 127
75 96 127
73 94 126
75 96 127
73 95 127
73 94 126
74 95 126
73 95 127
73 94 127
75 96 127
74 95 127
75 96 127
74 95 127
74 95 127
76 97 127
73 95 127
73 94 127
75 96 127
72 94 126
75 96 127
74 95 127
74 95 127
72 94 127
75 96 127
74 95 127
73 95 127
76 97 127
74 95 127
74 95 127
73 95 127
74 95 127
74 96 127
73 95 127
73 95 127
74 95 127
74 95 127
74 95 127
75 96 127
75 96 127
73 94 126
74 95 127
73 94 127
73 95 127
75 96 127
76 96 127
75 96 127
74 95 127
73 95 127
73 95 127
74 96 127
74 95 127
73 94 127
74 95 127
75 96 127
74 95 127
73 95 127
73 95 127
74 95 127
74 96 127
74 95 127
75 96 127
74 95 127
74 95 127
74 95 127
73 94 127
72 94 126
72 94 127
73 94 126
74 95 127
73 94 126
74 96 127
74 95 127
73 95 127
74 95 127
74 95 127
74 95 127
74 95 127
74 95 127
72 93 124
73 95 127
74 95 127
74 95 127
73 95 126
73 95 127
74 95 126
75 96 127
73 94 127
74 95 127
73 95 127
74 95 126
74 95 127
74 95 127
71 93 127
73 95 127
73 94 127
73 95 127
74 94 125
74 95 126
74 95 127
73 94 126
73 94 126
74 95 126
72 93 125
74 95 126
73 94 125
73 93 124
74 96 127
73 95 127
72 94 126
71 92 124
73 95 127
75 96 127
73 93 125
72 94 126
73 95 127
71 93 126
74 94 126
73 94 125
73 95 127
73 94 125
73 93 124
76 96 127
72 93 125
73 94 125
73 94 127
73 94 125
72 93 125
74 94 125
72 93 125
74 96 127
73 93 124
73 94 125
72 92 122
73 93 124
73 93 124
72 93 125
73 95 127
70 90 121
71 92 125
74 94 125
72 93 123
72 92 123
74 95 126
72 92 123
71 91 122
71 92 125
70 91 123
69 90 121
71 92 123
70 89 118
71 92 122
69 90 121
69 90 121
72 93 124
73 95 127
71 91 120
72 93 125
71 91 122
72 92 123
72 93 125
70 90 121
70 91 122
70 90 121
69 90 120
69 90 121
70 89 119
69 89 119
68 88 118
71 92 123
70 90 119
69 88 118
69 90 120
69 89 119
67 86 115
70 90 120
69 89 118
67 87 117
69 89 118
69 89 120
68 87 117
68 87 117
66 84 112
68 87 116
68 86 114
66 86 115
60 77 102
49 61 79
51 63 80
48 59 77
50 62 80
48 59 75
48 59 76
53 65 83
57 70 90
47 58 75
53 65 82
48 59 75
53 66 84
52 65 83
49 60 77
44 54 71
52 64 80
54 67 85
53 65 83
50 62 79
48 59 76
51 64 82
56 68 87
52 64 82
54 66 83
49 60 77
54 67 85
51 62 78
54 65 83
54 66 84
58 70 88
47 58 75
52 64 81
53 66 84
50 61 78
51 63 81
50 61 78
55 67 84
53 64 82
50 61 78
51 62 80
51 62 79
52 64 82
52 64 82
53 64 82
51 63 81
52 63 80
60 72 91
51 63 80
51 63 82
56 68 87
53 65 82
54 66 84
50 62 80
55 67 86
52 64 82
53 65 84
57 70 89
46 58 75
50 61 78
49 60 77
50 62 80
53 65 83
54 66 85
51 63 81
53 65 84
49 61 79
58 70 88
49 60 78
52 64 82
54 66 85
51 63 82
50 62 81
49 61 79
51 63 81
52 64 83
52 64 81
50 62 80
49 60 78
55 68 86
51 62 79
54 66 84
49 61 78
53 65 83
52 64 82
49 60 76
47 58 74
53 65 81
56 68 87
48 60 77
52 63 81
48 59 76
50 62 79
52 64 82
50 62 79
50 62 79
52 64 82
55 67 85
50 62 80
47 59 77
45 56 72
49 61 78
48 59 76
63 81 107
67 86 114
62 80 108
69 90 121
69 88 118
67 86 113
70 90 121
69 89 118
71 90 120
72 92 123
70 89 118
68 87 116
67 85 113
69 90 121
71 90 120
71 91 121
71 91 121
68 88 118
69 89 120
68 89 120
70 90 119
73 94 124
73 94 125
67 86 115
70 90 120
72 93 125
72 92 123
69 89 118
70 91 122
71 92 122
72 92 122
71 91 122
72 92 123
71 91 122
73 94 125
71 93 125
73 94 125
72 93 123
70 91 124
69 90 121
73 94 125
73 94 125
72 92 123
74 95 126
70 91 122
71 92 123
71 92 123
71 91 122
69 90 121
70 91 122
71 92 124
71 92 123
73 95 127
71 92 123
73 94 126
74 95 126
71 92 124
73 94 126
74 95 125
73 94 127
71 93 125
72 93 124
72 93 126
71 92 125
73 94 125
71 92 124
74 95 126
73 94 126
72 93 125
73 94 127
72 93 124
73 94 125
73 94 126
73 94 126
73 94 126
72 93 125
74 95 126
72 92 124
75 96 127
72 94 126
72 93 125
72 93 125
73 94 126
74 95 127
72 94 126
73 94 127
70 92 124
73 95 127
73 94 126
74 96 127
72 93 124
73 94 126
73 94 127
73 95 127
72 93 125
73 94 126
73 95 127
74 95 127
72 94 127
73 95 127
73 95 127
75 96 127
75 96 127
74 95 127
73 95 127
74 95 127
73 94 126
73 95 127
73 94 125
74 95 127
75 96 127
74 95 127
74 95 127
73 94 126
73 94 126
74 95 127
72 94 126
74 95 127
74 95 127
74 96 127
73 95 127
72 93 125
74 96 127
74 95 127
74 96 127
74 95 127
74 95 127
72 93 125
74 95 127
74 95 127
75 96 127
74 96 127
74 95 126
74 95 127
74 95 127
74 95 127
75 96 127
75 96 127
74 96 127
74 95 127
74 95 127
74 95 127
74 96 127
75 96 127
73 95 127
73 95 127
74 95 127
76 96 127
74 95 127
73 95 127
74 96 127
73 95 127
75 96 127
74 95 127
75 96 127
74 95 127
72 94 127
74 96 127
74 95 127
74 96 127
74 95 127
74 95 127
73 94 126
73 95 127
73 95 127
73 94 126
73 95 127
75 96 127
75 96 127
74 95 127
75 96 127
73 95 127
73 95 127
73 94 127
74 95 127
74 95 127
72 93 125
73 94 127
73 95 127
73 95 127
73 94 127
73 94 125
73 94 126
75 95 127
74 95 126
73 94 125
72 94 126
73 95 127
73 94 127
74 95 127
74 95 127
73 94 126
74 95 126
73 94 126
74 95 127
75 96 127
74 95 127
73 94 126
73 95 127
74 96 127
74 95 127
72 93 125
73 94 125
73 95 127
74 95 127
73 94 125
74 95 126
72 94 126
73 94 127
72 93 126
73 94 126
73 95 127
72 93 125
73 94 126
73 94 126
75 96 127
72 93 125
73 94 126
75 95 125
72 93 124
72 94 126
74 95 127
75 96 127
72 93 124
73 93 123
72 93 125
73 93 124
73 94 125
71 92 123
72 94 127
73 94 125
73 95 127
72 92 123
70 90 120
74 95 126
72 92 122
71 92 123
73 93 124
73 94 124
73 94 125
72 93 125
72 93 124
71 92 123
73 94 126
74 95 126
71 91 122
72 93 123
72 93 124
71 91 122
74 94 125
73 95 127
73 94 126
71 92 123
72 93 124
72 92 123
72 92 123
70 91 123
74 95 127
74 95 127
70 91 123
70 90 120
72 93 124
67 87 116
70 91 123
70 91 121
69 90 120
72 93 124
71 92 122
71 93 125
69 89 119
72 92 124
65 85 114
71 92 122
70 90 120
70 91 122
67 86 116
69 89 120
66 87 118
68 88 119
70 91 122
68 88 117
70 89 118
68 88 118
69 88 117
68 87 116
68 88 119
68 88 117
66 85 114
68 87 117
61 80 108
66 85 113
71 91 120
68 87 115
64 82 109
68 87 115
62 81 109
65 82 109
67 85 113
57 72 95
46 58 75
43 54 70
51 62 79
50 62 79
46 57 74
49 61 78
51 63 80
51 63 81
47 58 74
53 65 82
53 65 83
47 58 74
55 68 87
52 64 81
51 63 80
49 61 79
48 60 77
50 62 79
52 64 82
54 67 85
52 63 80
54 65 82
48 60 77
44 54 70
53 65 83
48 59 76
52 63 81
53 65 84
51 62 80
48 60 78
55 67 86
51 63 80
51 63 80
52 64 82
51 63 80
54 66 84
44 55 71
50 61 79
53 65 83
51 63 81
53 65 82
52 64 81
52 64 83
49 60 78
51 63 81
55 67 85
51 63 80
52 64 83
55 67 86
52 64 82
46 57 74
51 63 80
53 65 84
55 67 86
51 63 80
52 65 83
54 65 83
51 63 81
49 61 79
54 66 84
52 64 83
56 68 86
53 65 83
51 64 82
46 57 73
50 62 80
48 59 77
53 65 82
55 67 86
49 60 77
49 60 77
53 65 83
56 68 86
56 69 88
53 64 81
48 59 77
52 64 82
50 62 79
48 60 78
54 66 83
51 63 81
53 64 82
55 67 86
56 68 86
55 67 86
49 61 79
51 63 80
52 64 82
44 55 71
50 61 79
51 62 80
54 66 83
44 54 69
50 61 78
47 59 76
47 57 74
49 60 77
49 60 76
49 61 78
45 56 72
60 76 99
63 81 107
68 88 117
68 88 116
66 85 113
65 85 113
67 85 112
62 80 106
71 90 120
64 83 111
68 88 117
68 87 117
68 87 116
68 87 116
68 89 119
70 90 119
69 88 117
68 87 117
64 82 109
68 88 119
65 85 114
69 89 120
71 92 123
68 88 118
73 93 123
69 89 118
70 89 119
71 91 122
70 92 123
69 90 120
69 89 119
71 92 123
71 92 123
72 92 123
69 89 120
71 93 126
72 93 124
72 92 123
74 94 124
71 91 121
72 93 125
71 92 123
72 93 125
71 92 123
72 92 122
69 90 120
70 91 123
70 91 123
72 92 123
74 95 127
74 95 126
73 94 126
73 94 125
73 94 124
70 91 123
73 93 124
72 93 124
73 95 127
72 93 125
75 95 127
72 94 127
73 94 125
73 94 126
72 94 127
74 95 127
74 95 127
72 93 125
72 93 125
73 93 125
74 95 127
73 94 126
72 93 125
74 95 127
73 95 127
73 94 127
72 93 126
73 94 126
72 93 124
73 94 126
72 94 126
72 93 124
73 94 126
74 95 127
73 94 126
73 94 126
71 92 123
74 95 127
74 95 126
72 94 126
72 94 126
73 94 124
73 95 127
73 94 126
73 94 126
72 93 125
74 95 126
73 95 126
74 96 127
74 94 126
75 96 127
73 94 127
72 93 126
72 94 126
73 94 127
74 95 127
76 96 127
73 95 127
73 94 127
74 95 126
73 94 124
75 96 127
73 94 127
73 93 124
73 95 127
72 93 124
73 95 127
73 95 127
74 95 127
74 95 127
75 96 127
72 93 125
74 95 127
73 95 127
73 95 127
73 94 127
74 95 127
74 95 127
72 94 127
73 95 127
73 95 127
74 95 126
74 96 127
74 95 127
73 94 126
74 95 127
73 95 127
73 95 127
74 95 127
73 94 125
73 95 127
74 96 127
75 95 127
72 94 127
75 95 126
74 95 127
73 95 127
73 95 127
73 95 127
74 95 127
74 95 127
74 95 127
74 95 127
75 96 127
75 96 127
73 94 126
74 95 127
73 94 126
73 94 125
73 95 127
73 95 127
74 95 127
75 95 126
76 97 127
75 96 127
73 95 127
73 95 127
74 95 127
75 96 127
73 95 127
74 95 127
71 92 124
73 95 127
73 94 126
73 95 127
73 94 126
73 95 127
72 94 126
75 96 126
72 94 127
71 92 125
73 94 126
74 96 127
73 95 127
74 95 127
73 93 124
75 96 127
74 95 127
73 95 127
72 94 126
73 95 127
72 93 125
72 93 126
76 96 127
73 94 126
73 94 127
73 94 125
72 93 124
75 96 127
74 95 127
72 94 127
73 94 126
72 93 126
74 96 127
73 95 127
73 94 125
71 93 125
72 93 125
72 93 124
74 95 126
73 95 127
74 94 126
72 94 126
72 93 124
73 94 126
73 94 125
74 95 126
73 94 127
73 94 125
73 95 127
75 95 126
73 94 126
74 95 127
73 95 127
72 92 123
73 93 125
72 93 125
72 94 126
72 93 125
72 93 125
71 92 123
72 94 125
71 93 124
72 93 124
73 95 126
72 93 125
71 91 121
73 93 124
72 93 123
71 91 122
74 96 127
72 93 124
70 92 123
73 94 126
71 91 122
72 93 125
72 93 125
75 96 127
72 93 124
69 90 120
73 94 124
72 92 123
73 93 124
72 93 124
71 92 123
72 93 124
72 92 123
73 92 122
70 91 123
70 91 122
70 91 122
69 89 120
71 92 122
69 90 120
70 91 121
72 93 124
71 92 122
68 87 116
70 91 121
69 90 121
71 91 122
68 89 119
66 86 116
69 89 118
70 91 121
72 92 123
69 89 119
68 88 118
69 90 120
69 88 117
69 89 119
67 86 114
69 89 119
67 87 117
68 88 117
67 87 116
66 86 115
68 88 118
67 87 116
68 87 115
66 85 114
67 86 114
67 86 114
64 83 110
64 82 108
65 83 111
63 81 109
61 79 106
67 85 113
63 82 109
64 83 111
55 69 89
50 61 77
50 62 80
47 58 74
50 62 78
49 60 77
46 56 73
51 62 79
52 64 82
54 65 82
48 59 75
48 60 78
45 55 71
48 59 76
49 61 78
52 64 81
50 62 81
48 60 77
49 60 77
53 64 81
52 63 80
49 61 79
52 64 83
51 62 80
55 66 84
44 54 70
45 55 71
50 62 80
52 63 81
48 59 76
52 64 82
53 65 83
56 68 85
58 70 89
47 59 75
52 64 82
52 64 81
50 61 79
52 64 81
52 64 81
53 65 83
48 59 76
54 66 83
53 65 83
49 61 79
54 66 84
47 58 75
50 62 79
53 66 86
45 57 75
52 64 81
54 66 84
48 59 75
54 66 84
48 60 76
49 61 78
57 69 87
52 64 81
54 65 82
49 61 79
51 62 80
51 63 81
51 62 79
52 63 81
47 58 75
53 65 83
48 59 76
53 65 83
48 59 76
48 60 78
54 66 85
48 60 77
53 65 83
49 61 78
50 62 79
49 60 78
48 59 77
52 64 83
50 61 78
48 60 77
44 55 70
49 60 78
53 64 81
53 64 82
47 58 75
48 58 74
49 61 78
48 59 75
45 56 73
47 59 76
47 59 75
52 64 81
47 59 75
50 62 79
50 61 78
46 56 72
53 64 81
52 63 80
47 58 73
53 67 89
60 77 103
66 84 112
66 85 114
67 86 114
63 80 106
67 86 114
68 87 116
67 86 114
65 85 114
63 81 107
65 83 110
66 84 112
61 78 105
69 89 119
63 83 112
66 85 114
68 88 118
69 90 121
69 89 119
70 90 120
66 84 113
71 91 122
70 90 119
69 89 120
68 89 120
66 86 116
69 89 118
70 90 121
69 89 119
69 90 120
72 92 123
69 89 120
69 89 120
69 89 120
70 90 121
67 87 118
71 92 124
69 90 120
72 93 124
71 92 123
72 92 123
71 91 122
71 93 125
72 94 126
69 89 119
71 90 119
70 90 120
71 91 122
70 92 124
70 91 123
72 92 123
72 93 124
71 92 123
72 92 123
70 91 121
72 93 124
71 92 122
71 92 124
71 92 124
74 95 127
71 91 122
72 93 124
72 93 125
73 94 126
72 93 124
72 94 125
72 94 125
74 95 127
72 93 124
74 95 127
73 93 124
73 94 125
72 93 125
73 93 124
71 92 124
74 95 126
73 94 126
73 95 127
70 91 122
72 93 124
72 93 124
73 94 125
72 93 123
72 93 125
75 95 127
74 95 126
73 94 127
73 94 126
73 94 127
74 95 127
74 95 126
72 93 125
74 95 126
72 94 126
73 94 125
70 91 122
73 94 125
73 94 126
72 94 126
74 95 127
73 94 124
73 94 126
74 95 127
73 94 126
74 95 127
74 95 127
74 95 127
73 95 127
74 95 127
72 93 125
73 94 126
73 94 127
72 93 125
74 95 127
73 94 125
74 95 127
73 94 126
73 95 127
73 95 127
73 94 126
74 95 127
74 95 127
72 94 127
75 96 127
74 95 127
74 95 127
74 95 127
75 95 126
73 94 127
72 94 127
73 94 126
73 95 127
76 96 127
74 95 127
74 96 127
73 94 127
74 95 127
71 93 125
75 96 127
74 95 127
73 95 127
73 95 127
75 96 127
75 96 127
73 95 127
74 96 127
73 94 127
74 95 127
73 95 127
72 94 127
73 95 127
74 96 127
74 95 127
74 95 127
74 96 127
75 96 127
73 95 127
74 95 127
73 95 127
74 95 127
73 94 126
74 95 127
74 95 126
76 97 127
73 95 127
74 95 127
74 95 127
75 96 127
73 95 127
73 94 125
73 94 126
73 94 125
75 95 127
73 95 127
75 96 127
74 95 127
75 96 127
71 93 125
75 96 127
74 95 127
74 95 127
72 93 126
75 96 127
73 95 127
75 96 127
73 95 127
74 95 127
75 96 127
74 96 127
74 95 127
75 96 127
73 94 126
73 94 125
73 95 127
75 96 127
74 94 126
75 96 127
74 95 127
74 96 127
73 94 126
72 94 126
72 93 125
74 95 127
73 94 126
72 94 126
71 92 123
72 93 125
73 94 125
73 94 125
72 94 127
73 94 125
74 95 127
74 95 127
74 95 127
73 94 126
73 94 127
74 95 127
73 93 123
71 93 125
73 95 127
73 94 125
74 95 125
73 94 126
72 92 123
73 93 123
72 94 127
72 93 125
73 93 125
73 93 124
73 94 126
72 93 124
73 93 124
72 93 125
73 94 126
72 94 127
73 94 124
72 93 124
72 93 124
74 95 127
71 93 125
70 92 124
72 92 123
72 92 123
70 91 121
73 93 123
71 91 121
75 95 127
73 94 125
72 93 125
73 93 123
70 91 121
72 93 124
72 93 125
73 95 127
73 94 126
67 87 116
69 89 120
70 91 123
70 90 120
71 92 124
72 93 124
72 92 123
71 91 122
69 89 120
70 90 121
72 93 125
68 88 117
71 92 122
70 90 120
70 90 121
69 89 119
70 91 123
69 90 120
69 88 118
68 88 117
72 91 121
65 84 113
73 93 124
67 87 116
65 84 112
68 88 117
66 85 113
64 83 111
66 85 113
69 87 116
70 90 121
68 87 115
68 87 115
67 86 115
65 83 111
65 83 111
70 90 120
64 83 111
67 86 115
59 76 102
61 79 105
64 82 110
64 83 110
61 79 105
63 81 108
66 84 111
56 69 90
45 55 70
48 59 75
52 63 81
44 54 70
53 65 83
44 54 70
49 60 77
50 61 78
46 57 74
49 60 76
45 56 72
50 61 78
46 57 73
50 62 79
52 63 80
48 59 75
53 65 83
51 62 79
47 58 75
52 64 82
53 64 80
54 65 83
50 62 79
53 65 83
50 62 79
52 65 83
54 66 84
47 58 76
45 56 73
51 63 81
49 59 75
52 64 82
48 59 76
51 63 82
51 63 80
56 68 87
49 61 78
57 70 90
48 59 74
52 63 81
49 61 78
51 62 80
51 63 80
52 63 80
51 63 81
48 60 77
57 69 87
48 59 76
53 65 82
57 70 89
52 64 82
57 70 89
53 66 84
48 59 77
49 60 77
51 63 81
54 65 83
55 67 86
46 56 73
51 63 81
53 66 85
51 63 81
50 62 80
49 60 77
52 63 80
49 60 77
46 57 74
52 64 82
53 65 83
48 60 77
53 65 83
54 66 84
46 57 74
52 64 82
45 56 73
49 61 78
50 62 79
47 58 75
53 65 82
50 61 79
54 66 85
50 61 79
52 63 81
43 54 70
49 61 78
58 70 88
51 62 78
44 55 71
51 63 81
43 53 68
49 61 79
46 57 73
46 57 73
48 60 76
46 57 74
43 53 69
51 64 84
64 83 111
66 84 112
65 84 111
66 85 113
65 83 110
65 84 112
62 79 105
64 82 110
69 89 120
64 82 108
68 88 117
67 86 115
64 83 112
65 85 114
67 87 116
69 88 117
68 89 120
67 87 117
66 86 115
71 92 124
69 89 119
68 87 115
72 92 123
68 88 118
66 86 116
70 90 120
69 89 120
69 89 119
71 90 120
69 89 118
68 87 117
70 91 122
70 91 122
66 85 115
70 90 120
68 89 120
71 91 122
70 90 120
71 92 124
70 90 120
72 92 122
73 93 124
70 90 121
72 92 123
69 90 120
72 93 124
71 92 123
70 91 122
69 90 121
71 92 123
71 91 121
73 94 126
69 89 119
70 91 122
71 93 125
72 93 123
73 94 125
71 91 122
72 92 122
71 92 124
70 91 122
75 96 127
72 92 123
69 90 121
71 91 121
73 94 127
74 95 127
73 95 127
72 93 124
72 93 125
72 93 124
72 93 125
74 95 126
73 95 127
72 93 124
73 95 127
71 93 125
74 95 127
74 95 126
73 94 126
73 95 127
74 95 127
73 95 127
74 95 126
73 94 125
72 93 124
73 95 127
74 95 127
72 94 126
74 95 126
73 94 126
75 96 127
72 93 125
72 93 124
72 94 127
75 96 127
75 96 127
72 93 126
73 95 127
73 94 125
73 94 127
73 95 127
73 94 126
73 94 126
74 95 127
73 94 125
74 95 127
73 95 127
72 94 126
73 94 126
71 93 125
74 95 127
72 93 126
72 94 127
74 95 126
74 95 127
74 95 127
73 95 127
75 96 127
73 95 127
73 94 126
74 96 127
75 95 126
73 95 127
73 94 127
75 96 127
74 95 126
73 94 127
74 95 127
73 95 127
74 95 127
73 95 127
75 96 127
73 95 127
74 95 127
73 94 127
74 95 127
74 94 126
74 96 127
74 95 126
75 96 127
75 96 127
73 95 127
74 95 127
74 95 126
74 95 127
72 94 126
74 95 127
74 95 127
73 94 126
75 95 126
74 96 127
73 95 127
73 95 127
74 95 127
75 96 127
74 95 127
75 96 127
74 95 126
73 95 127
73 95 127
74 95 127
72 94 127
73 95 127
74 96 127
73 95 127
71 92 125
73 94 126
75 96 127
75 96 127
73 94 126
74 96 127
74 95 126
71 93 125
72 94 127
75 96 127
73 95 127
73 94 127
74 95 127
74 95 127
74 95 126
75 96 127
73 94 126
73 94 127
74 95 127
73 95 127
76 96 126
72 94 127
72 93 126
74 95 127
74 96 127
74 96 127
75 95 127
73 95 127
72 93 125
73 95 127
70 92 124
74 94 125
73 95 127
73 94 127
74 95 126
75 96 127
72 93 125
73 95 127
72 94 126
73 95 127
74 95 126
73 95 127
72 93 125
73 94 126
71 91 122
74 95 127
70 91 123
71 92 124
74 95 127
72 93 124
73 94 125
73 94 125
73 94 125
72 93 125
73 93 124
74 95 126
72 94 126
70 91 122
73 94 125
74 95 127
73 93 124
74 94 126
74 95 126
73 95 127
73 93 123
72 93 125
73 94 126
71 92 124
72 93 125
72 92 124
71 92 124
72 93 124
73 94 126
73 94 127
74 94 123
70 91 121
71 92 123
72 93 125
72 92 123
72 93 125
72 93 124
71 92 122
71 92 124
72 93 124
71 91 122
69 90 121
71 92 124
72 93 125
70 91 122
72 93 123
71 92 122
71 91 121
70 90 120
71 92 122
70 91 123
71 91 121
70 91 123
71 91 121
71 92 123
72 93 124
67 87 116
72 92 123
67 86 115
70 91 122
69 89 119
69 88 117
68 89 120
64 83 112
71 91 121
66 86 115
70 90 121
70 90 120
72 92 122
67 87 117
66 85 114
70 90 119
67 86 115
66 86 115
66 84 112
67 86 115
64 82 109
67 87 116
64 81 107
64 83 112
65 84 112
64 83 110
65 83 111
63 82 110
65 83 110
63 81 108
68 86 114
60 78 105
66 84 112
63 81 108
65 83 110
63 81 108
62 80 106
47 59 76
45 56 72
50 61 77
47 58 75
49 60 77
49 60 76
50 62 80
53 64 82
48 59 76
52 64 81
47 58 74
50 62 79
44 55 70
51 63 81
46 57 73
51 62 80
48 59 75
50 62 80
50 62 79
49 60 77
48 60 77
53 64 82
52 64 82
50 61 78
53 64 80
50 63 81
54 67 85
54 65 83
46 58 75
54 66 83
50 62 79
54 65 82
56 68 87
45 56 72
53 65 83
50 61 79
52 64 81
51 63 81
49 60 77
53 65 83
49 60 77
50 62 79
55 67 85
49 60 77
45 56 72
50 62 80
47 58 75
50 61 79
54 66 84
54 67 85
48 60 77
53 65 82
52 64 82
54 66 84
56 68 86
50 61 79
44 55 72
51 63 81
50 62 80
52 64 82
53 65 82
55 68 87
51 63 80
50 61 78
52 63 80
51 62 79
50 62 79
51 63 80
54 66 84
54 66 84
46 58 75
51 63 80
51 63 82
53 65 82
49 60 77
53 64 82
47 57 73
49 61 79
49 60 77
49 60 76
51 62 79
50 61 78
53 65 82
46 57 73
50 62 79
53 65 81
46 56 73
50 62 80
49 60 77
42 52 68
52 64 82
45 56 73
52 63 80
45 56 72
44 55 70
51 64 83
62 79 104
64 82 110
65 84 112
61 78 104
64 83 110
63 81 109
66 84 112
60 77 103
66 85 114
68 88 117
65 83 110
64 83 110
68 87 116
66 85 113
66 85 113
68 88 117
68 88 118
70 90 121
69 88 118
66 86 115
67 86 115
67 86 114
69 89 118
69 89 119
69 89 120
64 82 109
68 88 119
68 88 118
70 90 121
69 88 116
70 89 119
70 91 121
68 88 119
72 92 122
72 92 123
68 87 115
68 87 116
69 89 120
70 91 123
71 91 121
70 92 123
73 94 125
72 93 124
70 91 122
73 94 125
72 93 124
73 94 125
72 93 124
73 94 125
70 91 122
73 94 125
73 94 125
70 92 124
72 92 123
71 92 123
69 90 121
71 91 122
71 92 123
69 90 120
71 92 123
71 92 124
74 95 126
69 89 120
71 91 122
73 94 126
72 93 125
72 93 125
70 91 121
70 90 122
71 92 124
69 90 121
72 93 124
71 92 123
72 93 125
71 92 124
71 92 123
75 95 125
75 96 127
72 93 125
72 93 124
72 93 124
73 94 126
74 94 125
74 95 127
72 94 126
74 95 127
73 93 124
73 94 126
73 95 127
74 95 126
74 95 127
72 94 125
72 94 126
75 95 127
73 94 125
75 95 126
72 93 124
72 92 123
73 94 125
73 94 127
74 95 126
72 94 126
73 95 127
76 97 127
73 94 125
74 95 126
75 96 127
73 95 127
73 94 125
73 94 125
72 94 126
73 95 127
74 96 127
73 94 126
73 94 127
73 95 127
72 94 127
73 94 126
74 95 127
73 95 127
72 94 127
72 93 124
71 94 127
72 93 125
75 96 127
74 95 127
74 95 127
72 94 126
73 95 127
74 95 127
74 96 127
73 95 127
74 95 127
75 95 127
73 94 126
73 95 127
74 95 127
73 94 126
75 96 127
73 94 126
71 93 126
73 95 127
73 94 126
75 96 127
74 95 127
73 94 127
75 96 127
75 96 127
75 96 127
75 96 127
74 95 127
72 94 127
74 95 127
73 94 126
74 95 127
76 96 127
74 95 127
72 94 127
75 96 127
73 95 127
74 95 127
75 96 127
73 95 127
73 94 127
72 94 127
74 95 127
74 95 126
72 94 127
73 94 126
72 93 126
74 95 127
74 95 127
74 94 124
73 94 126
73 94 126
74 95 127
72 94 126
74 94 125
75 96 127
73 94 125
74 95 127
73 95 127
72 93 126
74 95 127
74 95 127
74 95 126
73 95 127
73 95 127
73 94 126
72 93 125
73 94 126
74 95 126
72 94 126
74 95 126
73 93 124
74 95 127
73 94 127
72 94 126
74 95 127
71 92 125
73 95 127
74 95 127
73 94 125
74 95 126
73 93 124
73 94 126
74 95 127
73 94 126
73 94 126
73 94 126
73 94 126
73 94 125
72 93 124
74 95 127
70 91 122
71 92 124
73 94 127
73 94 125
73 94 126
73 94 125
74 95 127
71 92 124
71 92 124
73 93 124
74 95 127
72 93 124
75 96 127
72 93 124
72 93 124
72 93 124
72 93 124
71 91 121
71 91 123
68 88 117
73 94 126
73 94 124
72 93 124
73 93 123
70 91 121
71 92 122
70 91 122
70 91 123
72 93 123
72 93 124
71 92 122
70 91 122
71 92 123
72 93 124
71 91 121
72 92 123
69 89 119
69 91 122
70 90 120
70 90 120
71 92 123
73 93 123
73 93 124
71 91 120
72 93 124
69 89 118
69 89 119
70 90 121
72 93 124
69 90 121
69 89 118
69 89 119
70 91 121
68 87 116
71 91 120
68 89 120
69 89 119
68 88 118
70 90 119
72 93 124
70 89 119
69 89 118
68 88 118
69 89 120
65 85 115
70 90 120
66 84 112
67 86 116
67 86 115
69 88 117
66 86 116
65 83 111
70 90 119
66 85 113
64 84 113
62 80 107
63 82 110
61 77 102
63 81 107
64 83 111
64 81 106
64 83 110
67 86 114
66 84 112
58 75 101
59 76 102
58 75 100
63 80 105
60 77 103
57 72 95
58 74 99
43 55 71
44 55 70
48 59 75
45 55 71
50 61 78
51 62 79
48 59 75
44 54 70
46 57 74
50 61 79
51 63 80
46 57 73
48 59 76
52 64 81
53 65 82
46 56 73
41 52 68
49 60 76
49 61 79
47 58 75
46 57 74
52 64 80
45 57 73
55 67 85
50 61 78
50 61 78
46 57 74
55 67 85
54 66 84
52 64 82
48 59 77
49 61 78
49 60 76
56 67 84
53 65 84
45 56 73
48 59 75
48 59 76
50 61 78
50 62 79
48 60 77
51 63 82
51 63 80
48 59 75
49 61 78
48 59 76
48 59 76
51 63 80
50 62 79
56 69 87
51 62 79
58 70 89
51 62 80
51 63 80
49 61 78
50 61 78
49 60 77
51 63 81
52 64 82
49 61 77
48 59 76
51 62 79
51 63 81
47 59 75
50 61 78
55 67 85
49 60 77
54 66 85
48 59 75
51 63 81
51 63 80
51 63 80
48 59 75
43 55 71
49 61 78
48 60 77
50 61 78
46 56 73
51 62 79
47 58 75
51 62 80
48 60 77
47 58 74
52 63 80
45 55 71
43 54 70
50 60 76
46 57 73
48 59 76
43 54 70
43 53 69
44 55 70
49 60 76
48 59 76
64 82 109
64 81 106
63 80 107
64 82 110
62 79 105
63 81 108
61 79 105
65 83 111
68 88 119
66 85 113
63 81 109
67 85 112
62 80 107
64 83 111
62 80 107
65 84 112
65 84 111
66 85 114
64 83 111
66 84 112
66 85 113
66 85 114
66 86 115
70 91 121
68 88 117
69 88 116
69 89 119
67 86 116
68 88 119
67 86 115
70 89 118
69 88 117
66 85 113
68 89 119
71 91 120
68 88 118
68 89 119
67 85 113
68 88 117
70 91 122
74 94 124
72 93 124
69 89 119
69 90 121
68 90 122
73 93 123
69 90 121
73 93 123
72 92 122
71 92 123
72 93 125
72 92 123
70 91 122
70 90 121
72 93 124
71 91 122
72 92 122
70 90 120
73 93 124
70 90 121
71 92 123
69 89 119
73 95 127
73 95 127
73 94 125
71 91 121
72 93 125
72 93 124
72 93 125
70 91 123
74 94 125
71 92 123
73 95 126
73 94 126
73 93 124
73 94 125
72 92 123
72 93 125
72 93 124
73 93 124
72 93 126
72 93 124
72 94 125
73 94 127
72 92 123
73 94 126
75 95 126
73 94 126
74 95 126
74 96 127
74 95 126
74 95 127
74 95 126
72 93 126
74 95 126
73 94 125
75 95 126
73 94 126
74 94 125
73 94 125
73 94 126
74 95 127
73 94 126
72 93 125
74 95 127
74 96 127
73 95 127
73 95 127
73 94 126
71 92 124
73 95 127
73 93 124
72 94 126
73 94 126
74 95 126
72 93 124
73 94 125
72 94 127
73 94 126
73 95 127
72 94 126
74 94 125
74 95 127
73 94 127
76 96 127
73 95 127
73 94 125
74 95 127
74 95 126
73 94 126
74 95 127
73 95 127
73 95 127
75 95 126
72 94 126
73 95 127
74 95 127
72 94 127
74 95 127
73 94 127
74 95 127
73 95 127
73 94 126
74 95 127
72 94 127
72 93 125
73 94 125
74 96 127
74 95 127
74 96 127
70 92 124
74 95 127
74 95 126
75 96 127
74 96 127
74 95 127
74 96 127
75 96 127
74 95 126
74 96 127
74 95 126
73 94 126
75 96 127
74 95 126
74 95 126
73 94 126
74 95 126
73 94 126
74 96 127
73 94 127
73 94 126
72 94 126
72 94 126
74 95 127
73 94 127
74 95 127
74 95 126
73 95 127
73 94 125
74 96 127
74 96 127
74 96 127
73 94 127
74 96 127
74 95 127
72 93 125
74 95 126
74 95 127
72 94 126
74 95 125
73 94 126
75 96 127
74 95 126
74 95 127
75 96 127
71 93 125
74 94 125
74 95 126
73 95 127
73 94 126
73 94 125
74 94 126
71 92 125
73 94 126
72 93 125
74 95 127
74 94 125
71 93 125
72 93 124
71 92 123
73 94 125
72 93 125
74 95 127
71 92 123
72 94 126
74 95 126
73 94 125
72 93 125
73 94 125
73 93 124
70 91 122
72 93 125
72 93 125
72 92 123
73 94 126
71 92 124
72 94 125
71 92 122
75 95 126
73 94 126
72 94 126
73 95 127
71 92 123
73 93 125
74 95 126
72 93 124
72 92 123
73 94 127
71 92 124
70 91 124
70 91 121
69 90 120
70 91 122
71 92 124
72 93 124
71 92 122
72 92 121
74 94 124
72 93 125
71 92 124
73 94 126
70 90 120
74 95 127
71 92 123
72 92 123
69 89 119
68 88 118
71 91 121
71 91 122
72 92 123
71 90 119
70 90 120
72 92 123
72 92 123
69 89 118
67 86 114
69 89 119
70 90 120
71 92 123
69 89 119
65 85 114
68 88 118
70 90 121
71 91 122
71 91 120
66 85 112
68 87 116
67 86 116
66 86 114
68 87 116
66 85 114
65 84 111
64 83 111
68 87 117
64 83 110
68 87 117
65 84 112
66 84 112
64 83 112
63 82 109
65 84 111
64 83 110
68 87 116
61 79 106
63 81 107
61 79 104
62 79 105
65 83 110
62 80 107
64 82 109
60 77 102
56 72 96
59 75 100
56 72 97
56 72 96
60 77 103
62 79 105
46 58 75
47 58 75
43 53 68
46 57 73
49 60 76
47 58 73
50 61 78
51 62 80
48 60 77
45 55 71
49 60 76
56 68 87
50 62 79
46 57 74
50 61 78
49 59 76
50 62 79
49 60 78
48 59 76
47 58 75
45 56 72
48 60 77
48 59 76
46 57 73
50 61 79
48 60 76
54 66 83
51 62 79
46 57 74
51 62 79
47 58 76
51 62 80
45 56 73
56 68 85
52 63 80
50 62 80
47 58 76
49 61 78
48 59 75
51 63 81
48 59 75
49 61 78
45 55 71
47 58 75
49 61 78
45 56 72
46 57 74
47 59 75
49 60 77
52 64 82
50 61 78
49 60 78
55 67 85
50 62 79
50 62 79
50 62 79
45 55 71
50 61 78
49 60 77
55 66 84
48 60 78
48 59 76
50 62 79
45 56 72
52 64 83
48 59 75
44 55 71
50 61 78
50 61 77
51 63 81
51 63 80
48 60 78
43 54 70
48 60 77
42 53 69
53 65 82
52 64 82
49 61 79
51 62 79
54 65 82
46 57 73
46 56 72
41 52 68
50 61 78
47 58 74
49 61 78
45 55 71
50 61 77
42 53 68
46 57 73
50 62 79
49 60 77
58 73 96
59 76 100
62 80 107
63 81 107
66 83 110
59 75 100
62 78 104
62 79 106
64 81 107
63 80 105
66 85 114
63 81 108
65 83 110
63 81 108
65 84 112
65 84 111
64 82 109
64 83 111
60 79 106
64 82 110
66 86 115
70 90 121
64 82 110
66 86 116
65 84 113
65 83 111
66 85 114
65 85 114
66 85 114
66 83 109
67 86 115
69 89 119
67 86 115
70 90 121
71 91 121
69 89 119
65 85 114
69 89 120
68 87 116
68 88 118
68 88 117
69 89 119
69 89 119
69 90 120
68 88 119
69 90 122
70 91 122
72 92 122
69 88 117
71 92 123
70 89 118
71 92 124
72 92 123
69 89 120
72 93 124
71 91 121
68 88 118
72 93 124
69 89 120
70 90 120
69 89 119
71 92 123
73 94 126
72 92 123
72 93 124
71 91 121
72 92 122
71 91 122
71 92 124
71 91 121
75 95 126
71 92 123
73 94 126
71 92 124
72 92 124
73 93 122
73 94 124
73 94 126
71 92 124
73 93 123
73 94 126
70 92 123
72 94 125
73 94 126
72 94 126
72 93 124
71 92 124
72 93 124
74 95 127
70 92 124
73 94 127
72 93 125
69 89 120
73 94 125
70 90 121
72 93 124
75 95 127
74 94 124
72 93 124
74 95 127
72 94 126
73 93 125
72 94 127
74 95 126
73 94 126
73 94 126
74 95 127
73 94 127
73 94 125
74 95 127
73 94 126
74 95 127
74 95 127
73 94 126
73 94 126
74 95 127
74 95 127
74 95 125
73 94 126
73 94 126
72 92 124
75 96 127
74 95 126
73 95 127
70 91 123
73 94 126
73 95 127
73 95 127
73 95 127
74 95 127
75 96 127
73 95 127
73 95 127
73 94 127
74 95 127
73 95 127
74 95 127
73 94 127
73 94 125
74 95 127
74 95 127
74 95 127
75 96 127
74 95 127
73 95 127
76 97 127
75 96 127
74 95 127
75 96 127
72 94 126
74 95 127
74 95 127
74 95 126
73 95 127
71 93 126
72 94 127
73 94 127
73 95 127
74 95 127
71 93 126
75 95 127
74 95 127
73 94 126
74 95 127
75 95 126
72 93 125
74 95 127
74 96 127
74 95 127
73 94 126
73 94 126
72 93 125
73 95 127
72 93 124
73 94 126
72 94 126
72 93 125
75 96 127
73 94 127
73 94 126
74 95 127
73 94 126
73 94 125
72 94 127
73 94 125
74 95 127
73 94 125
74 95 127
74 96 127
72 94 126
73 94 125
74 95 126
73 94 126
72 93 125
72 94 126
73 94 126
72 93 126
74 96 127
72 92 123
74 94 124
74 95 126
74 95 127
73 94 127
73 94 126
73 95 126
71 92 124
74 95 127
74 94 125
72 94 126
73 94 